%
(1001)
(T1  D=0.25 CR=0. TAPER=45deg - ZMIN=0. - chamfer mill)
G90 G54 G64 G50 G17 G40 G80 G94 G91.1 G49
G20 (Inch)
G30

N10(Test)
T1 G43 H1 M6
S5100 M3 M8
G54
G0 X0.1585 Y0.2392
G0 Z0.2
G0 Z0.15
G1 Z0. F5.
G1 Y0.1122 F10.
G1 Z0.15 F5.
G0 X0.2537 Y0.1083
G1 Z0. F5.
G1 Y0.2392 F10.
G1 X0.3112
G1 Z0.15 F5.
G0 X0.3095 Y0.1737
G1 Z0. F5.
G1 X0.2537 F10.
G1 Z0.15 F5.
G0 X0.3092 Y0.1083
G1 Z0. F5.
G1 X0.2537 F10.
G1 Z0.15 F5.
G0 X0.4123 Y0.2165
G1 Z0. F5.
G1 X0.4098 Y0.2231 F10.
G1 X0.406 Y0.2289
G1 X0.4009 Y0.2337
G1 X0.3949 Y0.2374
G1 X0.3883 Y0.2396
G1 X0.3814 Y0.2403
G1 X0.3744 Y0.2396
G1 X0.3678 Y0.2373
G1 X0.3619 Y0.2336
G1 X0.3568 Y0.2287
G1 X0.353 Y0.2229
G1 X0.3506 Y0.2163
G1 X0.3496 Y0.2094
G1 X0.3501 Y0.2024
G1 X0.3522 Y0.1957
G1 X0.3557 Y0.1897
G1 X0.3604 Y0.1845
G1 X0.3661 Y0.1805
G1 X0.3726 Y0.1778
G1 X0.3795 Y0.1766
G1 X0.3867 Y0.1765
G1 X0.3937 Y0.1749
G1 X0.4003 Y0.1719
G1 X0.4061 Y0.1676
G1 X0.4109 Y0.1622
G1 X0.4145 Y0.1559
G1 X0.4167 Y0.149
G1 X0.4174 Y0.1418
G1 X0.4167 Y0.1346
G1 X0.4144 Y0.1277
G1 X0.4108 Y0.1215
G1 X0.406 Y0.1161
G1 X0.4002 Y0.1118
G1 X0.3936 Y0.1088
G1 X0.3865 Y0.1072
G1 X0.3793
G1 X0.3722 Y0.1086
G1 X0.3656 Y0.1114
G1 X0.3597 Y0.1156
G1 X0.3547 Y0.1209
G1 X0.351 Y0.1271
G1 Z0.15 F5.
G0 X0.4395 Y0.2372
G1 Z0. F5.
G1 X0.5401 F10.
G1 Z0.15 F5.
G0 X0.4885 Y0.2392
G1 Z0. F5.
G1 Y0.1122 F10.
G1 Z0.15 F5.
G0 X0.5913 Y0.3001
G1 Z0. F5.
G1 Y0.05 F10.
G1 Z0.15 F5.
G0 X0.6309 Y0.3001
G1 Z0. F5.
G1 Y0.05 F10.
G1 Z0.15 F5.
G0 X0.6704 Y0.3001
G1 Z0. F5.
G1 Y0.05 F10.
G1 Z0.15 F5.
G0 X0.71 Y0.3001
G1 Z0. F5.
G1 Y0.05 F10.
G1 Z0.15 F5.
G0 X0.1095 Y0.2372
G1 Z0. F5.
G1 X0.2101 F10.
G1 Z0.15 F5.
G0 Z0.2
M5 M9

G30
M30
%
