%
(TestEngraving)
(T1  D=0.25 CR=0. TAPER=45deg - ZMIN=0. - chamfer mill)
G90 G54 G64 G50 G17 G40 G80 G94 G91.1 G49
G20 (Inch)

N10(Test)
T1 G43 H1 M6
M5 M9 (SPINDLE IS OFF)
G54
G0 X-2.721 Y2.6526
G0 Z0.2
G0 Z0.15
G1 Z0. F5.
G1 Y2.5257
G1 Z0.15
G0 X-2.6258 Y2.5217
G1 Z0. F5.
G1 Y2.6526
G1 X-2.5682
G1 Z0.15
G0 X-2.57 Y2.5871
G1 Z0. F5.
G1 X-2.6258
G1 Z0.15
G0 X-2.5702 Y2.5217
G1 Z0. F5.
G1 X-2.6258
G1 Z0.15
G0 X-2.4671 Y2.63
G1 Z0. F5.
G1 X-2.4696 Y2.6365
G1 X-2.4735 Y2.6423
G1 X-2.4785 Y2.6472
G1 X-2.4845 Y2.6508
G1 X-2.4911 Y2.653
G1 X-2.4981 Y2.6538
G1 X-2.5051 Y2.653
G1 X-2.5117 Y2.6507
G1 X-2.5176 Y2.647
G1 X-2.5226 Y2.6421
G1 X-2.5264 Y2.6363
G1 X-2.5289 Y2.6297
G1 X-2.5299 Y2.6228
G1 X-2.5293 Y2.6158
G1 X-2.5273 Y2.6091
G1 X-2.5238 Y2.6031
G1 X-2.5191 Y2.5979
G1 X-2.5134 Y2.5939
G1 X-2.5069 Y2.5912
G1 X-2.5 Y2.59
G1 X-2.4928 Y2.5899
G1 X-2.4857 Y2.5883
G1 X-2.4791 Y2.5853
G1 X-2.4733 Y2.581
G1 X-2.4685 Y2.5756
G1 X-2.465 Y2.5693
G1 X-2.4628 Y2.5624
G1 X-2.462 Y2.5552
G1 X-2.4628 Y2.548
G1 X-2.465 Y2.5411
G1 X-2.4686 Y2.5349
G1 X-2.4735 Y2.5295
G1 X-2.4793 Y2.5252
G1 X-2.4859 Y2.5222
G1 X-2.4929 Y2.5206
G1 X-2.5002
G1 X-2.5073 Y2.522
G1 X-2.5139 Y2.5249
G1 X-2.5198 Y2.529
G1 X-2.5247 Y2.5343
G1 X-2.5285 Y2.5405
G1 Z0.15
G0 X-2.44 Y2.6506
G1 Z0. F5.
G1 X-2.3394
G1 Z0.15
G0 X-2.391 Y2.6526
G1 Z0. F5.
G1 Y2.5257
G1 Z0.15
G0 X-2.2882 Y2.7135
G1 Z0. F5.
G1 Y2.4634
G1 Z0.15
G0 X-2.2486 Y2.7135
G1 Z0. F5.
G1 Y2.4634
G1 Z0.15
G0 X-2.209 Y2.7135
G1 Z0. F5.
G1 Y2.4634
G1 Z0.15
G0 X-2.1695 Y2.7135
G1 Z0. F5.
G1 Y2.4634
G1 Z0.15
G0 X-2.77 Y2.6506
G1 Z0. F5.
G1 X-2.6694
G1 Z0.15
G0 Z0.2
M5 M9

M30
%
