%
(CalenderEngraving)
(T1  D=0.25 CR=0. TAPER=45deg - ZMIN=0. - chamfer mill)
G90 G54 G64 G50 G17 G40 G80 G94 G91.1 G49
G20 (Inch)

N10(Trace1)
T1 G43 H1 M6
M5 M9 (SPINDLE IS OFF)
G54
G0 X-2.625 Y0.
G0 Z0.2
G0 Z0.15
G1 Z0. F5.
G1 X-2.6241 Y0.0678
G1 X-2.6216 Y0.1351
G1 X-2.6173 Y0.202
G1 X-2.6114 Y0.2684
G1 X-2.6039 Y0.3343
G1 X-2.5948 Y0.3998
G1 X-2.584 Y0.4647
G1 X-2.5717 Y0.529
G1 X-2.5578 Y0.5928
G1 X-2.5424 Y0.656
G1 X-2.5254 Y0.7186
G1 X-2.507 Y0.7806
G1 X-2.4871 Y0.8419
G1 X-2.4657 Y0.9026
G1 X-2.4429 Y0.9625
G1 X-2.4187 Y1.0218
G1 X-2.3931 Y1.0803
G1 X-2.3661 Y1.138
G1 X-2.3378 Y1.195
G1 X-2.3082 Y1.2512
G1 X-2.2772 Y1.3066
G1 X-2.245 Y1.3612
G1 X-2.2115 Y1.4148
G1 X-2.1767 Y1.4677
G1 X-2.1407 Y1.5196
G1 X-2.1035 Y1.5706
G1 X-2.0651 Y1.6206
G1 X-2.0256 Y1.6697
G1 X-1.9849 Y1.7179
G1 X-1.9431 Y1.765
G1 X-1.9002 Y1.8111
G1 X-1.8562 Y1.8562
G1 X-1.8111 Y1.9002
G1 X-1.765 Y1.9431
G1 X-1.7179 Y1.9849
G1 X-1.6697 Y2.0256
G1 X-1.6206 Y2.0651
G1 X-1.5706 Y2.1035
G1 X-1.5196 Y2.1407
G1 X-1.4677 Y2.1767
G1 X-1.4148 Y2.2115
G1 X-1.3612 Y2.245
G1 X-1.3066 Y2.2772
G1 X-1.2512 Y2.3082
G1 X-1.195 Y2.3378
G1 X-1.138 Y2.3661
G1 X-1.0803 Y2.3931
G1 X-1.0218 Y2.4187
G1 X-0.9625 Y2.4429
G1 X-0.9026 Y2.4657
G1 X-0.8419 Y2.4871
G1 X-0.7806 Y2.507
G1 X-0.7186 Y2.5254
G1 X-0.656 Y2.5424
G1 X-0.5928 Y2.5578
G1 X-0.529 Y2.5717
G1 X-0.4647 Y2.584
G1 X-0.3998 Y2.5948
G1 X-0.3343 Y2.6039
G1 X-0.2684 Y2.6114
G1 X-0.202 Y2.6173
G1 X-0.1351 Y2.6216
G1 X-0.0678 Y2.6241
G1 X0. Y2.625
G1 X0.0678 Y2.6241
G1 X0.1351 Y2.6216
G1 X0.202 Y2.6173
G1 X0.2684 Y2.6114
G1 X0.3343 Y2.6039
G1 X0.3998 Y2.5948
G1 X0.4647 Y2.584
G1 X0.529 Y2.5717
G1 X0.5928 Y2.5578
G1 X0.656 Y2.5424
G1 X0.7186 Y2.5254
G1 X0.7806 Y2.507
G1 X0.8419 Y2.4871
G1 X0.9026 Y2.4657
G1 X0.9625 Y2.4429
G1 X1.0218 Y2.4187
G1 X1.0803 Y2.3931
G1 X1.138 Y2.3661
G1 X1.195 Y2.3378
G1 X1.2512 Y2.3082
G1 X1.3066 Y2.2772
G1 X1.3612 Y2.245
G1 X1.4148 Y2.2115
G1 X1.4677 Y2.1767
G1 X1.5196 Y2.1407
G1 X1.5706 Y2.1035
G1 X1.6206 Y2.0651
G1 X1.6697 Y2.0256
G1 X1.7179 Y1.9849
G1 X1.765 Y1.9431
G1 X1.8111 Y1.9002
G1 X1.8562 Y1.8562
G1 X1.9002 Y1.8111
G1 X1.9431 Y1.765
G1 X1.9849 Y1.7179
G1 X2.0256 Y1.6697
G1 X2.0651 Y1.6206
G1 X2.1035 Y1.5706
G1 X2.1407 Y1.5196
G1 X2.1767 Y1.4677
G1 X2.2115 Y1.4148
G1 X2.245 Y1.3612
G1 X2.2772 Y1.3066
G1 X2.3082 Y1.2512
G1 X2.3378 Y1.195
G1 X2.3661 Y1.138
G1 X2.3931 Y1.0803
G1 X2.4187 Y1.0218
G1 X2.4429 Y0.9625
G1 X2.4657 Y0.9026
G1 X2.4871 Y0.8419
G1 X2.507 Y0.7806
G1 X2.5254 Y0.7186
G1 X2.5424 Y0.656
G1 X2.5578 Y0.5928
G1 X2.5717 Y0.529
G1 X2.584 Y0.4647
G1 X2.5948 Y0.3998
G1 X2.6039 Y0.3343
G1 X2.6114 Y0.2684
G1 X2.6173 Y0.202
G1 X2.6216 Y0.1351
G1 X2.6241 Y0.0678
G1 X2.625 Y0.
G1 X2.6241 Y-0.0678
G1 X2.6216 Y-0.1351
G1 X2.6173 Y-0.202
G1 X2.6114 Y-0.2684
G1 X2.6039 Y-0.3343
G1 X2.5948 Y-0.3998
G1 X2.584 Y-0.4647
G1 X2.5717 Y-0.529
G1 X2.5578 Y-0.5928
G1 X2.5424 Y-0.656
G1 X2.5254 Y-0.7186
G1 X2.507 Y-0.7806
G1 X2.4871 Y-0.8419
G1 X2.4657 Y-0.9026
G1 X2.4429 Y-0.9625
G1 X2.4187 Y-1.0218
G1 X2.3931 Y-1.0803
G1 X2.3661 Y-1.138
G1 X2.3378 Y-1.195
G1 X2.3082 Y-1.2512
G1 X2.2772 Y-1.3066
G1 X2.245 Y-1.3612
G1 X2.2115 Y-1.4148
G1 X2.1767 Y-1.4677
G1 X2.1407 Y-1.5196
G1 X2.1035 Y-1.5706
G1 X2.0651 Y-1.6206
G1 X2.0256 Y-1.6697
G1 X1.9849 Y-1.7179
G1 X1.9431 Y-1.765
G1 X1.9002 Y-1.8111
G1 X1.8562 Y-1.8562
G1 X1.8111 Y-1.9002
G1 X1.765 Y-1.9431
G1 X1.7179 Y-1.9849
G1 X1.6697 Y-2.0256
G1 X1.6206 Y-2.0651
G1 X1.5706 Y-2.1035
G1 X1.5196 Y-2.1407
G1 X1.4677 Y-2.1767
G1 X1.4148 Y-2.2115
G1 X1.3612 Y-2.245
G1 X1.3066 Y-2.2772
G1 X1.2512 Y-2.3082
G1 X1.195 Y-2.3378
G1 X1.138 Y-2.3661
G1 X1.0803 Y-2.3931
G1 X1.0218 Y-2.4187
G1 X0.9625 Y-2.4429
G1 X0.9026 Y-2.4657
G1 X0.8419 Y-2.4871
G1 X0.7806 Y-2.507
G1 X0.7186 Y-2.5254
G1 X0.656 Y-2.5424
G1 X0.5928 Y-2.5578
G1 X0.529 Y-2.5717
G1 X0.4647 Y-2.584
G1 X0.3998 Y-2.5948
G1 X0.3343 Y-2.6039
G1 X0.2684 Y-2.6114
G1 X0.202 Y-2.6173
G1 X0.1351 Y-2.6216
G1 X0.0678 Y-2.6241
G1 X0. Y-2.625
G1 X-0.0678 Y-2.6241
G1 X-0.1351 Y-2.6216
G1 X-0.202 Y-2.6173
G1 X-0.2684 Y-2.6114
G1 X-0.3343 Y-2.6039
G1 X-0.3998 Y-2.5948
G1 X-0.4647 Y-2.584
G1 X-0.529 Y-2.5717
G1 X-0.5928 Y-2.5578
G1 X-0.656 Y-2.5424
G1 X-0.7186 Y-2.5254
G1 X-0.7806 Y-2.507
G1 X-0.8419 Y-2.4871
G1 X-0.9026 Y-2.4657
G1 X-0.9625 Y-2.4429
G1 X-1.0218 Y-2.4187
G1 X-1.0803 Y-2.3931
G1 X-1.138 Y-2.3661
G1 X-1.195 Y-2.3378
G1 X-1.2512 Y-2.3082
G1 X-1.3066 Y-2.2772
G1 X-1.3612 Y-2.245
G1 X-1.4148 Y-2.2115
G1 X-1.4677 Y-2.1767
G1 X-1.5196 Y-2.1407
G1 X-1.5706 Y-2.1035
G1 X-1.6206 Y-2.0651
G1 X-1.6697 Y-2.0256
G1 X-1.7179 Y-1.9849
G1 X-1.765 Y-1.9431
G1 X-1.8111 Y-1.9002
G1 X-1.8562 Y-1.8562
G1 X-1.9002 Y-1.8111
G1 X-1.9431 Y-1.765
G1 X-1.9849 Y-1.7179
G1 X-2.0256 Y-1.6697
G1 X-2.0651 Y-1.6206
G1 X-2.1035 Y-1.5706
G1 X-2.1407 Y-1.5196
G1 X-2.1767 Y-1.4677
G1 X-2.2115 Y-1.4148
G1 X-2.245 Y-1.3612
G1 X-2.2772 Y-1.3066
G1 X-2.3082 Y-1.2512
G1 X-2.3378 Y-1.195
G1 X-2.3661 Y-1.138
G1 X-2.3931 Y-1.0803
G1 X-2.4187 Y-1.0218
G1 X-2.4429 Y-0.9625
G1 X-2.4657 Y-0.9026
G1 X-2.4871 Y-0.8419
G1 X-2.507 Y-0.7806
G1 X-2.5254 Y-0.7186
G1 X-2.5424 Y-0.656
G1 X-2.5578 Y-0.5928
G1 X-2.5717 Y-0.529
G1 X-2.584 Y-0.4647
G1 X-2.5948 Y-0.3998
G1 X-2.6039 Y-0.3343
G1 X-2.6114 Y-0.2684
G1 X-2.6173 Y-0.202
G1 X-2.6216 Y-0.1351
G1 X-2.6241 Y-0.0678
G1 X-2.625 Y0.
G1 Z0.15
G0 Z0.2
G0 X-2.5461 Y0.1192
G0 Z0.15
G1 Z0. F5.
G1 X-2.553 Y0.1249
G1 X-2.5583 Y0.131
G1 X-2.5617 Y0.1367
G1 X-2.5639 Y0.144
G1 X-2.5644 Y0.151
G1 X-2.5623 Y0.1601
G1 X-2.5571 Y0.1692
G1 X-2.5542 Y0.1725
G1 X-2.5506 Y0.1755
G1 X-2.5462 Y0.1783
G1 X-2.5411 Y0.1809
G1 X-2.5351 Y0.1832
G1 X-2.5289 Y0.1844
G1 X-2.5277 Y0.1846
G1 X-2.5251 Y0.1848
G1 X-2.5213 Y0.1851
G1 X-2.5161 Y0.1854
G1 X-2.5011 Y0.1855
G1 X-2.4861 Y0.1837
G1 X-2.4803 Y0.1826
G1 X-2.476 Y0.1817
G1 X-2.473 Y0.1811
G1 X-2.4715 Y0.1808
G1 X-2.4645 Y0.1783
G1 X-2.458 Y0.1747
G1 X-2.4529 Y0.1711
G1 X-2.4496 Y0.1686
G1 X-2.4462 Y0.1649
G1 X-2.4434 Y0.1605
G1 X-2.4406 Y0.1527
G1 X-2.4398 Y0.1443
G1 X-2.4413 Y0.1345
G1 X-2.4455 Y0.1259
G1 X-2.4479 Y0.123
G1 X-2.4512 Y0.1202
G1 X-2.4553 Y0.1174
G1 X-2.4602 Y0.1148
G1 X-2.4635 Y0.1134
G1 X-2.4677 Y0.1121
G1 X-2.4727 Y0.1109
G1 X-2.4785 Y0.1098
G1 X-2.4825 Y0.1094
G1 X-2.4874 Y0.1091
G1 X-2.4932 Y0.109
G1 X-2.4999 Y0.1091
G1 X-2.512 Y0.1097
G1 X-2.5218 Y0.1111
G1 X-2.5272 Y0.1121
G1 X-2.5318 Y0.1132
G1 X-2.5357 Y0.1142
G1 X-2.5387 Y0.1152
G1 X-2.5461 Y0.1192
G1 Z0.15
G0 Z0.2
G0 X-2.4619 Y0.2149
G0 Z0.15
G1 Z0. F5.
G1 X-2.4674 Y0.2161
G1 X-2.4723 Y0.2184
G1 X-2.4766 Y0.2218
G1 X-2.4803 Y0.2264
G1 X-2.4829 Y0.2311
G1 X-2.4849 Y0.2363
G1 X-2.4861 Y0.2418
G1 X-2.4867 Y0.2478
G1 X-2.4894 Y0.2391
G1 X-2.4925 Y0.2316
G1 X-2.4962 Y0.2254
G1 X-2.5002 Y0.2204
G1 X-2.5048 Y0.2167
G1 X-2.5098 Y0.2142
G1 X-2.5152 Y0.2129
G1 X-2.5211
G1 X-2.5299 Y0.2145
G1 X-2.5374 Y0.2175
G1 X-2.5436 Y0.222
G1 X-2.5486 Y0.2278
G1 X-2.5521 Y0.2342
G1 X-2.5543 Y0.2415
G1 X-2.5553 Y0.2497
G1 X-2.555 Y0.2588
G1 X-2.5539 Y0.2639
G1 X-2.5519 Y0.2687
G1 X-2.5489 Y0.273
G1 X-2.5448 Y0.2768
G1 X-2.5414 Y0.2792
G1 X-2.5371 Y0.2817
G1 X-2.532 Y0.2841
G1 X-2.526 Y0.2866
G1 Z0.15
G0 Z0.2
G0 X-2.4509 Y0.2744
G0 Z0.15
G1 Z0. F5.
G1 X-2.4459 Y0.2703
G1 X-2.4418 Y0.2667
G1 X-2.4386 Y0.2635
G1 X-2.4364 Y0.2608
G1 X-2.4341 Y0.2566
G1 X-2.4325 Y0.252
G1 X-2.4319 Y0.2469
G1 X-2.432 Y0.2415
G1 X-2.4331 Y0.2359
G1 X-2.435 Y0.2308
G1 X-2.4379 Y0.2261
G1 X-2.4417 Y0.2219
G1 X-2.4462 Y0.2184
G1 X-2.4511 Y0.2161
G1 X-2.4564 Y0.2149
G1 X-2.4619
G1 Z0.15
G0 Z0.2
G0 X-2.393 Y0.1847
G0 Z0.15
G1 Z0. F5.
G1 X-2.3876 Y0.2454
G1 X-2.3807 Y0.3057
G1 X-2.3723 Y0.3655
G1 X-2.3625 Y0.4248
G1 X-2.3512 Y0.4837
G1 X-2.3385 Y0.542
G1 X-2.3244 Y0.5998
G1 X-2.309 Y0.657
G1 X-2.2921 Y0.7137
G1 X-2.2739 Y0.7697
G1 X-2.2544 Y0.8252
G1 X-2.2335 Y0.88
G1 X-2.2114 Y0.9342
G1 X-2.188 Y0.9877
G1 X-2.1633 Y1.0405
G1 X-2.1374 Y1.0926
G1 X-2.1103 Y1.144
G1 X-2.082 Y1.1946
G1 X-2.0525 Y1.2445
G1 X-2.0219 Y1.2936
G1 X-1.9901 Y1.3419
G1 X-1.9572 Y1.3893
G1 X-1.9232 Y1.436
G1 X-1.8881 Y1.4817
G1 X-1.852 Y1.5266
G1 X-1.8148 Y1.5706
G1 X-1.7765 Y1.6137
G1 X-1.7373 Y1.6559
G1 X-1.6971 Y1.6971
G1 X-1.6559 Y1.7373
G1 X-1.6137 Y1.7765
G1 X-1.5706 Y1.8148
G1 X-1.5266 Y1.852
G1 X-1.4817 Y1.8881
G1 X-1.436 Y1.9232
G1 X-1.3893 Y1.9572
G1 X-1.3419 Y1.9901
G1 X-1.2936 Y2.0219
G1 X-1.2445 Y2.0525
G1 X-1.1946 Y2.082
G1 X-1.144 Y2.1103
G1 X-1.0926 Y2.1374
G1 X-1.0405 Y2.1633
G1 X-0.9877 Y2.188
G1 X-0.9342 Y2.2114
G1 X-0.88 Y2.2335
G1 X-0.8252 Y2.2544
G1 X-0.7697 Y2.2739
G1 X-0.7137 Y2.2921
G1 X-0.657 Y2.309
G1 X-0.5998 Y2.3244
G1 X-0.542 Y2.3385
G1 X-0.4837 Y2.3512
G1 X-0.4248 Y2.3625
G1 X-0.3655 Y2.3723
G1 X-0.3057 Y2.3807
G1 X-0.2454 Y2.3876
G1 X-0.1847 Y2.393
G1 X-0.1235 Y2.3969
G1 X-0.0619 Y2.3992
G1 X0. Y2.4
G1 X0.0619 Y2.3992
G1 X0.1235 Y2.3969
G1 X0.1847 Y2.393
G1 X0.2454 Y2.3876
G1 X0.3057 Y2.3807
G1 X0.3655 Y2.3723
G1 X0.4248 Y2.3625
G1 X0.4837 Y2.3512
G1 X0.542 Y2.3385
G1 X0.5998 Y2.3244
G1 X0.657 Y2.309
G1 X0.7137 Y2.2921
G1 X0.7697 Y2.2739
G1 X0.8252 Y2.2544
G1 X0.88 Y2.2335
G1 X0.9342 Y2.2114
G1 X0.9877 Y2.188
G1 X1.0405 Y2.1633
G1 X1.0926 Y2.1374
G1 X1.144 Y2.1103
G1 X1.1946 Y2.082
G1 X1.2445 Y2.0525
G1 X1.2936 Y2.0219
G1 X1.3419 Y1.9901
G1 X1.3893 Y1.9572
G1 X1.436 Y1.9232
G1 X1.4817 Y1.8881
G1 X1.5266 Y1.852
G1 X1.5706 Y1.8148
G1 X1.6137 Y1.7765
G1 X1.6559 Y1.7373
G1 X1.6971 Y1.6971
G1 X1.7373 Y1.6559
G1 X1.7765 Y1.6137
G1 X1.8148 Y1.5706
G1 X1.852 Y1.5266
G1 X1.8881 Y1.4817
G1 X1.9232 Y1.436
G1 X1.9572 Y1.3893
G1 X1.9901 Y1.3419
G1 X2.0219 Y1.2936
G1 X2.0525 Y1.2445
G1 X2.082 Y1.1946
G1 X2.1103 Y1.144
G1 X2.1374 Y1.0926
G1 X2.1633 Y1.0405
G1 X2.188 Y0.9877
G1 X2.2114 Y0.9342
G1 X2.2335 Y0.88
G1 X2.2544 Y0.8252
G1 X2.2739 Y0.7697
G1 X2.2921 Y0.7137
G1 X2.309 Y0.657
G1 X2.3244 Y0.5998
G1 X2.3385 Y0.542
G1 X2.3512 Y0.4837
G1 X2.3625 Y0.4248
G1 X2.3723 Y0.3655
G1 X2.3807 Y0.3057
G1 X2.3876 Y0.2454
G1 X2.393 Y0.1847
G1 X2.3969 Y0.1235
G1 X2.3992 Y0.0619
G1 X2.4 Y0.
G1 X2.3992 Y-0.0619
G1 X2.3969 Y-0.1235
G1 X2.393 Y-0.1847
G1 X2.3876 Y-0.2454
G1 X2.3807 Y-0.3057
G1 X2.3723 Y-0.3655
G1 X2.3625 Y-0.4248
G1 X2.3512 Y-0.4837
G1 X2.3385 Y-0.542
G1 X2.3244 Y-0.5998
G1 X2.309 Y-0.657
G1 X2.2921 Y-0.7137
G1 X2.2739 Y-0.7697
G1 X2.2544 Y-0.8252
G1 X2.2335 Y-0.88
G1 X2.2114 Y-0.9342
G1 X2.188 Y-0.9877
G1 X2.1633 Y-1.0405
G1 X2.1374 Y-1.0926
G1 X2.1103 Y-1.144
G1 X2.082 Y-1.1946
G1 X2.0525 Y-1.2445
G1 X2.0219 Y-1.2936
G1 X1.9901 Y-1.3419
G1 X1.9572 Y-1.3893
G1 X1.9232 Y-1.436
G1 X1.8881 Y-1.4817
G1 X1.852 Y-1.5266
G1 X1.8148 Y-1.5706
G1 X1.7765 Y-1.6137
G1 X1.7373 Y-1.6559
G1 X1.6971 Y-1.6971
G1 X1.6559 Y-1.7373
G1 X1.6137 Y-1.7765
G1 X1.5706 Y-1.8148
G1 X1.5266 Y-1.852
G1 X1.4817 Y-1.8881
G1 X1.436 Y-1.9232
G1 X1.3893 Y-1.9572
G1 X1.3419 Y-1.9901
G1 X1.2936 Y-2.0219
G1 X1.2445 Y-2.0525
G1 X1.1946 Y-2.082
G1 X1.144 Y-2.1103
G1 X1.0926 Y-2.1374
G1 X1.0405 Y-2.1633
G1 X0.9877 Y-2.188
G1 X0.9342 Y-2.2114
G1 X0.88 Y-2.2335
G1 X0.8252 Y-2.2544
G1 X0.7697 Y-2.2739
G1 X0.7137 Y-2.2921
G1 X0.657 Y-2.309
G1 X0.5998 Y-2.3244
G1 X0.542 Y-2.3385
G1 X0.4837 Y-2.3512
G1 X0.4248 Y-2.3625
G1 X0.3655 Y-2.3723
G1 X0.3057 Y-2.3807
G1 X0.2454 Y-2.3876
G1 X0.1847 Y-2.393
G1 X0.1235 Y-2.3969
G1 X0.0619 Y-2.3992
G1 X0. Y-2.4
G1 X-0.0619 Y-2.3992
G1 X-0.1235 Y-2.3969
G1 X-0.1847 Y-2.393
G1 X-0.2454 Y-2.3876
G1 X-0.3057 Y-2.3807
G1 X-0.3655 Y-2.3723
G1 X-0.4248 Y-2.3625
G1 X-0.4837 Y-2.3512
G1 X-0.542 Y-2.3385
G1 X-0.5998 Y-2.3244
G1 X-0.657 Y-2.309
G1 X-0.7137 Y-2.2921
G1 X-0.7697 Y-2.2739
G1 X-0.8252 Y-2.2544
G1 X-0.88 Y-2.2335
G1 X-0.9342 Y-2.2114
G1 X-0.9877 Y-2.188
G1 X-1.0405 Y-2.1633
G1 X-1.0926 Y-2.1374
G1 X-1.144 Y-2.1103
G1 X-1.1946 Y-2.082
G1 X-1.2445 Y-2.0525
G1 X-1.2936 Y-2.0219
G1 X-1.3419 Y-1.9901
G1 X-1.3893 Y-1.9572
G1 X-1.436 Y-1.9232
G1 X-1.4817 Y-1.8881
G1 X-1.5266 Y-1.852
G1 X-1.5706 Y-1.8148
G1 X-1.6137 Y-1.7765
G1 X-1.6559 Y-1.7373
G1 X-1.6971 Y-1.6971
G1 X-1.7373 Y-1.6559
G1 X-1.7765 Y-1.6137
G1 X-1.8148 Y-1.5706
G1 X-1.852 Y-1.5266
G1 X-1.8881 Y-1.4817
G1 X-1.9232 Y-1.436
G1 X-1.9572 Y-1.3893
G1 X-1.9901 Y-1.3419
G1 X-2.0219 Y-1.2936
G1 X-2.0525 Y-1.2445
G1 X-2.082 Y-1.1946
G1 X-2.1103 Y-1.144
G1 X-2.1374 Y-1.0926
G1 X-2.1633 Y-1.0405
G1 X-2.188 Y-0.9877
G1 X-2.2114 Y-0.9342
G1 X-2.2335 Y-0.88
G1 X-2.2544 Y-0.8252
G1 X-2.2739 Y-0.7697
G1 X-2.2921 Y-0.7137
G1 X-2.309 Y-0.657
G1 X-2.3244 Y-0.5998
G1 X-2.3385 Y-0.542
G1 X-2.3512 Y-0.4837
G1 X-2.3625 Y-0.4248
G1 X-2.3723 Y-0.3655
G1 X-2.3807 Y-0.3057
G1 X-2.3876 Y-0.2454
G1 X-2.393 Y-0.1847
G1 X-2.3969 Y-0.1235
G1 X-2.3992 Y-0.0619
G1 X-2.4 Y0.
G1 X-2.3992 Y0.0619
G1 X-2.3969 Y0.1235
G1 X-2.393 Y0.1847
G1 Z0.15
G0 Z0.2
G0 X-2.4475 Y-0.0129
G0 Z0.15
G1 Z0. F5.
G1 X-2.4473 Y-0.0301
G1 X-2.565 Y-0.0314
G1 Z0.15
G0 Z0.2
G0 X-2.3 Y0.
G0 Z0.15
G1 Z0. F5.
G1 X-2.2992 Y0.0594
G1 X-2.297 Y0.1184
G1 X-2.2933 Y0.177
G1 X-2.2881 Y0.2352
G1 X-2.2815 Y0.2929
G1 X-2.2735 Y0.3503
G1 X-2.2641 Y0.4071
G1 X-2.2533 Y0.4635
G1 X-2.2411 Y0.5194
G1 X-2.2276 Y0.5748
G1 X-2.2127 Y0.6297
G1 X-2.1966 Y0.6839
G1 X-2.1792 Y0.7377
G1 X-2.1604 Y0.7908
G1 X-2.1405 Y0.8434
G1 X-2.1193 Y0.8953
G1 X-2.0968 Y0.9465
G1 X-2.0732 Y0.9971
G1 X-2.0484 Y1.0471
G1 X-2.0224 Y1.0963
G1 X-1.9953 Y1.1448
G1 X-1.967 Y1.1926
G1 X-1.9377 Y1.2397
G1 X-1.9072 Y1.286
G1 X-1.8757 Y1.3314
G1 X-1.8431 Y1.3761
G1 X-1.8094 Y1.42
G1 X-1.7748 Y1.463
G1 X-1.7391 Y1.5052
G1 X-1.7025 Y1.5465
G1 X-1.6649 Y1.5869
G1 X-1.6263 Y1.6263
G1 X-1.5869 Y1.6649
G1 X-1.5465 Y1.7025
G1 X-1.5052 Y1.7391
G1 X-1.463 Y1.7748
G1 X-1.42 Y1.8094
G1 X-1.3761 Y1.8431
G1 X-1.3314 Y1.8757
G1 X-1.286 Y1.9072
G1 X-1.2397 Y1.9377
G1 X-1.1926 Y1.967
G1 X-1.1448 Y1.9953
G1 X-1.0963 Y2.0224
G1 X-1.0471 Y2.0484
G1 X-0.9971 Y2.0732
G1 X-0.9465 Y2.0968
G1 X-0.8953 Y2.1193
G1 X-0.8434 Y2.1405
G1 X-0.7908 Y2.1604
G1 X-0.7377 Y2.1792
G1 X-0.6839 Y2.1966
G1 X-0.6297 Y2.2127
G1 X-0.5748 Y2.2276
G1 X-0.5194 Y2.2411
G1 X-0.4635 Y2.2533
G1 X-0.4071 Y2.2641
G1 X-0.3503 Y2.2735
G1 X-0.2929 Y2.2815
G1 X-0.2352 Y2.2881
G1 X-0.177 Y2.2933
G1 X-0.1184 Y2.297
G1 X-0.0594 Y2.2992
G1 X0. Y2.3
G1 X0.0594 Y2.2992
G1 X0.1184 Y2.297
G1 X0.177 Y2.2933
G1 X0.2352 Y2.2881
G1 X0.2929 Y2.2815
G1 X0.3503 Y2.2735
G1 X0.4071 Y2.2641
G1 X0.4635 Y2.2533
G1 X0.5194 Y2.2411
G1 X0.5748 Y2.2276
G1 X0.6297 Y2.2127
G1 X0.6839 Y2.1966
G1 X0.7377 Y2.1792
G1 X0.7908 Y2.1604
G1 X0.8434 Y2.1405
G1 X0.8953 Y2.1193
G1 X0.9465 Y2.0968
G1 X0.9971 Y2.0732
G1 X1.0471 Y2.0484
G1 X1.0963 Y2.0224
G1 X1.1448 Y1.9953
G1 X1.1926 Y1.967
G1 X1.2397 Y1.9377
G1 X1.286 Y1.9072
G1 X1.3314 Y1.8757
G1 X1.3761 Y1.8431
G1 X1.42 Y1.8094
G1 X1.463 Y1.7748
G1 X1.5052 Y1.7391
G1 X1.5465 Y1.7025
G1 X1.5869 Y1.6649
G1 X1.6263 Y1.6263
G1 X1.6649 Y1.5869
G1 X1.7025 Y1.5465
G1 X1.7391 Y1.5052
G1 X1.7748 Y1.463
G1 X1.8094 Y1.42
G1 X1.8431 Y1.3761
G1 X1.8757 Y1.3314
G1 X1.9072 Y1.286
G1 X1.9377 Y1.2397
G1 X1.967 Y1.1926
G1 X1.9953 Y1.1448
G1 X2.0224 Y1.0963
G1 X2.0484 Y1.0471
G1 X2.0732 Y0.9971
G1 X2.0968 Y0.9465
G1 X2.1193 Y0.8953
G1 X2.1405 Y0.8434
G1 X2.1604 Y0.7908
G1 X2.1792 Y0.7377
G1 X2.1966 Y0.6839
G1 X2.2127 Y0.6297
G1 X2.2276 Y0.5748
G1 X2.2411 Y0.5194
G1 X2.2533 Y0.4635
G1 X2.2641 Y0.4071
G1 X2.2735 Y0.3503
G1 X2.2815 Y0.2929
G1 X2.2881 Y0.2352
G1 X2.2933 Y0.177
G1 X2.297 Y0.1184
G1 X2.2992 Y0.0594
G1 X2.3 Y0.
G1 X2.2992 Y-0.0594
G1 X2.297 Y-0.1184
G1 X2.2933 Y-0.177
G1 X2.2881 Y-0.2352
G1 X2.2815 Y-0.2929
G1 X2.2735 Y-0.3503
G1 X2.2641 Y-0.4071
G1 X2.2533 Y-0.4635
G1 X2.2411 Y-0.5194
G1 X2.2276 Y-0.5748
G1 X2.2127 Y-0.6297
G1 X2.1966 Y-0.6839
G1 X2.1792 Y-0.7377
G1 X2.1604 Y-0.7908
G1 X2.1405 Y-0.8434
G1 X2.1193 Y-0.8953
G1 X2.0968 Y-0.9465
G1 X2.0732 Y-0.9971
G1 X2.0484 Y-1.0471
G1 X2.0224 Y-1.0963
G1 X1.9953 Y-1.1448
G1 X1.967 Y-1.1926
G1 X1.9377 Y-1.2397
G1 X1.9072 Y-1.286
G1 X1.8757 Y-1.3314
G1 X1.8431 Y-1.3761
G1 X1.8094 Y-1.42
G1 X1.7748 Y-1.463
G1 X1.7391 Y-1.5052
G1 X1.7025 Y-1.5465
G1 X1.6649 Y-1.5869
G1 X1.6263 Y-1.6263
G1 X1.5869 Y-1.6649
G1 X1.5465 Y-1.7025
G1 X1.5052 Y-1.7391
G1 X1.463 Y-1.7748
G1 X1.42 Y-1.8094
G1 X1.3761 Y-1.8431
G1 X1.3314 Y-1.8757
G1 X1.286 Y-1.9072
G1 X1.2397 Y-1.9377
G1 X1.1926 Y-1.967
G1 X1.1448 Y-1.9953
G1 X1.0963 Y-2.0224
G1 X1.0471 Y-2.0484
G1 X0.9971 Y-2.0732
G1 X0.9465 Y-2.0968
G1 X0.8953 Y-2.1193
G1 X0.8434 Y-2.1405
G1 X0.7908 Y-2.1604
G1 X0.7377 Y-2.1792
G1 X0.6839 Y-2.1966
G1 X0.6297 Y-2.2127
G1 X0.5748 Y-2.2276
G1 X0.5194 Y-2.2411
G1 X0.4635 Y-2.2533
G1 X0.4071 Y-2.2641
G1 X0.3503 Y-2.2735
G1 X0.2929 Y-2.2815
G1 X0.2352 Y-2.2881
G1 X0.177 Y-2.2933
G1 X0.1184 Y-2.297
G1 X0.0594 Y-2.2992
G1 X0. Y-2.3
G1 X-0.0594 Y-2.2992
G1 X-0.1184 Y-2.297
G1 X-0.177 Y-2.2933
G1 X-0.2352 Y-2.2881
G1 X-0.2929 Y-2.2815
G1 X-0.3503 Y-2.2735
G1 X-0.4071 Y-2.2641
G1 X-0.4635 Y-2.2533
G1 X-0.5194 Y-2.2411
G1 X-0.5748 Y-2.2276
G1 X-0.6297 Y-2.2127
G1 X-0.6839 Y-2.1966
G1 X-0.7377 Y-2.1792
G1 X-0.7908 Y-2.1604
G1 X-0.8434 Y-2.1405
G1 X-0.8953 Y-2.1193
G1 X-0.9465 Y-2.0968
G1 X-0.9971 Y-2.0732
G1 X-1.0471 Y-2.0484
G1 X-1.0963 Y-2.0224
G1 X-1.1448 Y-1.9953
G1 X-1.1926 Y-1.967
G1 X-1.2397 Y-1.9377
G1 X-1.286 Y-1.9072
G1 X-1.3314 Y-1.8757
G1 X-1.3761 Y-1.8431
G1 X-1.42 Y-1.8094
G1 X-1.463 Y-1.7748
G1 X-1.5052 Y-1.7391
G1 X-1.5465 Y-1.7025
G1 X-1.5869 Y-1.6649
G1 X-1.6263 Y-1.6263
G1 X-1.6649 Y-1.5869
G1 X-1.7025 Y-1.5465
G1 X-1.7391 Y-1.5052
G1 X-1.7748 Y-1.463
G1 X-1.8094 Y-1.42
G1 X-1.8431 Y-1.3761
G1 X-1.8757 Y-1.3314
G1 X-1.9072 Y-1.286
G1 X-1.9377 Y-1.2397
G1 X-1.967 Y-1.1926
G1 X-1.9953 Y-1.1448
G1 X-2.0224 Y-1.0963
G1 X-2.0484 Y-1.0471
G1 X-2.0732 Y-0.9971
G1 X-2.0968 Y-0.9465
G1 X-2.1193 Y-0.8953
G1 X-2.1405 Y-0.8434
G1 X-2.1604 Y-0.7908
G1 X-2.1792 Y-0.7377
G1 X-2.1966 Y-0.6839
G1 X-2.2127 Y-0.6297
G1 X-2.2276 Y-0.5748
G1 X-2.2411 Y-0.5194
G1 X-2.2533 Y-0.4635
G1 X-2.2641 Y-0.4071
G1 X-2.2735 Y-0.3503
G1 X-2.2815 Y-0.2929
G1 X-2.2881 Y-0.2352
G1 X-2.2933 Y-0.177
G1 X-2.297 Y-0.1184
G1 X-2.2992 Y-0.0594
G1 X-2.3 Y0.
G1 Z0.15
G0 Z0.2
G0 X-2.15 Y0.014
G0 Z0.15
G1 Z0. F5.
G1 X-2.3 Y0.015
G1 Z0.15
G0 Z0.2
G0 X-2.1499 Y-0.023
G0 Z0.15
G1 Z0. F5.
G1 X-2.2999 Y-0.0246
G1 Z0.15
G0 Z0.2
G0 X-2.1492 Y-0.06
G0 Z0.15
G1 Z0. F5.
G1 X-2.2991 Y-0.0641
G1 Z0.15
G0 Z0.2
G0 X-2.1478 Y-0.0969
G0 Z0.15
G1 Z0. F5.
G1 X-2.2977 Y-0.1037
G1 Z0.15
G0 Z0.2
G0 X-2.1458 Y-0.1338
G0 Z0.15
G1 Z0. F5.
G1 X-2.2955 Y-0.1432
G1 Z0.15
G0 Z0.2
G0 X-2.1432 Y-0.1707
G0 Z0.15
G1 Z0. F5.
G1 X-2.2927 Y-0.1826
G1 Z0.15
G0 Z0.2
G0 X-2.14 Y-0.2076
G0 Z0.15
G1 Z0. F5.
G1 X-2.2893 Y-0.2221
G1 Z0.15
G0 Z0.2
G0 X-2.1361 Y-0.2444
G0 Z0.15
G1 Z0. F5.
G1 X-2.2851 Y-0.2614
G1 Z0.15
G0 Z0.2
G0 X-2.1315 Y-0.2811
G0 Z0.15
G1 Z0. F5.
G1 X-2.2803 Y-0.3007
G1 Z0.15
G0 Z0.2
G0 X-2.1264 Y-0.3177
G0 Z0.15
G1 Z0. F5.
G1 X-2.3737 Y-0.3546
G1 Z0.15
G0 Z0.2
G0 X-2.1206 Y-0.3542
G0 Z0.15
G1 Z0. F5.
G1 X-2.2686 Y-0.3789
G1 Z0.15
G0 Z0.2
G0 X-2.1142 Y-0.3907
G0 Z0.15
G1 Z0. F5.
G1 X-2.2617 Y-0.4179
G1 Z0.15
G0 Z0.2
G0 X-2.1072 Y-0.427
G0 Z0.15
G1 Z0. F5.
G1 X-2.2542 Y-0.4567
G1 Z0.15
G0 Z0.2
G0 X-2.0995 Y-0.4631
G0 Z0.15
G1 Z0. F5.
G1 X-2.246 Y-0.4955
G1 Z0.15
G0 Z0.2
G0 X-2.0912 Y-0.4992
G0 Z0.15
G1 Z0. F5.
G1 X-2.2371 Y-0.534
G1 Z0.15
G0 Z0.2
G0 X-2.0824 Y-0.5351
G0 Z0.15
G1 Z0. F5.
G1 X-2.2276 Y-0.5724
G1 Z0.15
G0 Z0.2
G0 X-2.0728 Y-0.5708
G0 Z0.15
G1 Z0. F5.
G1 X-2.2175 Y-0.6107
G1 Z0.15
G0 Z0.2
G0 X-2.0627 Y-0.6064
G0 Z0.15
G1 Z0. F5.
G1 X-2.2066 Y-0.6487
G1 Z0.15
G0 Z0.2
G0 X-2.052 Y-0.6418
G0 Z0.15
G1 Z0. F5.
G1 X-2.1951 Y-0.6866
G1 Z0.15
G0 Z0.2
G0 X-2.0406 Y-0.677
G0 Z0.15
G1 Z0. F5.
G1 X-2.2779 Y-0.7557
G1 Z0.15
G0 Z0.2
G0 X-2.0287 Y-0.712
G0 Z0.15
G1 Z0. F5.
G1 X-2.1702 Y-0.7617
G1 Z0.15
G0 Z0.2
G0 X-2.0161 Y-0.7468
G0 Z0.15
G1 Z0. F5.
G1 X-2.1568 Y-0.7989
G1 Z0.15
G0 Z0.2
G0 X-2.003 Y-0.7814
G0 Z0.15
G1 Z0. F5.
G1 X-2.1427 Y-0.8359
G1 Z0.15
G0 Z0.2
G0 X-1.9893 Y-0.8157
G0 Z0.15
G1 Z0. F5.
G1 X-2.128 Y-0.8726
G1 Z0.15
G0 Z0.2
G0 X-1.9749 Y-0.8498
G0 Z0.15
G1 Z0. F5.
G1 X-2.1127 Y-0.9091
G1 Z0.15
G0 Z0.2
G0 X-1.96 Y-0.8837
G0 Z0.15
G1 Z0. F5.
G1 X-2.0968 Y-0.9453
G1 Z0.15
G0 Z0.2
G0 X-1.9445 Y-0.9172
G0 Z0.15
G1 Z0. F5.
G1 X-2.0802 Y-0.9812
G1 Z0.15
G0 Z0.2
G0 X-1.9285 Y-0.9506
G0 Z0.15
G1 Z0. F5.
G1 X-2.063 Y-1.0169
G1 Z0.15
G0 Z0.2
G0 X-2.1838 Y-1.1052
G0 Z0.15
G1 Z0. F5.
G1 X-2.1759 Y-1.1205
G1 X-2.2806 Y-1.1743
G1 Z0.15
G0 Z0.2
G0 X-2.2501 Y-1.0096
G0 Z0.15
G1 Z0. F5.
G1 X-2.2437 Y-1.0106
G1 X-2.2383 Y-1.0116
G1 X-2.2339 Y-1.0128
G1 X-2.2306 Y-1.014
G1 X-2.2265 Y-1.0164
G1 X-2.2229 Y-1.0196
G1 X-2.2197 Y-1.0236
G1 X-2.2171 Y-1.0284
G1 X-2.2151 Y-1.0337
G1 X-2.2142 Y-1.0391
G1 X-2.2143 Y-1.0446
G1 X-2.2154 Y-1.0501
G1 X-2.2176 Y-1.0555
G1 X-2.2206 Y-1.06
G1 X-2.2245 Y-1.0636
G1 X-2.2293 Y-1.0665
G1 X-2.2346 Y-1.0683
G1 X-2.24 Y-1.0688
G1 X-2.2455 Y-1.068
G1 X-2.251 Y-1.0659
G1 X-2.2557 Y-1.0632
G1 X-2.2599 Y-1.0598
G1 X-2.2639 Y-1.0556
G1 X-2.2674 Y-1.0507
G1 X-2.2653 Y-1.0596
G1 X-2.2642 Y-1.0676
G1 X-2.2641 Y-1.0749
G1 X-2.2651 Y-1.0812
G1 X-2.2671 Y-1.0868
G1 X-2.2701 Y-1.0915
G1 X-2.2742 Y-1.0953
G1 X-2.2793 Y-1.0983
G1 X-2.2876 Y-1.1014
G1 X-2.2956 Y-1.1026
G1 X-2.3032 Y-1.102
G1 X-2.3105 Y-1.0995
G1 X-2.3168 Y-1.0957
G1 X-2.3224 Y-1.0905
G1 X-2.3274 Y-1.084
G1 X-2.3317 Y-1.076
G1 X-2.3335 Y-1.071
G1 X-2.3341 Y-1.0659
G1 X-2.3337 Y-1.0607
G1 X-2.3322 Y-1.0553
G1 X-2.3304 Y-1.0515
G1 X-2.328 Y-1.0472
G1 X-2.3248 Y-1.0425
G1 X-2.3209 Y-1.0374
G1 Z0.15
G0 Z0.2
G0 X-2.1011 Y-1.2553
G0 Z0.15
G1 Z0. F5.
G1 X-2.0922 Y-1.27
G1 X-2.1929 Y-1.331
G1 Z0.15
G0 Z0.2
G0 X-2.2604 Y-1.6566
G0 Z0.15
G1 Z0. F5.
G1 X-2.211 Y-1.7223
G1 Z0.15
G0 Z0.2
G0 X-2.0966 Y-1.7167
G0 Z0.15
G1 Z0. F5.
G1 X-2.1705 Y-1.7793
G1 X-2.1778 Y-1.7863
G1 X-2.1837 Y-1.7939
G1 X-2.1882 Y-1.8019
G1 X-2.1913 Y-1.8104
G1 X-2.1929 Y-1.8202
G1 X-2.1921 Y-1.8295
G1 X-2.189 Y-1.8381
G1 X-2.1836 Y-1.8462
G1 X-2.1757 Y-1.854
G1 X-2.1673 Y-1.8594
G1 X-2.1582 Y-1.8626
G1 X-2.1486 Y-1.8634
G1 X-2.1396 Y-1.8621
G1 X-2.1306 Y-1.8591
G1 X-2.1217 Y-1.8542
G1 X-2.1127 Y-1.8475
G1 X-2.0388 Y-1.7849
G1 Z0.15
G0 Z0.2
G0 X-2.0001 Y-1.9497
G0 Z0.15
G1 Z0. F5.
G1 X-1.9631 Y-1.9883
G1 X-1.9745 Y-1.9959
G1 X-1.9864 Y-2.0012
G1 X-1.9988 Y-2.0044
G1 X-2.0118 Y-2.0053
G1 X-2.025 Y-2.0039
G1 X-2.0373 Y-2.
G1 X-2.0485 Y-1.9936
G1 X-2.0586 Y-1.9848
G1 X-2.0689 Y-1.9723
G1 X-2.0765 Y-1.9588
G1 X-2.0816 Y-1.9445
G1 X-2.0841 Y-1.9292
G1 X-2.0843 Y-1.921
G1 X-2.0836 Y-1.9132
G1 X-2.0822 Y-1.9057
G1 X-2.08 Y-1.8985
G1 X-2.0769 Y-1.8917
G1 X-2.0731 Y-1.8852
G1 X-2.0684 Y-1.879
G1 X-2.0629 Y-1.8732
G1 X-2.0549 Y-1.8661
G1 X-2.047 Y-1.8603
G1 X-2.0392 Y-1.8559
G1 X-2.0316 Y-1.8528
G1 X-2.022 Y-1.8505
G1 X-2.0119 Y-1.8495
G1 X-2.0013 Y-1.8498
G1 X-1.9903 Y-1.8516
G1 X-1.9793 Y-1.8546
G1 X-1.9696 Y-1.8588
G1 X-1.9612 Y-1.864
G1 X-1.9539 Y-1.8704
G1 X-1.9475 Y-1.8777
G1 X-1.9419 Y-1.8853
G1 X-1.9372 Y-1.8932
G1 X-1.9334 Y-1.9015
G1 X-1.9304 Y-1.91
G1 X-1.9283 Y-1.9188
G1 X-1.9271 Y-1.9279
G1 X-1.9267 Y-1.9373
G1 Z0.15
G0 Z0.2
G0 X-1.8716 Y-1.9596
G0 Z0.15
G1 Z0. F5.
G1 X-1.9373 Y-2.0307
G1 X-1.9437 Y-2.0386
G1 X-1.9486 Y-2.0468
G1 X-1.9521 Y-2.0553
G1 X-1.9541 Y-2.0642
G1 X-1.9545 Y-2.0741
G1 X-1.9526 Y-2.0832
G1 X-1.9485 Y-2.0914
G1 X-1.9421 Y-2.0988
G1 X-1.9334 Y-2.1055
G1 X-1.9243 Y-2.1099
G1 X-1.9149 Y-2.1119
G1 X-1.9053 Y-2.1115
G1 X-1.8965 Y-2.1092
G1 X-1.888 Y-2.1051
G1 X-1.8797 Y-2.0991
G1 X-1.8716 Y-2.0914
G1 X-1.8059 Y-2.0203
G1 Z0.15
G0 Z0.2
G0 X-1.7325 Y-2.1013
G0 Z0.15
G1 Z0. F5.
G1 X-1.7337 Y-2.0936
G1 X-1.7346 Y-2.088
G1 X-1.7352 Y-2.0843
G1 X-1.7355 Y-2.0828
G1 X-1.7394 Y-2.0747
G1 X-1.7462 Y-2.0674
G1 X-1.7512 Y-2.0639
G1 X-1.7564 Y-2.0616
G1 X-1.7619 Y-2.0605
G1 X-1.7676 Y-2.0606
G1 X-1.7732 Y-2.0618
G1 X-1.7784 Y-2.0641
G1 X-1.7832 Y-2.0674
G1 X-1.7876 Y-2.0718
G1 X-1.7917 Y-2.0784
G1 X-1.7941 Y-2.0863
G1 X-1.7949 Y-2.0955
G1 X-1.794 Y-2.1061
G1 X-1.7857 Y-2.1458
G1 X-1.7848 Y-2.1564
G1 X-1.7856 Y-2.1657
G1 X-1.7881 Y-2.1736
G1 X-1.7923 Y-2.1802
G1 X-1.798 Y-2.1859
G1 X-1.8042 Y-2.19
G1 X-1.811 Y-2.1926
G1 X-1.8183 Y-2.1936
G1 X-1.8254 Y-2.1931
G1 X-1.8324 Y-2.1913
G1 X-1.8391 Y-2.188
G1 X-1.8456 Y-2.1833
G1 X-1.8497 Y-2.1792
G1 X-1.853 Y-2.1745
G1 X-1.8553 Y-2.1694
G1 X-1.8568 Y-2.1638
G1 X-1.8571 Y-2.1604
G1 X-1.8573 Y-2.1555
G1 Y-2.1491
G1 X-1.8571 Y-2.1411
G1 Z0.15
G0 Z0.2
G0 X-1.7574 Y-2.2506
G0 Z0.15
G1 Z0. F5.
G1 X-1.6676 Y-2.1357
G1 Z0.15
G0 Z0.2
G0 X-1.6955 Y-2.1139
G0 Z0.15
G1 Z0. F5.
G1 X-1.6384 Y-2.1585
G1 Z0.15
G0 Z0.2
G0 X-1.4044 Y-2.1045
G0 Z0.15
G1 Z0. F5.
G1 X-1.4101 Y-2.1114
G1 X-1.4163 Y-2.1165
G1 X-1.4232 Y-2.1198
G1 X-1.4307 Y-2.1214
G1 X-1.4381 Y-2.1213
G1 X-1.4455 Y-2.1197
G1 X-1.4532 Y-2.1166
G1 X-1.4609 Y-2.112
G1 X-1.465 Y-2.1086
G1 X-1.4681 Y-2.1045
G1 X-1.4704 Y-2.0998
G1 X-1.4719 Y-2.0944
G1 X-1.4723 Y-2.0902
G1 Y-2.0853
G1 X-1.472 Y-2.0796
G1 X-1.4713 Y-2.0732
G1 Z0.15
G0 Z0.2
G0 X-1.4184 Y-2.0575
G0 Z0.15
G1 Z0. F5.
G1 X-1.412 Y-2.064
G1 X-1.407 Y-2.0704
G1 X-1.4033 Y-2.0766
G1 X-1.4009 Y-2.0826
G1 X-1.3998 Y-2.0884
G1 X-1.4001 Y-2.094
G1 X-1.4016 Y-2.0993
G1 X-1.4044 Y-2.1045
G1 Z0.15
G0 Z0.2
G0 X-1.3965 Y-2.0622
G0 Z0.15
G1 Z0. F5.
G1 X-1.4019 Y-2.0623
G1 X-1.4074 Y-2.0615
G1 X-1.4129 Y-2.0599
G1 X-1.4184 Y-2.0575
G1 Z0.15
G0 Z0.2
G0 X-1.4244 Y-2.0133
G0 Z0.15
G1 Z0. F5.
G1 X-1.4184 Y-2.0109
G1 X-1.4132 Y-2.009
G1 X-1.4089 Y-2.0078
G1 X-1.4054 Y-2.0072
G1 X-1.4006
G1 X-1.3959 Y-2.0081
G1 X-1.3911 Y-2.0099
G1 X-1.3864 Y-2.0127
G1 X-1.382 Y-2.0163
G1 X-1.3785 Y-2.0205
G1 X-1.3758 Y-2.0252
G1 X-1.374 Y-2.0306
G1 X-1.3731 Y-2.0362
G1 X-1.3734 Y-2.0417
G1 X-1.3749 Y-2.0468
G1 X-1.3776 Y-2.0517
G1 X-1.3813 Y-2.056
G1 X-1.3856 Y-2.0591
G1 X-1.3907 Y-2.0612
G1 X-1.3965 Y-2.0622
G1 Z0.15
G0 Z0.2
G0 X-1.3187 Y-2.0619
G0 Z0.15
G1 Z0. F5.
G1 X-1.3042 Y-2.0711
G1 X-1.367 Y-2.1706
G1 Z0.15
G0 Z0.2
G0 X-1.1712 Y-2.1491
G0 Z0.15
G1 Z0. F5.
G1 X-1.156 Y-2.1573
G1 X-1.2117 Y-2.261
G1 Z0.15
G0 Z0.2
G0 X-1.1943 Y-2.4476
G0 Z0.15
G1 Z0. F5.
G1 X-1.1973 Y-2.4404
G1 X-1.1995 Y-2.4351
G1 X-1.2009 Y-2.4317
G1 X-1.2016 Y-2.4303
G1 X-1.2073 Y-2.4233
G1 X-1.2156 Y-2.4178
G1 X-1.2212 Y-2.4155
G1 X-1.2268 Y-2.4145
G1 X-1.2324 Y-2.4147
G1 X-1.2379 Y-2.4162
G1 X-1.2431 Y-2.4187
G1 X-1.2477 Y-2.4221
G1 X-1.2515 Y-2.4265
G1 X-1.2547 Y-2.4318
G1 X-1.2572 Y-2.4391
G1 X-1.2578 Y-2.4474
G1 X-1.2564 Y-2.4565
G1 X-1.253 Y-2.4666
G1 X-1.2357 Y-2.5032
G1 X-1.2323 Y-2.5133
G1 X-1.231 Y-2.5226
G1 X-1.2315 Y-2.5309
G1 X-1.234 Y-2.5383
G1 X-1.2383 Y-2.5451
G1 X-1.2434 Y-2.5506
G1 X-1.2494 Y-2.5547
G1 X-1.2562 Y-2.5574
G1 X-1.2632 Y-2.5586
G1 X-1.2704 Y-2.5584
G1 X-1.2777 Y-2.5567
G1 X-1.2852 Y-2.5537
G1 X-1.2901 Y-2.5506
G1 X-1.2944 Y-2.5469
G1 X-1.2978 Y-2.5425
G1 X-1.3006 Y-2.5374
G1 X-1.3017 Y-2.5341
G1 X-1.303 Y-2.5294
G1 X-1.3045 Y-2.5231
G1 X-1.3062 Y-2.5154
G1 Z0.15
G0 Z0.2
G0 X-1.2013 Y-2.5907
G0 Z0.15
G1 Z0. F5.
G1 X-1.1412 Y-2.457
G1 X-1.0706 Y-2.4887
G1 Z0.15
G0 Z0.2
G0 X-1.0346 Y-2.5046
G0 Z0.15
G1 Z0. F5.
G1 X-1.002 Y-2.5175
G1 X-0.9917 Y-2.5223
G1 X-0.9832 Y-2.5277
G1 X-0.9766 Y-2.5336
G1 X-0.9719 Y-2.5402
G1 X-0.969 Y-2.5474
G1 X-0.968 Y-2.5551
G1 X-0.9689 Y-2.5635
G1 X-0.9716 Y-2.5724
G1 X-0.9752 Y-2.579
G1 X-0.9801 Y-2.5839
G1 X-0.9863 Y-2.5873
G1 X-0.9938 Y-2.5891
G1 X-1.0026 Y-2.5893
G1 X-1.0127 Y-2.588
G1 X-1.0242 Y-2.585
G1 X-1.0369 Y-2.5805
G1 X-1.0427 Y-2.5781
G1 X-1.05 Y-2.575
G1 X-1.0567 Y-2.5722
G1 X-1.0607 Y-2.5705
G1 Z0.15
G0 Z0.2
G0 X-1.0977 Y-2.5489
G0 Z0.15
G1 Z0. F5.
G1 X-1.1683 Y-2.5171
G1 Z0.15
G0 Z0.2
G0 X-1.1308 Y-2.6224
G0 Z0.15
G1 Z0. F5.
G1 X-1.2013 Y-2.5907
G1 Z0.15
G0 Z0.2
G0 X-1.0884 Y-2.6402
G0 Z0.15
G1 Z0. F5.
G1 X-1.0346 Y-2.5046
G1 Z0.15
G0 Z0.2
G0 X-0.9296 Y-2.5454
G0 Z0.15
G1 Z0. F5.
G1 X-0.8612 Y-2.5694
G1 Z0.15
G0 Z0.2
G0 X-0.8275 Y-2.5796
G0 Z0.15
G1 Z0. F5.
G1 X-0.7535 Y-2.6023
G1 Z0.15
G0 Z0.2
G0 X-0.7729 Y-2.6654
G0 Z0.15
G1 Z0. F5.
G1 X-0.8468 Y-2.6427
G1 Z0.15
G0 Z0.2
G0 X-0.8705 Y-2.7197
G0 Z0.15
G1 Z0. F5.
G1 X-0.8275 Y-2.5796
G1 Z0.15
G0 Z0.2
G0 X-0.9444 Y-2.6948
G0 Z0.15
G1 Z0. F5.
G1 X-0.8962 Y-2.5571
G1 Z0.15
G0 Z0.2
G0 X-0.7966 Y-2.7425
G0 Z0.15
G1 Z0. F5.
G1 X-0.8705 Y-2.7197
G1 Z0.15
G0 Z0.2
G0 X-0.7577 Y-2.7543
G0 Z0.15
G1 Z0. F5.
G1 X-0.7042 Y-2.6173
G1 X-0.6765 Y-2.765
G1 X-0.5837 Y-2.6467
G1 X-0.5996 Y-2.793
G1 Z0.15
G0 Z0.2
G0 X-0.548 Y-2.8024
G0 Z0.15
G1 Z0. F5.
G1 X-0.5219 Y-2.6591
G1 X-0.5088 Y-2.6613
G1 X-0.4965 Y-2.6638
G1 X-0.486 Y-2.667
G1 X-0.4774 Y-2.6709
G1 X-0.4706 Y-2.6756
G1 X-0.4656 Y-2.681
G1 X-0.4624 Y-2.6872
G1 X-0.4611 Y-2.694
G1 X-0.4617 Y-2.7017
G1 X-0.4635 Y-2.7078
G1 X-0.4666 Y-2.7134
G1 X-0.471 Y-2.7187
G1 X-0.4767 Y-2.7235
G1 X-0.4832 Y-2.7276
G1 X-0.4896 Y-2.7301
G1 X-0.496 Y-2.7312
G1 X-0.5023 Y-2.7308
G1 X-0.5338 Y-2.725
G1 Z0.15
G0 Z0.2
G0 X-0.5032 Y-2.7306
G0 Z0.15
G1 Z0. F5.
G1 X-0.4923 Y-2.7351
G1 X-0.483 Y-2.74
G1 X-0.4753 Y-2.7455
G1 X-0.4693 Y-2.7513
G1 X-0.4649 Y-2.7576
G1 X-0.4622 Y-2.7644
G1 X-0.4612 Y-2.7716
G1 X-0.4618 Y-2.7793
G1 X-0.4631 Y-2.7844
G1 X-0.465 Y-2.7891
G1 X-0.4675 Y-2.7933
G1 X-0.4707 Y-2.7969
G1 X-0.4744 Y-2.8001
G1 X-0.4787 Y-2.8028
G1 X-0.4837 Y-2.8049
G1 X-0.4893 Y-2.8066
G1 X-0.4983 Y-2.8081
G1 X-0.5081 Y-2.8084
G1 X-0.5188 Y-2.8077
G1 X-0.5304 Y-2.8058
G1 X-0.548 Y-2.8024
G1 Z0.15
G0 Z0.2
G0 X-0.419 Y-2.8247
G0 Z0.15
G1 Z0. F5.
G1 X-0.3992 Y-2.6795
G1 X-0.3225 Y-2.69
G1 Z0.15
G0 Z0.2
G0 X-0.3315 Y-2.7553
G0 Z0.15
G1 Z0. F5.
G1 X-0.4081 Y-2.7449
G1 Z0.15
G0 Z0.2
G0 X-0.3424 Y-2.8352
G0 Z0.15
G1 Z0. F5.
G1 X-0.419 Y-2.8247
G1 Z0.15
G0 Z0.2
G0 X-0.2957 Y-2.8404
G0 Z0.15
G1 Z0. F5.
G1 X-0.2826 Y-2.6951
G1 X-0.2453 Y-2.6985
G1 X-0.2345 Y-2.7001
G1 X-0.2253 Y-2.7027
G1 X-0.2177 Y-2.7063
G1 X-0.2115 Y-2.711
G1 X-0.207 Y-2.7168
G1 X-0.2039 Y-2.7236
G1 X-0.2025 Y-2.7314
G1 Y-2.7403
G1 X-0.2046 Y-2.7494
G1 X-0.2089 Y-2.7567
G1 X-0.2154 Y-2.7624
G1 X-0.2243 Y-2.7663
G1 X-0.2321 Y-2.7681
G1 X-0.2413 Y-2.769
G1 X-0.2521 Y-2.7691
G1 X-0.2642 Y-2.7684
G1 X-0.2701 Y-2.7678
G1 X-0.2776 Y-2.7669
G1 X-0.2847 Y-2.7661
G1 X-0.2889 Y-2.7657
G1 Z0.15
G0 Z0.2
G0 X-0.2148 Y-2.8472
G0 Z0.15
G1 Z0. F5.
G1 X-0.2547 Y-2.7694
G1 Z0.15
G0 Z0.2
G0 X-0.1389 Y-2.5589
G0 Z0.15
G1 Z0. F5.
G1 X-0.1421 Y-2.5561
G1 X-0.1452 Y-2.5525
G1 X-0.1481 Y-2.5481
G1 X-0.1508 Y-2.543
G1 X-0.1531 Y-2.5371
G1 X-0.1544 Y-2.5309
G1 X-0.1546 Y-2.5297
G1 X-0.1548 Y-2.5271
G1 X-0.1552 Y-2.5233
G1 X-0.1556 Y-2.5181
G1 X-0.1559 Y-2.5032
G1 X-0.1542 Y-2.4881
G1 X-0.1532 Y-2.4823
G1 X-0.1524 Y-2.4779
G1 X-0.1518 Y-2.475
G1 X-0.1515 Y-2.4734
G1 X-0.1491 Y-2.4664
G1 X-0.1455 Y-2.4599
G1 X-0.142 Y-2.4547
G1 X-0.1396 Y-2.4514
G1 X-0.1359 Y-2.448
G1 X-0.1315 Y-2.4452
G1 X-0.1237 Y-2.4423
G1 X-0.1154 Y-2.4413
G1 X-0.1055 Y-2.4427
G1 X-0.0969 Y-2.4468
G1 X-0.094 Y-2.4492
G1 X-0.0911 Y-2.4525
G1 X-0.0883 Y-2.4565
G1 X-0.0856 Y-2.4614
G1 X-0.0841 Y-2.4647
G1 X-0.0828 Y-2.4689
G1 X-0.0816 Y-2.4738
G1 X-0.0804 Y-2.4796
G1 X-0.0799 Y-2.4836
G1 X-0.0796 Y-2.4885
G1 X-0.0794 Y-2.4943
G1 Y-2.501
G1 X-0.0799 Y-2.5131
G1 X-0.0811 Y-2.5229
G1 X-0.0821 Y-2.5284
G1 X-0.0831 Y-2.533
G1 X-0.0841 Y-2.5368
G1 X-0.0851 Y-2.5398
G1 X-0.089 Y-2.5474
G1 X-0.0946 Y-2.5543
G1 X-0.1006 Y-2.5597
G1 X-0.1063 Y-2.5631
G1 X-0.1135 Y-2.5654
G1 X-0.1206 Y-2.566
G1 X-0.1297 Y-2.564
G1 X-0.1389 Y-2.5589
G1 Z0.15
G0 Z0.2
G0 X-0.2453 Y-2.454
G0 Z0.15
G1 Z0. F5.
G1 X-0.2413 Y-2.4489
G1 X-0.2377 Y-2.4448
G1 X-0.2346 Y-2.4416
G1 X-0.2318 Y-2.4393
G1 X-0.2277 Y-2.4369
G1 X-0.2231 Y-2.4354
G1 X-0.2181 Y-2.4346
G1 X-0.2126 Y-2.4347
G1 X-0.207 Y-2.4357
G1 X-0.2019 Y-2.4376
G1 X-0.1972 Y-2.4404
G1 X-0.193 Y-2.4441
G1 X-0.1894 Y-2.4486
G1 X-0.187 Y-2.4535
G1 X-0.1858 Y-2.4587
G1 X-0.1857 Y-2.4643
G1 X-0.1868 Y-2.4698
G1 X-0.189 Y-2.4747
G1 X-0.1924 Y-2.4791
G1 X-0.197 Y-2.4828
G1 X-0.2016 Y-2.4855
G1 X-0.2068 Y-2.4875
G1 X-0.2123 Y-2.4888
G1 X-0.2183 Y-2.4894
G1 X-0.2096 Y-2.492
G1 X-0.2021 Y-2.4951
G1 X-0.1958 Y-2.4987
G1 X-0.1907 Y-2.5027
G1 X-0.1869 Y-2.5072
G1 X-0.1844 Y-2.5121
G1 X-0.1831 Y-2.5176
G1 X-0.183 Y-2.5235
G1 X-0.1845 Y-2.5322
G1 X-0.1874 Y-2.5398
G1 X-0.1918 Y-2.5461
G1 X-0.1975 Y-2.5512
G1 X-0.2039 Y-2.5547
G1 X-0.2112 Y-2.557
G1 X-0.2194 Y-2.558
G1 X-0.2285 Y-2.5578
G1 X-0.2336 Y-2.5569
G1 X-0.2384 Y-2.5549
G1 X-0.2427 Y-2.5519
G1 X-0.2466 Y-2.5479
G1 X-0.2491 Y-2.5445
G1 X-0.2515 Y-2.5403
G1 X-0.254 Y-2.5351
G1 X-0.2566 Y-2.5292
G1 Z0.15
G0 Z0.2
G0 X0.0419 Y-2.4472
G0 Z0.15
G1 Z0. F5.
G1 X0.0591 Y-2.4468
G1 X0.0618 Y-2.5645
G1 Z0.15
G0 Z0.2
G0 X0.2213 Y-2.7097
G0 Z0.15
G1 Z0. F5.
G1 X0.233 Y-2.7014
G1 X0.2459 Y-2.6959
G1 X0.2597 Y-2.6931
G1 X0.2755 Y-2.6929
G1 X0.2903 Y-2.6956
G1 X0.304 Y-2.701
G1 X0.3167 Y-2.7092
G1 X0.3275 Y-2.7197
G1 X0.3357 Y-2.7318
G1 X0.3412 Y-2.7456
G1 X0.3441 Y-2.761
G1 X0.3443 Y-2.7763
G1 X0.3416 Y-2.7908
G1 X0.3361 Y-2.8046
G1 X0.3278 Y-2.8176
G1 X0.3227 Y-2.8236
G1 X0.3172 Y-2.829
G1 X0.3114 Y-2.8336
G1 X0.3052 Y-2.8376
G1 X0.2987 Y-2.8408
G1 X0.2918 Y-2.8433
G1 X0.2846 Y-2.8451
G1 X0.277 Y-2.8462
G1 X0.2691 Y-2.8466
G1 X0.2614 Y-2.8462
G1 X0.2539 Y-2.8451
G1 X0.2467 Y-2.8431
G1 X0.2398 Y-2.8404
G1 X0.233 Y-2.8369
G1 X0.2265 Y-2.8326
G1 X0.2202 Y-2.8275
G1 X0.2094 Y-2.8162
G1 X0.2012 Y-2.8035
G1 X0.1957 Y-2.7895
G1 X0.1928 Y-2.7741
G1 Y-2.76
G1 X0.1958 Y-2.7464
G1 X0.2017 Y-2.7333
G1 X0.2105 Y-2.7207
G1 X0.2213 Y-2.7097
G1 Z0.15
G0 Z0.2
G0 X0.3895 Y-2.7166
G0 Z0.15
G1 Z0. F5.
G1 X0.3936 Y-2.7074
G1 X0.3995 Y-2.6987
G1 X0.4072 Y-2.6903
G1 X0.4167 Y-2.6822
G1 X0.4247 Y-2.6767
G1 X0.4323 Y-2.6724
G1 X0.4396 Y-2.6694
G1 X0.4466 Y-2.6676
G1 X0.4559 Y-2.6665
G1 X0.4648 Y-2.6663
G1 X0.4732 Y-2.6671
G1 X0.4813 Y-2.6688
G1 X0.4885 Y-2.6711
G1 X0.4961 Y-2.6744
G1 X0.5041 Y-2.6787
G1 X0.5125 Y-2.6839
G1 Z0.15
G0 Z0.2
G0 X0.539 Y-2.6557
G0 Z0.15
G1 Z0. F5.
G1 X0.6098 Y-2.6404
G1 Z0.15
G0 Z0.2
G0 X0.658 Y-2.6606
G0 Z0.15
G1 Z0. F5.
G1 X0.6646 Y-2.6466
G1 X0.6733 Y-2.634
G1 X0.6836 Y-2.6239
G1 X0.6953 Y-2.6163
G1 X0.7085 Y-2.6112
G1 X0.724 Y-2.6084
G1 X0.739 Y-2.6085
G1 X0.7534 Y-2.6115
G1 X0.7673 Y-2.6175
G1 X0.7798 Y-2.626
G1 X0.7899 Y-2.6366
G1 X0.7977 Y-2.6492
G1 X0.8031 Y-2.664
G1 X0.8058 Y-2.679
G1 X0.8056 Y-2.6938
G1 X0.8025 Y-2.7082
G1 X0.7965 Y-2.7224
G1 X0.7925 Y-2.7293
G1 X0.788 Y-2.7355
G1 X0.783 Y-2.741
G1 X0.7776 Y-2.746
G1 X0.7717 Y-2.7502
G1 X0.7653 Y-2.7539
G1 X0.7585 Y-2.7569
G1 X0.7512 Y-2.7593
G1 X0.7435 Y-2.761
G1 X0.7358 Y-2.7619
G1 X0.7283 Y-2.762
G1 X0.7209 Y-2.7613
G1 X0.7135 Y-2.7597
G1 X0.7063 Y-2.7574
G1 X0.6991 Y-2.7543
G1 X0.6921 Y-2.7504
G1 X0.6795 Y-2.741
G1 X0.6693 Y-2.7299
G1 X0.6615 Y-2.717
G1 X0.6561 Y-2.7022
G1 X0.6538 Y-2.6884
G1 X0.6544 Y-2.6745
G1 X0.658 Y-2.6606
G1 Z0.15
G0 Z0.2
G0 X0.8766 Y-2.6346
G0 Z0.15
G1 Z0. F5.
G1 X0.8884 Y-2.6332
G1 X0.899 Y-2.6331
G1 X0.9083 Y-2.6341
G1 X0.9164 Y-2.6363
G1 X0.9232 Y-2.6398
G1 X0.9289 Y-2.6444
G1 X0.9332 Y-2.6502
G1 X0.9364 Y-2.6572
G1 X0.9378 Y-2.6624
G1 X0.9384 Y-2.6674
G1 X0.9382 Y-2.6722
G1 X0.9372 Y-2.677
G1 X0.9354 Y-2.6815
G1 X0.9329 Y-2.686
G1 X0.9296 Y-2.6903
G1 X0.9255 Y-2.6944
G1 X0.9184 Y-2.7
G1 X0.9099 Y-2.7051
G1 X0.9002 Y-2.7096
G1 X0.8891 Y-2.7136
G1 X0.8721 Y-2.719
G1 X0.8258 Y-2.581
G1 X0.8383 Y-2.5766
G1 X0.8503 Y-2.5728
G1 X0.861 Y-2.5705
G1 X0.8705 Y-2.5698
G1 X0.8787 Y-2.5706
G1 X0.8857 Y-2.573
G1 X0.8914 Y-2.5768
G1 X0.8959 Y-2.5822
G1 X0.8991 Y-2.5892
G1 X0.9004 Y-2.5954
G1 X0.9005 Y-2.6018
G1 X0.8991 Y-2.6086
G1 X0.8965 Y-2.6156
G1 X0.8928 Y-2.6222
G1 X0.8884 Y-2.6275
G1 X0.8833 Y-2.6316
G1 X0.8776 Y-2.6342
G1 X0.8472 Y-2.6444
G1 Z0.15
G0 Z0.2
G0 X0.9958 Y-2.6764
G0 Z0.15
G1 Z0. F5.
G1 X0.9431 Y-2.5396
G1 X1.0153 Y-2.5118
G1 Z0.15
G0 Z0.2
G0 X1.039 Y-2.5734
G0 Z0.15
G1 Z0. F5.
G1 X0.9668 Y-2.6012
G1 Z0.15
G0 Z0.2
G0 X1.068 Y-2.6486
G0 Z0.15
G1 Z0. F5.
G1 X0.9958 Y-2.6764
G1 Z0.15
G0 Z0.2
G0 X1.1114 Y-2.6306
G0 Z0.15
G1 Z0. F5.
G1 X1.0528 Y-2.497
G1 X1.0871 Y-2.482
G1 X1.0973 Y-2.4782
G1 X1.1066 Y-2.476
G1 X1.1151 Y-2.4755
G1 X1.1227 Y-2.4767
G1 X1.1295 Y-2.4795
G1 X1.1354 Y-2.484
G1 X1.1405 Y-2.4901
G1 X1.1447 Y-2.498
G1 X1.1473 Y-2.5069
G1 X1.1471 Y-2.5154
G1 X1.1441 Y-2.5235
G1 X1.1382 Y-2.5313
G1 X1.1322 Y-2.5366
G1 X1.1246 Y-2.5419
G1 X1.1152 Y-2.5471
G1 X1.1042 Y-2.5523
G1 X1.0988 Y-2.5546
G1 X1.0918 Y-2.5575
G1 X1.0852 Y-2.5602
G1 X1.0813 Y-2.5619
G1 Z0.15
G0 Z0.2
G0 X1.1856 Y-2.5976
G0 Z0.15
G1 Z0. F5.
G1 X1.113 Y-2.5487
G1 Z0.15
G0 Z0.2
G0 X1.0363 Y-2.2379
G0 Z0.15
G1 Z0. F5.
G1 X1.0371 Y-2.2315
G1 X1.0381 Y-2.2261
G1 X1.0392 Y-2.2218
G1 X1.0404 Y-2.2185
G1 X1.0428 Y-2.2143
G1 X1.0459 Y-2.2106
G1 X1.0499 Y-2.2074
G1 X1.0546 Y-2.2047
G1 X1.0599 Y-2.2027
G1 X1.0653 Y-2.2017
G1 X1.0708 Y-2.2018
G1 X1.0763 Y-2.2028
G1 X1.0817 Y-2.2049
G1 X1.0862 Y-2.2079
G1 X1.09 Y-2.2118
G1 X1.0929 Y-2.2165
G1 X1.0947 Y-2.2218
G1 X1.0953 Y-2.2272
G1 X1.0946 Y-2.2326
G1 X1.0926 Y-2.2382
G1 X1.0899 Y-2.2429
G1 X1.0865 Y-2.2472
G1 X1.0824 Y-2.2512
G1 X1.0775 Y-2.2547
G1 X1.0864 Y-2.2525
G1 X1.0944 Y-2.2514
G1 X1.1016 Y-2.2512
G1 X1.108 Y-2.2521
G1 X1.1136 Y-2.2541
G1 X1.1183 Y-2.257
G1 X1.1222 Y-2.261
G1 X1.1253 Y-2.2661
G1 X1.1284 Y-2.2744
G1 X1.1297 Y-2.2824
G1 X1.1292 Y-2.29
G1 X1.1268 Y-2.2973
G1 X1.1231 Y-2.3036
G1 X1.118 Y-2.3093
G1 X1.1115 Y-2.3144
G1 X1.1036 Y-2.3188
G1 X1.0986 Y-2.3206
G1 X1.0935 Y-2.3213
G1 X1.0883 Y-2.321
G1 X1.0829 Y-2.3195
G1 X1.0791 Y-2.3178
G1 X1.0748 Y-2.3154
G1 X1.07 Y-2.3123
G1 X1.0648 Y-2.3084
G1 Z0.15
G0 Z0.2
G0 X1.1311 Y-2.1705
G0 Z0.15
G1 Z0. F5.
G1 X1.1462 Y-2.1625
G1 X1.2013 Y-2.2665
G1 Z0.15
G0 Z0.2
G0 X1.2801 Y-2.0861
G0 Z0.15
G1 Z0. F5.
G1 X1.2947 Y-2.077
G1 X1.3569 Y-2.1769
G1 Z0.15
G0 Z0.2
G0 X1.6067 Y-2.2057
G0 Z0.15
G1 Z0. F5.
G1 X1.61 Y-2.1907
G1 X1.6157 Y-2.1774
G1 X1.6238 Y-2.166
G1 X1.6341 Y-2.1564
G1 X1.6475 Y-2.148
G1 X1.6614 Y-2.1425
G1 X1.6759 Y-2.1399
G1 X1.691 Y-2.1402
G1 X1.7058 Y-2.1435
G1 X1.7191 Y-2.1495
G1 X1.731 Y-2.1583
G1 X1.7416 Y-2.1699
G1 X1.7497 Y-2.1829
G1 X1.755 Y-2.1966
G1 X1.7576 Y-2.2112
G1 X1.7574 Y-2.2266
G1 X1.7562 Y-2.2344
G1 X1.7543 Y-2.2419
G1 X1.7518 Y-2.2489
G1 X1.7486 Y-2.2555
G1 X1.7448 Y-2.2617
G1 X1.7402 Y-2.2674
G1 X1.735 Y-2.2728
G1 X1.7291 Y-2.2777
G1 X1.7226 Y-2.2822
G1 X1.7159 Y-2.2859
G1 X1.7089 Y-2.2888
G1 X1.7018 Y-2.2909
G1 X1.6944 Y-2.2923
G1 X1.6868 Y-2.2928
G1 X1.679 Y-2.2926
G1 X1.671 Y-2.2916
G1 X1.6558 Y-2.2876
G1 X1.6422 Y-2.2811
G1 X1.6301 Y-2.272
G1 X1.6196 Y-2.2604
G1 X1.6123 Y-2.2484
G1 X1.6077 Y-2.2353
G1 X1.6058 Y-2.221
G1 X1.6067 Y-2.2057
G1 Z0.15
G0 Z0.2
G0 X1.7241 Y-2.089
G0 Z0.15
G1 Z0. F5.
G1 X1.865 Y-2.1623
G1 X1.8144 Y-2.0111
G1 Z0.15
G0 Z0.2
G0 X1.9468 Y-1.9778
G0 Z0.15
G1 Z0. F5.
G1 X1.8908 Y-2.0311
G1 Z0.15
G0 Z0.2
G0 X1.9465 Y-2.0895
G0 Z0.15
G1 Z0. F5.
G1 X1.8453 Y-1.9834
G1 X1.9013 Y-1.93
G1 Z0.15
G0 Z0.2
G0 X2.0025 Y-2.0361
G0 Z0.15
G1 Z0. F5.
G1 X1.9465 Y-2.0895
G1 Z0.15
G0 Z0.2
G0 X2.0318 Y-2.008
G0 Z0.15
G1 Z0. F5.
G1 X1.9385 Y-1.8943
G1 X2.0808 Y-1.9424
G1 X2.0231 Y-1.8036
G1 X2.1429 Y-1.889
G1 Z0.15
G0 Z0.2
G0 X2.1763 Y-1.8486
G0 Z0.15
G1 Z0. F5.
G1 X2.0642 Y-1.7558
G1 X2.0724 Y-1.7454
G1 X2.0806 Y-1.7359
G1 X2.0885 Y-1.7283
G1 X2.0962 Y-1.7227
G1 X2.1036 Y-1.719
G1 X2.1108 Y-1.7174
G1 X2.1177 Y-1.7176
G1 X2.1243 Y-1.7199
G1 X2.1307 Y-1.724
G1 X2.1351 Y-1.7286
G1 X2.1385 Y-1.7341
G1 X2.141 Y-1.7405
G1 X2.1424 Y-1.7478
G1 X2.1428 Y-1.7554
G1 X2.1418 Y-1.7623
G1 X2.1397 Y-1.7684
G1 X2.1362 Y-1.7737
G1 X2.1158 Y-1.7984
G1 Z0.15
G0 Z0.2
G0 X2.1356 Y-1.7744
G0 Z0.15
G1 Z0. F5.
G1 X2.1449 Y-1.7671
G1 X2.1538 Y-1.7614
G1 X2.1622 Y-1.7573
G1 X2.1703 Y-1.755
G1 X2.1779 Y-1.7543
G1 X2.1851 Y-1.7552
G1 X2.1919 Y-1.7578
G1 X2.1983 Y-1.7621
G1 X2.2022 Y-1.7658
G1 X2.2053 Y-1.7697
G1 X2.2077 Y-1.774
G1 X2.2094 Y-1.7785
G1 X2.2103 Y-1.7833
G1 X2.2105 Y-1.7884
G1 X2.21 Y-1.7938
G1 X2.2087 Y-1.7994
G1 X2.2056 Y-1.808
G1 X2.2011 Y-1.8168
G1 X2.1952 Y-1.8257
G1 X2.1879 Y-1.8349
G1 X2.1763 Y-1.8486
G1 Z0.15
G0 Z0.2
G0 X2.2589 Y-1.747
G0 Z0.15
G1 Z0. F5.
G1 X2.1419 Y-1.6587
G1 X2.1885 Y-1.597
G1 Z0.15
G0 Z0.2
G0 X2.2412 Y-1.6367
G0 Z0.15
G1 Z0. F5.
G1 X2.1945 Y-1.6985
G1 Z0.15
G0 Z0.2
G0 X2.3055 Y-1.6853
G0 Z0.15
G1 Z0. F5.
G1 X2.2589 Y-1.747
G1 Z0.15
G0 Z0.2
G0 X2.3329 Y-1.6471
G0 Z0.15
G1 Z0. F5.
G1 X2.2126 Y-1.5646
G1 X2.2338 Y-1.5338
G1 X2.2404 Y-1.5251
G1 X2.2472 Y-1.5184
G1 X2.2541 Y-1.5135
G1 X2.2612 Y-1.5104
G1 X2.2684 Y-1.5093
G1 X2.2758 Y-1.5099
G1 X2.2834 Y-1.5125
G1 X2.2911 Y-1.5169
G1 X2.298 Y-1.5231
G1 X2.3024 Y-1.5305
G1 X2.3041 Y-1.539
G1 X2.3032 Y-1.5486
G1 X2.3009 Y-1.5563
G1 X2.2972 Y-1.5648
G1 X2.292 Y-1.5742
G1 X2.2854 Y-1.5845
G1 X2.2821 Y-1.5893
G1 X2.2776 Y-1.5954
G1 X2.2735 Y-1.6012
G1 X2.271 Y-1.6047
G1 Z0.15
G0 Z0.2
G0 X2.3784 Y-1.5799
G0 Z0.15
G1 Z0. F5.
G1 X2.291 Y-1.5767
G1 Z0.15
G0 Z0.2
G0 X2.1587 Y-1.3896
G0 Z0.15
G1 Z0. F5.
G1 X2.1497 Y-1.3951
G1 X2.1456 Y-1.3965
G1 X2.141 Y-1.3974
G1 X2.1358 Y-1.3977
G1 X2.13 Y-1.3974
G1 X2.1237 Y-1.3965
G1 X2.1177 Y-1.3946
G1 X2.1165 Y-1.3941
G1 X2.1142 Y-1.3931
G1 X2.1107 Y-1.3914
G1 X2.106 Y-1.3892
G1 X2.0929 Y-1.382
G1 X2.0807 Y-1.3731
G1 X2.0762 Y-1.3693
G1 X2.0728 Y-1.3664
G1 X2.0705 Y-1.3645
G1 X2.0693 Y-1.3634
G1 X2.0644 Y-1.3578
G1 X2.0605 Y-1.3515
G1 X2.0578 Y-1.3459
G1 X2.0561 Y-1.3421
G1 X2.055 Y-1.3372
G1 X2.0547 Y-1.332
G1 X2.0561 Y-1.3238
G1 X2.0594 Y-1.3161
G1 X2.0656 Y-1.3082
G1 X2.0734 Y-1.3028
G1 X2.0769 Y-1.3015
G1 X2.0812 Y-1.3006
G1 X2.0861 Y-1.3002
G1 X2.0916 Y-1.3003
G1 X2.0953 Y-1.3007
G1 X2.0995 Y-1.3016
G1 X2.1044 Y-1.303
G1 X2.11 Y-1.3049
G1 X2.1138 Y-1.3064
G1 X2.1182 Y-1.3086
G1 X2.1233 Y-1.3113
G1 X2.1291 Y-1.3147
G1 X2.1393 Y-1.3211
G1 X2.1472 Y-1.3271
G1 X2.1515 Y-1.3306
G1 X2.155 Y-1.3338
G1 X2.1578 Y-1.3366
G1 X2.1599 Y-1.3389
G1 X2.1645 Y-1.346
G1 X2.1677 Y-1.3544
G1 X2.1694 Y-1.3623
G1 X2.1695 Y-1.3689
G1 X2.1679 Y-1.3763
G1 X2.1649 Y-1.3827
G1 X2.1587 Y-1.3896
G1 Z0.15
G0 Z0.2
G0 X2.0057 Y-1.4351
G0 Z0.15
G1 Z0. F5.
G1 X2.0033 Y-1.4291
G1 X2.0015 Y-1.4239
G1 X2.0003 Y-1.4196
G1 X1.9997 Y-1.4161
G1 Y-1.4113
G1 X2.0006 Y-1.4066
G1 X2.0025 Y-1.4018
G1 X2.0053 Y-1.3971
G1 X2.0089 Y-1.3928
G1 X2.0131 Y-1.3893
G1 X2.0178 Y-1.3866
G1 X2.0232 Y-1.3848
G1 X2.0289 Y-1.384
G1 X2.0343 Y-1.3843
G1 X2.0394 Y-1.3858
G1 X2.0443 Y-1.3885
G1 X2.0486 Y-1.3922
G1 X2.0517 Y-1.3966
G1 X2.0538 Y-1.4017
G1 X2.0547 Y-1.4075
G1 X2.0548 Y-1.4129
G1 X2.054 Y-1.4184
G1 X2.0523 Y-1.4238
G1 X2.0499 Y-1.4293
G1 X2.0565 Y-1.4231
G1 X2.0629 Y-1.4181
G1 X2.0691 Y-1.4144
G1 X2.0751 Y-1.412
G1 X2.0809 Y-1.411
G1 X2.0864 Y-1.4112
G1 X2.0918 Y-1.4128
G1 X2.097 Y-1.4157
G1 X2.1038 Y-1.4213
G1 X2.1089 Y-1.4276
G1 X2.1122 Y-1.4345
G1 X2.1137 Y-1.442
G1 X2.1136 Y-1.4494
G1 X2.112 Y-1.4568
G1 X2.1088 Y-1.4645
G1 X2.1041 Y-1.4722
G1 X2.1007 Y-1.4762
G1 X2.0966 Y-1.4794
G1 X2.0919 Y-1.4816
G1 X2.0865 Y-1.483
G1 X2.0823 Y-1.4834
G1 X2.0774 Y-1.4835
G1 X2.0717 Y-1.4831
G1 X2.0653 Y-1.4823
G1 Z0.15
G0 Z0.2
G0 X2.1428 Y-1.1827
G0 Z0.15
G1 Z0. F5.
G1 X2.1511 Y-1.1676
G1 X2.2544 Y-1.2238
G1 Z0.15
G0 Z0.2
G0 X2.4111 Y-1.236
G0 Z0.15
G1 Z0. F5.
G1 X2.4176 Y-1.2218
G1 X2.4266 Y-1.204
G1 X2.4356 Y-1.1891
G1 X2.4446 Y-1.1771
G1 X2.4536 Y-1.168
G1 X2.4599 Y-1.1632
G1 X2.4666 Y-1.1594
G1 X2.4736 Y-1.1564
G1 X2.4809 Y-1.1544
G1 X2.4887 Y-1.1532
G1 X2.4968 Y-1.153
G1 X2.5052 Y-1.1537
G1 X2.514 Y-1.1553
G1 X2.5212 Y-1.157
G1 X2.5273 Y-1.1587
G1 X2.5321 Y-1.1602
G1 X2.5357 Y-1.1617
G1 X2.5466 Y-1.1684
G1 X2.5558 Y-1.1769
G1 X2.5633 Y-1.1874
G1 X2.5691 Y-1.1997
G1 X2.5728 Y-1.2129
G1 X2.5738 Y-1.2257
G1 X2.5722 Y-1.2381
G1 X2.5678 Y-1.25
G1 X2.5655 Y-1.2547
G1 X2.5627 Y-1.2605
G1 X2.5593 Y-1.2672
G1 X2.5515 Y-1.2829
G1 X2.5481 Y-1.2897
G1 X2.5452 Y-1.2954
G1 X2.5429 Y-1.3001
G1 X2.4111 Y-1.236
G1 Z0.15
G0 Z0.2
G0 X2.4807 Y-1.0886
G0 Z0.15
G1 Z0. F5.
G1 X2.511 Y-1.0174
G1 Z0.15
G0 Z0.2
G0 X2.5717 Y-1.0432
G0 Z0.15
G1 Z0. F5.
G1 X2.5415 Y-1.1144
G1 Z0.15
G0 Z0.2
G0 X2.6157 Y-1.1459
G0 Z0.15
G1 Z0. F5.
G1 X2.4807 Y-1.0886
G1 Z0.15
G0 Z0.2
G0 X2.6459 Y-1.0747
G0 Z0.15
G1 Z0. F5.
G1 X2.6157 Y-1.1459
G1 Z0.15
G0 Z0.2
G0 X2.6557 Y-1.0081
G0 Z0.15
G1 Z0. F5.
G1 X2.6489 Y-1.0117
G1 X2.6419 Y-1.0145
G1 X2.6348 Y-1.0164
G1 X2.6276 Y-1.0174
G1 X2.6202 Y-1.0176
G1 X2.6127 Y-1.0169
G1 X2.605 Y-1.0154
G1 X2.5972 Y-1.0129
G1 X2.5854 Y-1.0081
G1 X2.5752 Y-1.0026
G1 X2.5666 Y-0.9965
G1 X2.5596 Y-0.9898
G1 X2.5537 Y-0.9817
G1 X2.549 Y-0.9723
G1 X2.5454 Y-0.9614
G1 X2.543 Y-0.9492
G1 X2.5421 Y-0.9396
G1 Y-0.9308
G1 X2.543 Y-0.9229
G1 X2.5449 Y-0.916
G1 X2.5485 Y-0.9074
G1 X2.5527 Y-0.8995
G1 X2.5575 Y-0.8925
G1 X2.5629 Y-0.8863
G1 X2.5685 Y-0.8812
G1 X2.5751 Y-0.8762
G1 X2.5827 Y-0.8713
G1 X2.5914 Y-0.8665
G1 Z0.15
G0 Z0.2
G0 X2.6882 Y-0.9023
G0 Z0.15
G1 Z0. F5.
G1 X2.6912 Y-0.9121
G1 X2.6935 Y-0.9201
G1 X2.695 Y-0.9266
G1 X2.6959 Y-0.9313
G1 X2.6963 Y-0.9386
G1 X2.6959 Y-0.9461
G1 X2.6945 Y-0.9535
G1 X2.6922 Y-0.961
G1 X2.6856 Y-0.976
G1 X2.6773 Y-0.9888
G1 X2.6674 Y-0.9995
G1 X2.6557 Y-1.0081
G1 Z0.15
G0 Z0.2
G0 X2.724 Y-0.8571
G0 Z0.15
G1 Z0. F5.
G1 X2.5836 Y-0.8148
G1 X2.606 Y-0.7407
G1 Z0.15
G0 Z0.2
G0 X2.6692 Y-0.7598
G0 Z0.15
G1 Z0. F5.
G1 X2.6468 Y-0.8338
G1 Z0.15
G0 Z0.2
G0 X2.7463 Y-0.7831
G0 Z0.15
G1 Z0. F5.
G1 X2.724 Y-0.8571
G1 Z0.15
G0 Z0.2
G0 X2.758 Y-0.7441
G0 Z0.15
G1 Z0. F5.
G1 X2.6207 Y-0.6913
G1 X2.7683 Y-0.6629
G1 X2.6496 Y-0.5707
G1 X2.7959 Y-0.5859
G1 Z0.15
G0 Z0.2
G0 X2.8051 Y-0.5342
G0 Z0.15
G1 Z0. F5.
G1 X2.6617 Y-0.5088
G1 X2.6638 Y-0.4957
G1 X2.6662 Y-0.4834
G1 X2.6694 Y-0.4729
G1 X2.6733 Y-0.4642
G1 X2.6779 Y-0.4574
G1 X2.6833 Y-0.4524
G1 X2.6894 Y-0.4492
G1 X2.6963 Y-0.4479
G1 X2.7039 Y-0.4484
G1 X2.71 Y-0.4501
G1 X2.7157 Y-0.4532
G1 X2.721 Y-0.4576
G1 X2.7258 Y-0.4633
G1 X2.7299 Y-0.4697
G1 X2.7325 Y-0.4761
G1 X2.7336 Y-0.4825
G1 X2.7332 Y-0.4888
G1 X2.7276 Y-0.5204
G1 Z0.15
G0 Z0.2
G0 X2.733 Y-0.4898
G0 Z0.15
G1 Z0. F5.
G1 X2.7375 Y-0.4788
G1 X2.7424 Y-0.4695
G1 X2.7478 Y-0.4618
G1 X2.7536 Y-0.4557
G1 X2.7599 Y-0.4514
G1 X2.7666 Y-0.4486
G1 X2.7738 Y-0.4476
G1 X2.7815 Y-0.4481
G1 X2.7867 Y-0.4494
G1 X2.7914 Y-0.4513
G1 X2.7955 Y-0.4538
G1 X2.7992 Y-0.4569
G1 X2.8024 Y-0.4606
G1 X2.8051 Y-0.465
G1 X2.8073 Y-0.4699
G1 X2.809 Y-0.4755
G1 X2.8105 Y-0.4844
G1 X2.8109 Y-0.4943
G1 X2.8102 Y-0.505
G1 X2.8084 Y-0.5166
G1 X2.8051 Y-0.5342
G1 Z0.15
G0 Z0.2
G0 X2.8268 Y-0.4051
G0 Z0.15
G1 Z0. F5.
G1 X2.6814 Y-0.386
G1 X2.6915 Y-0.3093
G1 Z0.15
G0 Z0.2
G0 X2.7569 Y-0.3179
G0 Z0.15
G1 Z0. F5.
G1 X2.7468 Y-0.3946
G1 Z0.15
G0 Z0.2
G0 X2.8369 Y-0.3284
G0 Z0.15
G1 Z0. F5.
G1 X2.8268 Y-0.4051
G1 Z0.15
G0 Z0.2
G0 X2.8418 Y-0.2817
G0 Z0.15
G1 Z0. F5.
G1 X2.6965 Y-0.2693
G1 X2.6997 Y-0.232
G1 X2.7012 Y-0.2212
G1 X2.7037 Y-0.212
G1 X2.7074 Y-0.2043
G1 X2.712 Y-0.1982
G1 X2.7178 Y-0.1936
G1 X2.7245 Y-0.1905
G1 X2.7324 Y-0.189
G1 X2.7412 Y-0.1891
G1 X2.7503 Y-0.191
G1 X2.7577 Y-0.1953
G1 X2.7634 Y-0.2019
G1 X2.7674 Y-0.2107
G1 X2.7692 Y-0.2185
G1 X2.7702 Y-0.2277
G1 X2.7703 Y-0.2384
G1 X2.7696 Y-0.2506
G1 X2.7691 Y-0.2564
G1 X2.7683 Y-0.264
G1 X2.7675 Y-0.271
G1 X2.7671 Y-0.2753
G1 Z0.15
G0 Z0.2
G0 X2.8483 Y-0.2008
G0 Z0.15
G1 Z0. F5.
G1 X2.7707 Y-0.2411
G1 Z0.15
G0 Z0.2
G0 X2.4567 Y-0.2162
G0 Z0.15
G1 Z0. F5.
G1 X2.4516 Y-0.2122
G1 X2.4474 Y-0.2087
G1 X2.4442 Y-0.2056
G1 X2.4419 Y-0.2029
G1 X2.4395 Y-0.1988
G1 X2.4378 Y-0.1942
G1 X2.437 Y-0.1892
G1 X2.4371 Y-0.1837
G1 X2.438 Y-0.1781
G1 X2.4398 Y-0.173
G1 X2.4425 Y-0.1683
G1 X2.4462 Y-0.164
G1 X2.4507 Y-0.1604
G1 X2.4556 Y-0.1579
G1 X2.4608 Y-0.1566
G1 X2.4663 Y-0.1565
G1 X2.4719 Y-0.1575
G1 X2.4768 Y-0.1597
G1 X2.4812 Y-0.163
G1 X2.485 Y-0.1675
G1 X2.4877 Y-0.1722
G1 X2.4898 Y-0.1773
G1 X2.4912 Y-0.1828
G1 X2.4918 Y-0.1888
G1 X2.4943 Y-0.18
G1 X2.4973 Y-0.1725
G1 X2.5008 Y-0.1661
G1 X2.5048 Y-0.1611
G1 X2.5092 Y-0.1572
G1 X2.5141 Y-0.1546
G1 X2.5196 Y-0.1532
G1 X2.5255 Y-0.153
G1 X2.5342 Y-0.1545
G1 X2.5418 Y-0.1573
G1 X2.5482 Y-0.1616
G1 X2.5533 Y-0.1672
G1 X2.5569 Y-0.1736
G1 X2.5593 Y-0.1809
G1 X2.5605 Y-0.1891
G1 X2.5604 Y-0.1981
G1 X2.5595 Y-0.2033
G1 X2.5575 Y-0.2081
G1 X2.5546 Y-0.2124
G1 X2.5507 Y-0.2164
G1 X2.5473 Y-0.2189
G1 X2.5431 Y-0.2214
G1 X2.538 Y-0.224
G1 X2.5321 Y-0.2266
G1 Z0.15
G0 Z0.2
G0 X2.4455 Y-0.1004
G0 Z0.15
G1 Z0. F5.
G1 X2.4461 Y-0.0833
G1 X2.5637 Y-0.0874
G1 Z0.15
G0 Z0.2
G0 X2.4465 Y0.0709
G0 Z0.15
G1 Z0. F5.
G1 X2.4459 Y0.0881
G1 X2.5635 Y0.0922
G1 Z0.15
G0 Z0.2
G0 X2.6936 Y0.2934
G0 Z0.15
G1 Z0. F5.
G1 X2.8127 Y0.3051
G1 X2.8189
G1 X2.8247 Y0.3038
G1 X2.8301 Y0.3012
G1 X2.8351 Y0.2972
G1 X2.8391 Y0.2926
G1 X2.8422 Y0.2875
G1 X2.8443 Y0.2819
G1 X2.8454 Y0.2758
G1 X2.8452 Y0.2684
G1 X2.8431 Y0.2606
G1 X2.8424 Y0.2591
G1 X2.8412 Y0.2563
G1 X2.8392 Y0.2521
G1 X2.8366 Y0.2465
G1 Z0.15
G0 Z0.2
G0 X2.834 Y0.3557
G0 Z0.15
G1 Z0. F5.
G1 X2.6801 Y0.3988
G1 X2.8148 Y0.4847
G1 Z0.15
G0 Z0.2
G0 X2.8058 Y0.5331
G0 Z0.15
G1 Z0. F5.
G1 X2.6631 Y0.5031
G1 X2.7833 Y0.6403
G1 X2.6406 Y0.6104
G1 Z0.15
G0 Z0.2
G0 X2.6282 Y0.6598
G0 Z0.15
G1 Z0. F5.
G1 X2.7217 Y0.6849
G1 X2.7313 Y0.6882
G1 X2.7399 Y0.6925
G1 X2.7474 Y0.6978
G1 X2.7538 Y0.7042
G1 X2.7594 Y0.7124
G1 X2.7627 Y0.7211
G1 X2.7636 Y0.7303
G1 X2.7621 Y0.7399
G1 X2.7583 Y0.7503
G1 X2.753 Y0.7588
G1 X2.7461 Y0.7655
G1 X2.7377 Y0.7704
G1 X2.7291 Y0.7731
G1 X2.7197 Y0.7741
G1 X2.7095 Y0.7735
G1 X2.6985 Y0.7713
G1 X2.605 Y0.7462
G1 Z0.15
G0 Z0.2
G0 X2.674 Y0.8388
G0 Z0.15
G1 Z0. F5.
G1 X2.6483 Y0.917
G1 Z0.15
G0 Z0.2
G0 X2.6003 Y0.9857
G0 Z0.15
G1 Z0. F5.
G1 X2.6027 Y0.9791
G1 X2.6042 Y0.975
G1 Z0.15
G0 Z0.2
G0 X2.5956 Y0.9983
G0 Z0.15
G1 Z0. F5.
G1 X2.5977 Y0.9929
G1 X2.6003 Y0.9857
G1 Z0.15
G0 Z0.2
G0 X2.674 Y1.0023
G0 Z0.15
G1 Z0. F5.
G1 X2.5382 Y0.9493
G1 X2.5246 Y0.9841
G1 X2.5212 Y0.9945
G1 X2.5194 Y1.0039
G1 X2.5193 Y1.0124
G1 X2.5207 Y1.0199
G1 X2.5238 Y1.0266
G1 X2.5286 Y1.0323
G1 X2.5349 Y1.0371
G1 X2.5429 Y1.041
G1 X2.5519 Y1.0433
G1 X2.5605 Y1.0427
G1 X2.5684 Y1.0393
G1 X2.5759 Y1.0332
G1 X2.581 Y1.027
G1 X2.5859 Y1.0191
G1 X2.5908 Y1.0096
G1 X2.5956 Y0.9983
G1 Z0.15
G0 Z0.2
G0 X2.6441 Y1.0778
G0 Z0.15
G1 Z0. F5.
G1 X2.5923 Y1.0073
G1 Z0.15
G0 Z0.2
G0 X2.4912 Y1.0626
G0 Z0.15
G1 Z0. F5.
G1 X2.5392 Y1.1351
G1 Z0.15
G0 Z0.2
G0 X2.4535 Y1.1471
G0 Z0.15
G1 Z0. F5.
G1 X2.5392 Y1.1351
G1 X2.6068 Y1.1654
G1 Z0.15
G0 Z0.2
G0 X2.7322 Y0.8325
G0 Z0.15
G1 Z0. F5.
G1 X2.5732 Y0.8488
G1 X2.6913 Y0.9564
G1 Z0.15
G0 Z0.2
G0 X2.2255 Y1.0627
G0 Z0.15
G1 Z0. F5.
G1 X2.2191 Y1.0635
G1 X2.2137 Y1.0645
G1 X2.2093 Y1.0655
G1 X2.206 Y1.0667
G1 X2.2018 Y1.069
G1 X2.1981 Y1.0721
G1 X2.1948 Y1.076
G1 X2.192 Y1.0807
G1 X2.19 Y1.086
G1 X2.1889 Y1.0914
G1 Y1.0968
G1 X2.1899 Y1.1024
G1 X2.1919 Y1.1078
G1 X2.1949 Y1.1123
G1 X2.1987 Y1.1161
G1 X2.2034 Y1.1191
G1 X2.2087 Y1.121
G1 X2.214 Y1.1216
G1 X2.2195 Y1.121
G1 X2.2251 Y1.119
G1 X2.2298 Y1.1164
G1 X2.2342 Y1.1131
G1 X2.2382 Y1.109
G1 X2.2418 Y1.1042
G1 X2.2395 Y1.113
G1 X2.2382 Y1.121
G1 X2.238 Y1.1283
G1 X2.2388 Y1.1346
G1 X2.2407 Y1.1402
G1 X2.2436 Y1.145
G1 X2.2476 Y1.1489
G1 X2.2526 Y1.1521
G1 X2.2609 Y1.1553
G1 X2.2688 Y1.1567
G1 X2.2765 Y1.1563
G1 X2.2838 Y1.154
G1 X2.2901 Y1.1503
G1 X2.2959 Y1.1453
G1 X2.301 Y1.1389
G1 X2.3055 Y1.131
G1 X2.3074 Y1.1261
G1 X2.3082 Y1.121
G1 X2.3079 Y1.1157
G1 X2.3065 Y1.1103
G1 X2.3048 Y1.1065
G1 X2.3025 Y1.1021
G1 X2.2994 Y1.0974
G1 X2.2956 Y1.0921
G1 Z0.15
G0 Z0.2
G0 X2.157 Y1.1567
G0 Z0.15
G1 Z0. F5.
G1 X2.1487 Y1.1718
G1 X2.2521 Y1.2281
G1 Z0.15
G0 Z0.2
G0 X2.0707 Y1.3048
G0 Z0.15
G1 Z0. F5.
G1 X2.0615 Y1.3193
G1 X2.1607 Y1.3826
G1 Z0.15
G0 Z0.2
G0 X2.2537 Y1.5046
G0 Z0.15
G1 Z0. F5.
G1 X2.2169 Y1.5586
G1 Z0.15
G0 Z0.2
G0 X2.2721 Y1.5962
G0 Z0.15
G1 Z0. F5.
G1 X2.3089 Y1.5423
G1 Z0.15
G0 Z0.2
G0 X2.3741 Y1.5868
G0 Z0.15
G1 Z0. F5.
G1 X2.2537 Y1.5046
G1 Z0.15
G0 Z0.2
G0 X2.3108 Y1.6778
G0 Z0.15
G1 Z0. F5.
G1 X2.1931 Y1.5903
G1 X2.147 Y1.6524
G1 Z0.15
G0 Z0.2
G0 X2.1999 Y1.6918
G0 Z0.15
G1 Z0. F5.
G1 X2.2461 Y1.6297
G1 Z0.15
G0 Z0.2
G0 X2.2646 Y1.7399
G0 Z0.15
G1 Z0. F5.
G1 X2.3108 Y1.6778
G1 Z0.15
G0 Z0.2
G0 X2.2362 Y1.7757
G0 Z0.15
G1 Z0. F5.
G1 X2.1234 Y1.6837
G1 X2.1148 Y1.6938
G1 X2.1071 Y1.7037
G1 X2.1012 Y1.7129
G1 X2.0972 Y1.7215
G1 X2.095 Y1.7295
G1 X2.0947 Y1.7369
G1 X2.0963 Y1.7436
G1 X2.0998 Y1.7497
G1 X2.1052 Y1.7551
G1 X2.1105 Y1.7586
G1 X2.1165 Y1.7609
G1 X2.1233 Y1.762
G1 X2.1308
G1 X2.1383 Y1.7608
G1 X2.1449 Y1.7586
G1 X2.1504 Y1.7553
G1 X2.1549 Y1.7509
G1 X2.1752 Y1.7261
G1 Z0.15
G0 Z0.2
G0 X2.1556 Y1.7501
G0 Z0.15
G1 Z0. F5.
G1 X2.1501 Y1.7607
G1 X2.1463 Y1.7705
G1 X2.144 Y1.7796
G1 X2.1432 Y1.7879
G1 X2.144 Y1.7955
G1 X2.1463 Y1.8024
G1 X2.1502 Y1.8086
G1 X2.1557 Y1.814
G1 X2.16 Y1.8171
G1 X2.1645 Y1.8194
G1 X2.1691 Y1.821
G1 X2.1739 Y1.8217
G1 X2.1788
G1 X2.1838 Y1.8209
G1 X2.189 Y1.8193
G1 X2.1943 Y1.817
G1 X2.2021 Y1.8123
G1 X2.2098 Y1.8062
G1 X2.2175 Y1.7986
G1 X2.2251 Y1.7897
G1 X2.2362 Y1.7757
G1 Z0.15
G0 Z0.2
G0 X2.1516 Y1.8778
G0 Z0.15
G1 Z0. F5.
G1 X2.043 Y1.7804
G1 X2.018 Y1.8082
G1 X2.0112 Y1.8167
G1 X2.0062 Y1.8249
G1 X2.0031 Y1.8328
G1 X2.0018 Y1.8404
G1 X2.0024 Y1.8477
G1 X2.0048 Y1.8547
G1 X2.0091 Y1.8615
G1 X2.0152 Y1.8679
G1 X2.0229 Y1.8732
G1 X2.031 Y1.8757
G1 X2.0397 Y1.8753
G1 X2.0488 Y1.8722
G1 X2.0557 Y1.8682
G1 X2.0632 Y1.8625
G1 X2.0711 Y1.8553
G1 X2.0795 Y1.8465
G1 X2.0834 Y1.8421
G1 X2.0883 Y1.8363
G1 X2.0929 Y1.8309
G1 X2.0958 Y1.8277
G1 Z0.15
G0 Z0.2
G0 X2.097 Y1.9379
G0 Z0.15
G1 Z0. F5.
G1 X2.0733 Y1.8537
G1 Z0.15
G0 Z0.2
G0 X1.9545 Y1.877
G0 Z0.15
G1 Z0. F5.
G1 X2.0232 Y1.9451
G1 X2.0299 Y1.9527
G1 X2.0352 Y1.9607
G1 X2.0391 Y1.9691
G1 X2.0415 Y1.9778
G1 X2.0423 Y1.9877
G1 X2.0408 Y1.9969
G1 X2.037 Y2.0053
G1 X2.0309 Y2.0129
G1 X2.0225 Y2.02
G1 X2.0136 Y2.0248
G1 X2.0044 Y2.0272
G1 X1.9947 Y2.0273
G1 X1.9859 Y2.0253
G1 X1.9772 Y2.0216
G1 X1.9686 Y2.016
G1 X1.9602 Y2.0086
G1 X1.8915 Y1.9404
G1 Z0.15
G0 Z0.2
G0 X1.9054 Y2.0551
G0 Z0.15
G1 Z0. F5.
G1 X1.8443 Y2.1102
G1 Z0.15
G0 Z0.2
G0 X1.8243 Y2.1971
G0 Z0.15
G1 Z0. F5.
G1 X1.7327 Y2.0836
G1 X1.7036 Y2.1071
G1 X1.6955 Y2.1144
G1 X1.6893 Y2.1217
G1 X1.6849 Y2.129
G1 X1.6825 Y2.1363
G1 X1.6819 Y2.1436
G1 X1.6831 Y2.1509
G1 X1.6862 Y2.1583
G1 X1.6912 Y2.1656
G1 X1.698 Y2.172
G1 X1.7056 Y2.1758
G1 X1.7143 Y2.1768
G1 X1.7238 Y2.1752
G1 X1.7313 Y2.1723
G1 X1.7395 Y2.1679
G1 X1.7484 Y2.1621
G1 X1.7581 Y2.1547
G1 X1.7627 Y2.1509
G1 X1.7685 Y2.1461
G1 X1.7739 Y2.1415
G1 X1.7772 Y2.1387
G1 Z0.15
G0 Z0.2
G0 X1.7609 Y2.2477
G0 Z0.15
G1 Z0. F5.
G1 X1.7509 Y2.1608
G1 Z0.15
G0 Z0.2
G0 X1.6357 Y2.1587
G0 Z0.15
G1 Z0. F5.
G1 X1.6413 Y2.2454
G1 Z0.15
G0 Z0.2
G0 X1.561 Y2.2133
G0 Z0.15
G1 Z0. F5.
G1 X1.6413 Y2.2454
G1 X1.685 Y2.3053
G1 Z0.15
G0 Z0.2
G0 X1.4324 Y2.1277
G0 Z0.15
G1 Z0. F5.
G1 X1.4287 Y2.132
G1 X1.4242 Y2.1361
G1 X1.4162 Y2.1413
G1 X1.4079 Y2.1444
G1 X1.3998 Y2.1456
G1 X1.3925 Y2.145
G1 X1.384 Y2.1421
G1 X1.3768 Y2.1371
G1 X1.3713 Y2.1308
G1 X1.3679 Y2.1238
G1 X1.3667 Y2.1173
G1 X1.3669 Y2.1101
G1 X1.3682 Y2.1042
G1 X1.371 Y2.097
G1 X1.3727 Y2.094
G1 X1.3752 Y2.0908
G1 X1.3786 Y2.0876
G1 X1.3827 Y2.0842
G1 X1.3899 Y2.0778
G1 X1.3939 Y2.0714
G1 X1.3967 Y2.0615
G1 X1.397 Y2.0532
G1 X1.3956 Y2.0459
G1 X1.3932 Y2.0406
G1 X1.3903 Y2.037
G1 X1.3871 Y2.0343
G1 X1.3834 Y2.0323
G1 X1.3791 Y2.0308
G1 X1.3744 Y2.03
G1 X1.3666 Y2.0302
G1 X1.3585 Y2.0325
G1 X1.3509 Y2.0366
G1 X1.345 Y2.0423
G1 X1.3408 Y2.0487
G1 X1.3385 Y2.0554
G1 X1.338 Y2.0632
G1 X1.3397 Y2.0706
G1 X1.343 Y2.0764
G1 X1.3477 Y2.0813
G1 X1.3546 Y2.0852
G1 X1.3638 Y2.0874
G1 X1.3686 Y2.0879
G1 X1.3726
G1 X1.3759 Y2.0874
G1 X1.3784 Y2.0864
G1 X1.3869 Y2.0817
G1 X1.3953 Y2.0784
G1 X1.4046 Y2.0768
G1 X1.4129 Y2.0771
G1 X1.4217 Y2.0795
G1 X1.4284 Y2.0836
G1 X1.4338 Y2.0894
G1 X1.436 Y2.0936
G1 X1.4379 Y2.0989
G1 X1.4391 Y2.1087
G1 X1.4373 Y2.1185
G1 X1.4353 Y2.1232
G1 X1.4324 Y2.1277
G1 Z0.15
G0 Z0.2
G0 X1.4804 Y1.9854
G0 Z0.15
G1 Z0. F5.
G1 X1.4758 Y1.9818
G1 X1.4686 Y1.9769
G1 X1.4621 Y1.9746
G1 X1.4556 Y1.9735
G1 X1.4499
G1 X1.4441 Y1.9745
G1 X1.4384 Y1.9764
G1 X1.4331 Y1.9793
G1 X1.4279 Y1.9834
G1 X1.4237 Y1.9885
G1 X1.4203 Y1.9947
G1 X1.4183 Y2.0013
G1 X1.4178 Y2.0079
G1 X1.4185 Y2.0149
G1 X1.4204 Y2.0215
G1 X1.4231 Y2.0269
G1 X1.4267 Y2.0311
G1 X1.4316 Y2.0353
G1 X1.4346 Y2.0375
G1 X1.4361 Y2.0385
G1 X1.4411 Y2.0405
G1 X1.5298 Y2.0593
G1 X1.4731 Y2.1004
G1 Z0.15
G0 Z0.2
G0 X1.2218 Y2.1208
G0 Z0.15
G1 Z0. F5.
G1 X1.2069 Y2.1292
G1 X1.265 Y2.2316
G1 Z0.15
G0 Z0.2
G0 X1.1967 Y2.5939
G0 Z0.15
G1 Z0. F5.
G1 X1.1215 Y2.4674
G1 X1.1184 Y2.6177
G1 X1.0075 Y2.5161
G1 X1.047 Y2.6578
G1 Z0.15
G0 Z0.2
G0 X1.0063 Y2.673
G0 Z0.15
G1 Z0. F5.
G1 X0.8965 Y2.557
G1 X0.8832 Y2.7162
G1 Z0.15
G0 Z0.2
G0 X0.8363 Y2.7305
G0 Z0.15
G1 Z0. F5.
G1 X0.7955 Y2.5905
G1 X0.7596 Y2.601
G1 X0.7493 Y2.6046
G1 X0.7408 Y2.6089
G1 X0.734 Y2.614
G1 X0.7289 Y2.6198
G1 X0.7255 Y2.6263
G1 X0.7238 Y2.6335
G1 X0.7239 Y2.6415
G1 X0.7257 Y2.6502
G1 X0.7294 Y2.6587
G1 X0.735 Y2.6651
G1 X0.7426 Y2.6694
G1 X0.752 Y2.6716
G1 X0.76 Y2.6718
G1 X0.7693 Y2.6709
G1 X0.7798 Y2.669
G1 X0.7916 Y2.6659
G1 X0.7972 Y2.6642
G1 X0.8045 Y2.6619
G1 X0.8112 Y2.6598
G1 X0.8153 Y2.6585
G1 Z0.15
G0 Z0.2
G0 X0.7583 Y2.7528
G0 Z0.15
G1 Z0. F5.
G1 X0.7825 Y2.6688
G1 Z0.15
G0 Z0.2
G0 X0.6927 Y2.7003
G0 Z0.15
G1 Z0. F5.
G1 X0.6893 Y2.688
G1 X0.6851 Y2.6772
G1 X0.6801 Y2.6679
G1 X0.6742 Y2.6602
G1 X0.667 Y2.6534
G1 X0.6582 Y2.6475
G1 X0.6478 Y2.6427
G1 X0.636 Y2.6389
G1 X0.6265 Y2.6368
G1 X0.6178 Y2.6357
G1 X0.6099
G1 X0.6028 Y2.6367
G1 X0.5938 Y2.6392
G1 X0.5855 Y2.6425
G1 X0.578 Y2.6464
G1 X0.5711 Y2.651
G1 X0.5654 Y2.6559
G1 X0.5596 Y2.6619
G1 X0.5538 Y2.6688
G1 X0.548 Y2.6769
G1 Z0.15
G0 Z0.2
G0 X0.5087 Y2.7308
G0 Z0.15
G1 Z0. F5.
G1 X0.4134 Y2.7468
G1 Z0.15
G0 Z0.2
G0 X0.4264 Y2.8239
G0 Z0.15
G1 Z0. F5.
G1 X0.4022 Y2.68
G1 Z0.15
G0 Z0.2
G0 X0.5216 Y2.8078
G0 Z0.15
G1 Z0. F5.
G1 X0.4974 Y2.664
G1 Z0.15
G0 Z0.2
G0 X0.572 Y2.7773
G0 Z0.15
G1 Z0. F5.
G1 X0.5813 Y2.7815
G1 X0.589 Y2.7847
G1 X0.5952 Y2.787
G1 X0.5998 Y2.7884
G1 X0.607 Y2.7898
G1 X0.6144 Y2.7902
G1 X0.622 Y2.7898
G1 X0.6298 Y2.7884
G1 X0.6454 Y2.7836
G1 X0.6591 Y2.7769
G1 X0.6709 Y2.7683
G1 X0.6808 Y2.7578
G1 X0.6853 Y2.7515
G1 X0.6889 Y2.7449
G1 X0.6916 Y2.7381
G1 X0.6935 Y2.731
G1 X0.6946 Y2.7237
G1 X0.6948 Y2.7161
G1 X0.6942 Y2.7083
G1 X0.6927 Y2.7003
G1 Z0.15
G0 Z0.2
G0 X0.9658 Y2.6308
G0 Z0.15
G1 Z0. F5.
G1 X0.8883 Y2.6581
G1 Z0.15
G0 Z0.2
G0 X0.6927 Y2.0354
G0 Z0.15
G1 Z0. F5.
G1 X0.741 Y2.1774
G1 Z0.15
G0 Z0.2
G0 X0.7276 Y2.0231
G0 Z0.15
G1 Z0. F5.
G1 X0.7784 Y2.1643
G1 Z0.15
G0 Z0.2
G0 X0.7623 Y2.0103
G0 Z0.15
G1 Z0. F5.
G1 X0.8155 Y2.1506
G1 Z0.15
G0 Z0.2
G0 X0.7968 Y1.9969
G0 Z0.15
G1 Z0. F5.
G1 X0.8894 Y2.2291
G1 Z0.15
G0 Z0.2
G0 X0.831 Y1.9829
G0 Z0.15
G1 Z0. F5.
G1 X0.889 Y2.1213
G1 Z0.15
G0 Z0.2
G0 X0.865 Y1.9683
G0 Z0.15
G1 Z0. F5.
G1 X0.9253 Y2.1057
G1 Z0.15
G0 Z0.2
G0 X0.8987 Y1.9532
G0 Z0.15
G1 Z0. F5.
G1 X0.9614 Y2.0894
G1 Z0.15
G0 Z0.2
G0 X0.9322 Y1.9374
G0 Z0.15
G1 Z0. F5.
G1 X0.9972 Y2.0726
G1 Z0.15
G0 Z0.2
G0 X0.9654 Y1.9211
G0 Z0.15
G1 Z0. F5.
G1 X1.0327 Y2.0551
G1 Z0.15
G0 Z0.2
G0 X0.9983 Y1.9042
G0 Z0.15
G1 Z0. F5.
G1 X1.0679 Y2.037
G1 Z0.15
G0 Z0.2
G0 X1.0309 Y1.8867
G0 Z0.15
G1 Z0. F5.
G1 X1.1028 Y2.0184
G1 Z0.15
G0 Z0.2
G0 X1.0632 Y1.8687
G0 Z0.15
G1 Z0. F5.
G1 X1.1374 Y1.9991
G1 Z0.15
G0 Z0.2
G0 X1.0952 Y1.8502
G0 Z0.15
G1 Z0. F5.
G1 X1.1716 Y1.9792
G1 Z0.15
G0 Z0.2
G0 X1.1268 Y1.8311
G0 Z0.15
G1 Z0. F5.
G1 X1.5723 Y2.555
G1 Z0.15
G0 Z0.2
G0 X1.959 Y2.0785
G0 Z0.15
G1 Z0. F5.
G1 X1.813 Y2.0138
G1 X1.8621 Y2.1658
G1 Z0.15
G0 Z0.2
G0 X1.4025 Y1.6296
G0 Z0.15
G1 Z0. F5.
G1 X1.5004 Y1.7432
G1 Z0.15
G0 Z0.2
G0 X1.3743 Y1.6534
G0 Z0.15
G1 Z0. F5.
G1 X1.5341 Y1.8457
G1 Z0.15
G0 Z0.2
G0 X1.3456 Y1.6768
G0 Z0.15
G1 Z0. F5.
G1 X1.4395 Y1.7938
G1 Z0.15
G0 Z0.2
G0 X1.3166 Y1.6997
G0 Z0.15
G1 Z0. F5.
G1 X1.4084 Y1.8183
G1 Z0.15
G0 Z0.2
G0 X1.2871 Y1.7221
G0 Z0.15
G1 Z0. F5.
G1 X1.377 Y1.8423
G1 Z0.15
G0 Z0.2
G0 X1.2573 Y1.744
G0 Z0.15
G1 Z0. F5.
G1 X1.3451 Y1.8657
G1 Z0.15
G0 Z0.2
G0 X1.2271 Y1.7654
G0 Z0.15
G1 Z0. F5.
G1 X1.3128 Y1.8886
G1 Z0.15
G0 Z0.2
G0 X1.1966 Y1.7862
G0 Z0.15
G1 Z0. F5.
G1 X1.2801 Y1.9109
G1 Z0.15
G0 Z0.2
G0 X1.1657 Y1.8066
G0 Z0.15
G1 Z0. F5.
G1 X1.247 Y1.9326
G1 Z0.15
G0 Z0.2
G0 X1.4303 Y1.6052
G0 Z0.15
G1 Z0. F5.
G1 X1.5301 Y1.7172
G1 Z0.15
G0 Z0.2
G0 X1.4577 Y1.5803
G0 Z0.15
G1 Z0. F5.
G1 X1.5594 Y1.6906
G1 Z0.15
G0 Z0.2
G0 X1.4847 Y1.555
G0 Z0.15
G1 Z0. F5.
G1 X1.5883 Y1.6635
G1 Z0.15
G0 Z0.2
G0 X1.5112 Y1.5293
G0 Z0.15
G1 Z0. F5.
G1 X1.6167 Y1.636
G1 Z0.15
G0 Z0.2
G0 X1.5373 Y1.503
G0 Z0.15
G1 Z0. F5.
G1 X1.6446 Y1.6079
G1 Z0.15
G0 Z0.2
G0 X1.5629 Y1.4764
G0 Z0.15
G1 Z0. F5.
G1 X1.672 Y1.5794
G1 Z0.15
G0 Z0.2
G0 X1.5881 Y1.4493
G0 Z0.15
G1 Z0. F5.
G1 X1.6989 Y1.5504
G1 Z0.15
G0 Z0.2
G0 X1.6128 Y1.4217
G0 Z0.15
G1 Z0. F5.
G1 X1.7253 Y1.5209
G1 Z0.15
G0 Z0.2
G0 X1.637 Y1.3938
G0 Z0.15
G1 Z0. F5.
G1 X1.8274 Y1.5559
G1 Z0.15
G0 Z0.2
G0 X1.6608 Y1.3654
G0 Z0.15
G1 Z0. F5.
G1 X1.7766 Y1.4607
G1 Z0.15
G0 Z0.2
G0 X1.684 Y1.3366
G0 Z0.15
G1 Z0. F5.
G1 X1.8015 Y1.4299
G1 Z0.15
G0 Z0.2
G0 X1.7067 Y1.3075
G0 Z0.15
G1 Z0. F5.
G1 X1.8258 Y1.3987
G1 Z0.15
G0 Z0.2
G0 X1.729 Y1.2779
G0 Z0.15
G1 Z0. F5.
G1 X1.8496 Y1.3671
G1 Z0.15
G0 Z0.2
G0 X1.7507 Y1.248
G0 Z0.15
G1 Z0. F5.
G1 X1.8729 Y1.3351
G1 Z0.15
G0 Z0.2
G0 X1.7719 Y1.2177
G0 Z0.15
G1 Z0. F5.
G1 X1.8955 Y1.3027
G1 Z0.15
G0 Z0.2
G0 X1.7926 Y1.187
G0 Z0.15
G1 Z0. F5.
G1 X1.9177 Y1.2699
G1 Z0.15
G0 Z0.2
G0 X1.8128 Y1.156
G0 Z0.15
G1 Z0. F5.
G1 X1.9392 Y1.2367
G1 Z0.15
G0 Z0.2
G0 X1.8324 Y1.1247
G0 Z0.15
G1 Z0. F5.
G1 X1.9602 Y1.2031
G1 Z0.15
G0 Z0.2
G0 X1.8515 Y1.093
G0 Z0.15
G1 Z0. F5.
G1 X2.5834 Y1.5251
G1 Z0.15
G0 Z0.2
G0 X1.87 Y1.061
G0 Z0.15
G1 Z0. F5.
G1 X2.0874 Y1.1843
G1 Z0.15
G0 Z0.2
G0 X1.888 Y1.0287
G0 Z0.15
G1 Z0. F5.
G1 X2.0197 Y1.1004
G1 Z0.15
G0 Z0.2
G0 X1.9054 Y0.996
G0 Z0.15
G1 Z0. F5.
G1 X2.0383 Y1.0655
G1 Z0.15
G0 Z0.2
G0 X1.9222 Y0.9631
G0 Z0.15
G1 Z0. F5.
G1 X2.0563 Y1.0303
G1 Z0.15
G0 Z0.2
G0 X1.9385 Y0.9299
G0 Z0.15
G1 Z0. F5.
G1 X2.0737 Y0.9948
G1 Z0.15
G0 Z0.2
G0 X1.9542 Y0.8964
G0 Z0.15
G1 Z0. F5.
G1 X2.0906 Y0.9589
G1 Z0.15
G0 Z0.2
G0 X1.9693 Y0.8627
G0 Z0.15
G1 Z0. F5.
G1 X2.1067 Y0.9228
G1 Z0.15
G0 Z0.2
G0 X1.9839 Y0.8287
G0 Z0.15
G1 Z0. F5.
G1 X2.1223 Y0.8865
G1 Z0.15
G0 Z0.2
G0 X1.9979 Y0.7944
G0 Z0.15
G1 Z0. F5.
G1 X2.1372 Y0.8498
G1 Z0.15
G0 Z0.2
G0 X2.0112 Y0.7599
G0 Z0.15
G1 Z0. F5.
G1 X2.1515 Y0.8129
G1 Z0.15
G0 Z0.2
G0 X2.024 Y0.7252
G0 Z0.15
G1 Z0. F5.
G1 X2.2593 Y0.8095
G1 Z0.15
G0 Z0.2
G0 X2.0362 Y0.6903
G0 Z0.15
G1 Z0. F5.
G1 X2.1782 Y0.7384
G1 Z0.15
G0 Z0.2
G0 X2.0477 Y0.6552
G0 Z0.15
G1 Z0. F5.
G1 X2.1906 Y0.7009
G1 Z0.15
G0 Z0.2
G0 X2.0587 Y0.6198
G0 Z0.15
G1 Z0. F5.
G1 X2.2023 Y0.6631
G1 Z0.15
G0 Z0.2
G0 X2.0691 Y0.5843
G0 Z0.15
G1 Z0. F5.
G1 X2.2134 Y0.6251
G1 Z0.15
G0 Z0.2
G0 X2.0788 Y0.5487
G0 Z0.15
G1 Z0. F5.
G1 X2.2239 Y0.5869
G1 Z0.15
G0 Z0.2
G0 X2.0879 Y0.5128
G0 Z0.15
G1 Z0. F5.
G1 X2.2336 Y0.5486
G1 Z0.15
G0 Z0.2
G0 X2.0965 Y0.4768
G0 Z0.15
G1 Z0. F5.
G1 X2.2427 Y0.5101
G1 Z0.15
G0 Z0.2
G0 X2.1044 Y0.4407
G0 Z0.15
G1 Z0. F5.
G1 X2.2512 Y0.4714
G1 Z0.15
G0 Z0.2
G0 X2.1116 Y0.4044
G0 Z0.15
G1 Z0. F5.
G1 X2.2589 Y0.4326
G1 Z0.15
G0 Z0.2
G0 X2.1183 Y0.368
G0 Z0.15
G1 Z0. F5.
G1 X2.3646 Y0.4108
G1 Z0.15
G0 Z0.2
G0 X2.1243 Y0.3315
G0 Z0.15
G1 Z0. F5.
G1 X2.2725 Y0.3547
G1 Z0.15
G0 Z0.2
G0 X2.1297 Y0.295
G0 Z0.15
G1 Z0. F5.
G1 X2.2783 Y0.3155
G1 Z0.15
G0 Z0.2
G0 X2.1344 Y0.2583
G0 Z0.15
G1 Z0. F5.
G1 X2.2833 Y0.2763
G1 Z0.15
G0 Z0.2
G0 X2.1386 Y0.2215
G0 Z0.15
G1 Z0. F5.
G1 X2.2878 Y0.237
G1 Z0.15
G0 Z0.2
G0 X2.1421 Y0.1847
G0 Z0.15
G1 Z0. F5.
G1 X2.2915 Y0.1976
G1 Z0.15
G0 Z0.2
G0 X2.1449 Y0.1478
G0 Z0.15
G1 Z0. F5.
G1 X2.2946 Y0.1581
G1 Z0.15
G0 Z0.2
G0 X2.1471 Y0.1109
G0 Z0.15
G1 Z0. F5.
G1 X2.2969 Y0.1186
G1 Z0.15
G0 Z0.2
G0 X2.1487 Y0.074
G0 Z0.15
G1 Z0. F5.
G1 X2.2986 Y0.0791
G1 Z0.15
G0 Z0.2
G0 X2.1497 Y0.037
G0 Z0.15
G1 Z0. F5.
G1 X2.2997 Y0.0396
G1 Z0.15
G0 Z0.2
G0 X2.15 Y0.
G0 Z0.15
G1 Z0. F5.
G1 X3.
G1 Z0.15
G0 Z0.2
G0 X2.7777 Y0.3718
G0 Z0.15
G1 Z0. F5.
G1 X2.7657 Y0.4532
G1 Z0.15
G0 Z0.2
G0 X2.1497 Y-0.037
G0 Z0.15
G1 Z0. F5.
G1 X2.3996 Y-0.0413
G1 Z0.15
G0 Z0.2
G0 X2.1487 Y-0.074
G0 Z0.15
G1 Z0. F5.
G1 X2.2986 Y-0.0791
G1 Z0.15
G0 Z0.2
G0 X2.1471 Y-0.1109
G0 Z0.15
G1 Z0. F5.
G1 X2.2969 Y-0.1186
G1 Z0.15
G0 Z0.2
G0 X2.1449 Y-0.1478
G0 Z0.15
G1 Z0. F5.
G1 X2.2946 Y-0.1581
G1 Z0.15
G0 Z0.2
G0 X2.1421 Y-0.1847
G0 Z0.15
G1 Z0. F5.
G1 X2.2915 Y-0.1976
G1 Z0.15
G0 Z0.2
G0 X2.1386 Y-0.2215
G0 Z0.15
G1 Z0. F5.
G1 X2.2878 Y-0.237
G1 Z0.15
G0 Z0.2
G0 X2.1344 Y-0.2583
G0 Z0.15
G1 Z0. F5.
G1 X2.2833 Y-0.2763
G1 Z0.15
G0 Z0.2
G0 X2.1297 Y-0.295
G0 Z0.15
G1 Z0. F5.
G1 X2.2783 Y-0.3155
G1 Z0.15
G0 Z0.2
G0 X2.1243 Y-0.3315
G0 Z0.15
G1 Z0. F5.
G1 X2.2725 Y-0.3547
G1 Z0.15
G0 Z0.2
G0 X2.1183 Y-0.368
G0 Z0.15
G1 Z0. F5.
G1 X2.2661 Y-0.3937
G1 Z0.15
G0 Z0.2
G0 X2.1116 Y-0.4044
G0 Z0.15
G1 Z0. F5.
G1 X2.3572 Y-0.4514
G1 Z0.15
G0 Z0.2
G0 X2.1044 Y-0.4407
G0 Z0.15
G1 Z0. F5.
G1 X2.2512 Y-0.4714
G1 Z0.15
G0 Z0.2
G0 X2.0965 Y-0.4768
G0 Z0.15
G1 Z0. F5.
G1 X2.2427 Y-0.5101
G1 Z0.15
G0 Z0.2
G0 X2.0879 Y-0.5128
G0 Z0.15
G1 Z0. F5.
G1 X2.2336 Y-0.5486
G1 Z0.15
G0 Z0.2
G0 X2.0788 Y-0.5487
G0 Z0.15
G1 Z0. F5.
G1 X2.2239 Y-0.5869
G1 Z0.15
G0 Z0.2
G0 X2.0691 Y-0.5843
G0 Z0.15
G1 Z0. F5.
G1 X2.2134 Y-0.6251
G1 Z0.15
G0 Z0.2
G0 X2.0587 Y-0.6198
G0 Z0.15
G1 Z0. F5.
G1 X2.2023 Y-0.6631
G1 Z0.15
G0 Z0.2
G0 X2.0477 Y-0.6552
G0 Z0.15
G1 Z0. F5.
G1 X2.1906 Y-0.7009
G1 Z0.15
G0 Z0.2
G0 X2.0362 Y-0.6903
G0 Z0.15
G1 Z0. F5.
G1 X2.1782 Y-0.7384
G1 Z0.15
G0 Z0.2
G0 X2.024 Y-0.7252
G0 Z0.15
G1 Z0. F5.
G1 X2.1652 Y-0.7758
G1 Z0.15
G0 Z0.2
G0 X2.0112 Y-0.7599
G0 Z0.15
G1 Z0. F5.
G1 X2.2451 Y-0.8483
G1 Z0.15
G0 Z0.2
G0 X1.9979 Y-0.7944
G0 Z0.15
G1 Z0. F5.
G1 X2.1372 Y-0.8498
G1 Z0.15
G0 Z0.2
G0 X1.9839 Y-0.8287
G0 Z0.15
G1 Z0. F5.
G1 X2.1223 Y-0.8865
G1 Z0.15
G0 Z0.2
G0 X1.9693 Y-0.8627
G0 Z0.15
G1 Z0. F5.
G1 X2.1067 Y-0.9228
G1 Z0.15
G0 Z0.2
G0 X1.9542 Y-0.8964
G0 Z0.15
G1 Z0. F5.
G1 X2.0906 Y-0.9589
G1 Z0.15
G0 Z0.2
G0 X1.9385 Y-0.9299
G0 Z0.15
G1 Z0. F5.
G1 X2.0737 Y-0.9948
G1 Z0.15
G0 Z0.2
G0 X1.9222 Y-0.9631
G0 Z0.15
G1 Z0. F5.
G1 X2.0563 Y-1.0303
G1 Z0.15
G0 Z0.2
G0 X1.9054 Y-0.996
G0 Z0.15
G1 Z0. F5.
G1 X2.0383 Y-1.0655
G1 Z0.15
G0 Z0.2
G0 X1.888 Y-1.0287
G0 Z0.15
G1 Z0. F5.
G1 X2.0197 Y-1.1004
G1 Z0.15
G0 Z0.2
G0 X1.87 Y-1.061
G0 Z0.15
G1 Z0. F5.
G1 X2.0004 Y-1.135
G1 Z0.15
G0 Z0.2
G0 X1.8515 Y-1.093
G0 Z0.15
G1 Z0. F5.
G1 X2.5834 Y-1.5251
G1 Z0.15
G0 Z0.2
G0 X1.8324 Y-1.1247
G0 Z0.15
G1 Z0. F5.
G1 X1.9602 Y-1.2031
G1 Z0.15
G0 Z0.2
G0 X1.8128 Y-1.156
G0 Z0.15
G1 Z0. F5.
G1 X1.9392 Y-1.2367
G1 Z0.15
G0 Z0.2
G0 X1.7926 Y-1.187
G0 Z0.15
G1 Z0. F5.
G1 X1.9177 Y-1.2699
G1 Z0.15
G0 Z0.2
G0 X1.7719 Y-1.2177
G0 Z0.15
G1 Z0. F5.
G1 X1.8955 Y-1.3027
G1 Z0.15
G0 Z0.2
G0 X1.7507 Y-1.248
G0 Z0.15
G1 Z0. F5.
G1 X1.8729 Y-1.3351
G1 Z0.15
G0 Z0.2
G0 X1.729 Y-1.2779
G0 Z0.15
G1 Z0. F5.
G1 X1.8496 Y-1.3671
G1 Z0.15
G0 Z0.2
G0 X1.7067 Y-1.3075
G0 Z0.15
G1 Z0. F5.
G1 X1.8258 Y-1.3987
G1 Z0.15
G0 Z0.2
G0 X1.684 Y-1.3366
G0 Z0.15
G1 Z0. F5.
G1 X1.8015 Y-1.4299
G1 Z0.15
G0 Z0.2
G0 X1.6608 Y-1.3654
G0 Z0.15
G1 Z0. F5.
G1 X1.7766 Y-1.4607
G1 Z0.15
G0 Z0.2
G0 X1.637 Y-1.3938
G0 Z0.15
G1 Z0. F5.
G1 X1.8274 Y-1.5559
G1 Z0.15
G0 Z0.2
G0 X1.6128 Y-1.4217
G0 Z0.15
G1 Z0. F5.
G1 X1.7253 Y-1.5209
G1 Z0.15
G0 Z0.2
G0 X1.5881 Y-1.4493
G0 Z0.15
G1 Z0. F5.
G1 X1.6989 Y-1.5504
G1 Z0.15
G0 Z0.2
G0 X1.5629 Y-1.4764
G0 Z0.15
G1 Z0. F5.
G1 X1.672 Y-1.5794
G1 Z0.15
G0 Z0.2
G0 X1.5373 Y-1.503
G0 Z0.15
G1 Z0. F5.
G1 X1.6446 Y-1.6079
G1 Z0.15
G0 Z0.2
G0 X1.5112 Y-1.5293
G0 Z0.15
G1 Z0. F5.
G1 X1.6167 Y-1.636
G1 Z0.15
G0 Z0.2
G0 X1.4847 Y-1.555
G0 Z0.15
G1 Z0. F5.
G1 X1.5883 Y-1.6635
G1 Z0.15
G0 Z0.2
G0 X1.4577 Y-1.5803
G0 Z0.15
G1 Z0. F5.
G1 X1.5594 Y-1.6906
G1 Z0.15
G0 Z0.2
G0 X1.4303 Y-1.6052
G0 Z0.15
G1 Z0. F5.
G1 X1.5301 Y-1.7172
G1 Z0.15
G0 Z0.2
G0 X1.4025 Y-1.6296
G0 Z0.15
G1 Z0. F5.
G1 X1.5004 Y-1.7432
G1 Z0.15
G0 Z0.2
G0 X1.3743 Y-1.6534
G0 Z0.15
G1 Z0. F5.
G1 X1.5341 Y-1.8457
G1 Z0.15
G0 Z0.2
G0 X1.3456 Y-1.6768
G0 Z0.15
G1 Z0. F5.
G1 X1.4395 Y-1.7938
G1 Z0.15
G0 Z0.2
G0 X1.3166 Y-1.6997
G0 Z0.15
G1 Z0. F5.
G1 X1.4084 Y-1.8183
G1 Z0.15
G0 Z0.2
G0 X1.2871 Y-1.7221
G0 Z0.15
G1 Z0. F5.
G1 X1.377 Y-1.8423
G1 Z0.15
G0 Z0.2
G0 X1.2573 Y-1.744
G0 Z0.15
G1 Z0. F5.
G1 X1.3451 Y-1.8657
G1 Z0.15
G0 Z0.2
G0 X1.2271 Y-1.7654
G0 Z0.15
G1 Z0. F5.
G1 X1.3128 Y-1.8886
G1 Z0.15
G0 Z0.2
G0 X1.1966 Y-1.7862
G0 Z0.15
G1 Z0. F5.
G1 X1.2801 Y-1.9109
G1 Z0.15
G0 Z0.2
G0 X1.1657 Y-1.8066
G0 Z0.15
G1 Z0. F5.
G1 X1.247 Y-1.9326
G1 Z0.15
G0 Z0.2
G0 X1.1344 Y-1.8263
G0 Z0.15
G1 Z0. F5.
G1 X1.2136 Y-1.9538
G1 Z0.15
G0 Z0.2
G0 X1.1029 Y-1.8456
G0 Z0.15
G1 Z0. F5.
G1 X1.1798 Y-1.9744
G1 Z0.15
G0 Z0.2
G0 X1.071 Y-1.8643
G0 Z0.15
G1 Z0. F5.
G1 X1.4944 Y-2.6013
G1 Z0.15
G0 Z0.2
G0 X1.5305 Y-2.4113
G0 Z0.15
G1 Z0. F5.
G1 X1.45 Y-2.2897
G1 X1.6219 Y-2.3508
G1 X1.5414 Y-2.2292
G1 Z0.15
G0 Z0.2
G0 X1.0387 Y-1.8824
G0 Z0.15
G1 Z0. F5.
G1 X1.1595 Y-2.1013
G1 Z0.15
G0 Z0.2
G0 X1.0062 Y-1.9
G0 Z0.15
G1 Z0. F5.
G1 X1.0764 Y-2.0326
G1 Z0.15
G0 Z0.2
G0 X0.9734 Y-1.9171
G0 Z0.15
G1 Z0. F5.
G1 X1.0413 Y-2.0508
G1 Z0.15
G0 Z0.2
G0 X0.9402 Y-1.9335
G0 Z0.15
G1 Z0. F5.
G1 X1.0058 Y-2.0684
G1 Z0.15
G0 Z0.2
G0 X0.9068 Y-1.9494
G0 Z0.15
G1 Z0. F5.
G1 X0.9701 Y-2.0854
G1 Z0.15
G0 Z0.2
G0 X0.8732 Y-1.9647
G0 Z0.15
G1 Z0. F5.
G1 X0.9341 Y-2.1018
G1 Z0.15
G0 Z0.2
G0 X0.8392 Y-1.9794
G0 Z0.15
G1 Z0. F5.
G1 X0.8978 Y-2.1175
G1 Z0.15
G0 Z0.2
G0 X0.8051 Y-1.9936
G0 Z0.15
G1 Z0. F5.
G1 X0.8612 Y-2.1327
G1 Z0.15
G0 Z0.2
G0 X0.7707 Y-2.0071
G0 Z0.15
G1 Z0. F5.
G1 X0.8244 Y-2.1472
G1 Z0.15
G0 Z0.2
G0 X0.736 Y-2.0201
G0 Z0.15
G1 Z0. F5.
G1 X0.7874 Y-2.161
G1 Z0.15
G0 Z0.2
G0 X0.7012 Y-2.0325
G0 Z0.15
G1 Z0. F5.
G1 X0.7827 Y-2.2688
G1 Z0.15
G0 Z0.2
G0 X0.6661 Y-2.0442
G0 Z0.15
G1 Z0. F5.
G1 X0.7126 Y-2.1868
G1 Z0.15
G0 Z0.2
G0 X0.6308 Y-2.0554
G0 Z0.15
G1 Z0. F5.
G1 X0.6748 Y-2.1988
G1 Z0.15
G0 Z0.2
G0 X0.5954 Y-2.0659
G0 Z0.15
G1 Z0. F5.
G1 X0.6369 Y-2.2101
G1 Z0.15
G0 Z0.2
G0 X0.5598 Y-2.0759
G0 Z0.15
G1 Z0. F5.
G1 X0.5988 Y-2.2207
G1 Z0.15
G0 Z0.2
G0 X0.524 Y-2.0852
G0 Z0.15
G1 Z0. F5.
G1 X0.5605 Y-2.2307
G1 Z0.15
G0 Z0.2
G0 X0.488 Y-2.0939
G0 Z0.15
G1 Z0. F5.
G1 X0.5221 Y-2.24
G1 Z0.15
G0 Z0.2
G0 X0.4519 Y-2.102
G0 Z0.15
G1 Z0. F5.
G1 X0.4835 Y-2.2486
G1 Z0.15
G0 Z0.2
G0 X0.4157 Y-2.1094
G0 Z0.15
G1 Z0. F5.
G1 X0.4447 Y-2.2566
G1 Z0.15
G0 Z0.2
G0 X0.3793 Y-2.1163
G0 Z0.15
G1 Z0. F5.
G1 X0.4058 Y-2.2639
G1 Z0.15
G0 Z0.2
G0 X0.3429 Y-2.1225
G0 Z0.15
G1 Z0. F5.
G1 X0.3828 Y-2.3693
G1 Z0.15
G0 Z0.2
G0 X0.3063 Y-2.1281
G0 Z0.15
G1 Z0. F5.
G1 X0.3277 Y-2.2765
G1 Z0.15
G0 Z0.2
G0 X0.2697 Y-2.133
G0 Z0.15
G1 Z0. F5.
G1 X0.2885 Y-2.2818
G1 Z0.15
G0 Z0.2
G0 X0.2329 Y-2.1373
G0 Z0.15
G1 Z0. F5.
G1 X0.2492 Y-2.2865
G1 Z0.15
G0 Z0.2
G0 X0.1961 Y-2.141
G0 Z0.15
G1 Z0. F5.
G1 X0.2098 Y-2.2904
G1 Z0.15
G0 Z0.2
G0 X0.1593 Y-2.1441
G0 Z0.15
G1 Z0. F5.
G1 X0.1704 Y-2.2937
G1 Z0.15
G0 Z0.2
G0 X0.1224 Y-2.1465
G0 Z0.15
G1 Z0. F5.
G1 X0.1309 Y-2.2963
G1 Z0.15
G0 Z0.2
G0 X0.0854 Y-2.1483
G0 Z0.15
G1 Z0. F5.
G1 X0.0914 Y-2.2982
G1 Z0.15
G0 Z0.2
G0 X0.0485 Y-2.1495
G0 Z0.15
G1 Z0. F5.
G1 X0.0518 Y-2.2994
G1 Z0.15
G0 Z0.2
G0 X0.0115 Y-2.15
G0 Z0.15
G1 Z0. F5.
G1 X0.0123 Y-2.3
G1 Z0.15
G0 Z0.2
G0 X-0.0255 Y-2.1499
G0 Z0.15
G1 Z0. F5.
G1 X-0.0356 Y-2.9998
G1 Z0.15
G0 Z0.2
G0 X0.3876 Y-2.7606
G0 Z0.15
G1 Z0. F5.
G1 X0.3861 Y-2.748
G1 X0.3859 Y-2.7364
G1 X0.387 Y-2.7259
G1 X0.3895 Y-2.7166
G1 Z0.15
G0 Z0.2
G0 X0.4206 Y-2.8093
G0 Z0.15
G1 Z0. F5.
G1 X0.414 Y-2.8051
G1 X0.4082 Y-2.8004
G1 X0.4031 Y-2.7951
G1 X0.3986 Y-2.7893
G1 X0.3948 Y-2.783
G1 X0.3918 Y-2.7761
G1 X0.3894 Y-2.7686
G1 X0.3876 Y-2.7606
G1 Z0.15
G0 Z0.2
G0 X0.4794 Y-2.8181
G0 Z0.15
G1 Z0. F5.
G1 X0.4632 Y-2.8197
G1 X0.448 Y-2.8187
G1 X0.4338 Y-2.8152
G1 X0.4206 Y-2.8093
G1 Z0.15
G0 Z0.2
G0 X0.5071 Y-2.8067
G0 Z0.15
G1 Z0. F5.
G1 X0.501 Y-2.8107
G1 X0.4943 Y-2.814
G1 X0.4871 Y-2.8164
G1 X0.4794 Y-2.8181
G1 Z0.15
G0 Z0.2
G0 X0.5286 Y-2.7859
G0 Z0.15
G1 Z0. F5.
G1 X0.5216 Y-2.7933
G1 X0.5157 Y-2.7992
G1 X0.5109 Y-2.8037
G1 X0.5071 Y-2.8067
G1 Z0.15
G0 Z0.2
G0 X0.6045 Y-2.7907
G0 Z0.15
G1 Z0. F5.
G1 X0.5736 Y-2.6482
G1 Z0.15
G0 Z0.2
G0 X-0.0625 Y-2.1491
G0 Z0.15
G1 Z0. F5.
G1 X-0.0668 Y-2.299
G1 Z0.15
G0 Z0.2
G0 X-0.0994 Y-2.1477
G0 Z0.15
G1 Z0. F5.
G1 X-0.1064 Y-2.2975
G1 Z0.15
G0 Z0.2
G0 X-0.1364 Y-2.1457
G0 Z0.15
G1 Z0. F5.
G1 X-0.1459 Y-2.2954
G1 Z0.15
G0 Z0.2
G0 X-0.1733 Y-2.143
G0 Z0.15
G1 Z0. F5.
G1 X-0.1853 Y-2.2925
G1 Z0.15
G0 Z0.2
G0 X-0.2101 Y-2.1397
G0 Z0.15
G1 Z0. F5.
G1 X-0.2248 Y-2.289
G1 Z0.15
G0 Z0.2
G0 X-0.2469 Y-2.1358
G0 Z0.15
G1 Z0. F5.
G1 X-0.2641 Y-2.2848
G1 Z0.15
G0 Z0.2
G0 X-0.2836 Y-2.1312
G0 Z0.15
G1 Z0. F5.
G1 X-0.3034 Y-2.2799
G1 Z0.15
G0 Z0.2
G0 X-0.3202 Y-2.126
G0 Z0.15
G1 Z0. F5.
G1 X-0.3425 Y-2.2744
G1 Z0.15
G0 Z0.2
G0 X-0.3567 Y-2.1202
G0 Z0.15
G1 Z0. F5.
G1 X-0.3816 Y-2.2681
G1 Z0.15
G0 Z0.2
G0 X-0.3931 Y-2.1138
G0 Z0.15
G1 Z0. F5.
G1 X-0.4389 Y-2.3595
G1 Z0.15
G0 Z0.2
G0 X-0.4294 Y-2.1067
G0 Z0.15
G1 Z0. F5.
G1 X-0.4594 Y-2.2537
G1 Z0.15
G0 Z0.2
G0 X-0.4656 Y-2.099
G0 Z0.15
G1 Z0. F5.
G1 X-0.4981 Y-2.2454
G1 Z0.15
G0 Z0.2
G0 X-0.5016 Y-2.0907
G0 Z0.15
G1 Z0. F5.
G1 X-0.5366 Y-2.2365
G1 Z0.15
G0 Z0.2
G0 X-0.5375 Y-2.0817
G0 Z0.15
G1 Z0. F5.
G1 X-0.575 Y-2.227
G1 Z0.15
G0 Z0.2
G0 X-0.5733 Y-2.0722
G0 Z0.15
G1 Z0. F5.
G1 X-0.6133 Y-2.2167
G1 Z0.15
G0 Z0.2
G0 X-0.6088 Y-2.062
G0 Z0.15
G1 Z0. F5.
G1 X-0.6513 Y-2.2059
G1 Z0.15
G0 Z0.2
G0 X-0.6442 Y-2.0512
G0 Z0.15
G1 Z0. F5.
G1 X-0.6892 Y-2.1943
G1 Z0.15
G0 Z0.2
G0 X-0.6794 Y-2.0398
G0 Z0.15
G1 Z0. F5.
G1 X-0.7268 Y-2.1821
G1 Z0.15
G0 Z0.2
G0 X-0.7144 Y-2.0278
G0 Z0.15
G1 Z0. F5.
G1 X-0.7642 Y-2.1693
G1 Z0.15
G0 Z0.2
G0 X-0.7492 Y-2.0153
G0 Z0.15
G1 Z0. F5.
G1 X-0.8363 Y-2.2496
G1 Z0.15
G0 Z0.2
G0 X-0.7837 Y-2.0021
G0 Z0.15
G1 Z0. F5.
G1 X-0.8384 Y-2.1417
G1 Z0.15
G0 Z0.2
G0 X-0.818 Y-1.9883
G0 Z0.15
G1 Z0. F5.
G1 X-0.8751 Y-2.127
G1 Z0.15
G0 Z0.2
G0 X-0.8521 Y-1.9739
G0 Z0.15
G1 Z0. F5.
G1 X-0.9116 Y-2.1116
G1 Z0.15
G0 Z0.2
G0 X-0.886 Y-1.959
G0 Z0.15
G1 Z0. F5.
G1 X-0.9478 Y-2.0956
G1 Z0.15
G0 Z0.2
G0 X-0.9195 Y-1.9434
G0 Z0.15
G1 Z0. F5.
G1 X-0.9837 Y-2.079
G1 Z0.15
G0 Z0.2
G0 X-0.9528 Y-1.9273
G0 Z0.15
G1 Z0. F5.
G1 X-1.0193 Y-2.0618
G1 Z0.15
G0 Z0.2
G0 X-0.9858 Y-1.9107
G0 Z0.15
G1 Z0. F5.
G1 X-1.0546 Y-2.044
G1 Z0.15
G0 Z0.2
G0 X-1.0186 Y-1.8934
G0 Z0.15
G1 Z0. F5.
G1 X-1.0896 Y-2.0255
G1 Z0.15
G0 Z0.2
G0 X-1.051 Y-1.8756
G0 Z0.15
G1 Z0. F5.
G1 X-1.1243 Y-2.0065
G1 Z0.15
G0 Z0.2
G0 X-1.0831 Y-1.8573
G0 Z0.15
G1 Z0. F5.
G1 X-1.5113 Y-2.5915
G1 Z0.15
G0 Z0.2
G0 X-1.1149 Y-1.8384
G0 Z0.15
G1 Z0. F5.
G1 X-1.2445 Y-2.0521
G1 Z0.15
G0 Z0.2
G0 X-1.1463 Y-1.8189
G0 Z0.15
G1 Z0. F5.
G1 X-1.2263 Y-1.9458
G1 Z0.15
G0 Z0.2
G0 X-1.1774 Y-1.7989
G0 Z0.15
G1 Z0. F5.
G1 X-1.2596 Y-1.9244
G1 Z0.15
G0 Z0.2
G0 X-1.2082 Y-1.7784
G0 Z0.15
G1 Z0. F5.
G1 X-1.2925 Y-1.9025
G1 Z0.15
G0 Z0.2
G0 X-1.2386 Y-1.7574
G0 Z0.15
G1 Z0. F5.
G1 X-1.325 Y-1.88
G1 Z0.15
G0 Z0.2
G0 X-1.2687 Y-1.7358
G0 Z0.15
G1 Z0. F5.
G1 X-1.3572 Y-1.8569
G1 Z0.15
G0 Z0.2
G0 X-1.2984 Y-1.7137
G0 Z0.15
G1 Z0. F5.
G1 X-1.3889 Y-1.8333
G1 Z0.15
G0 Z0.2
G0 X-1.3276 Y-1.6911
G0 Z0.15
G1 Z0. F5.
G1 X-1.4203 Y-1.8091
G1 Z0.15
G0 Z0.2
G0 X-1.3565 Y-1.668
G0 Z0.15
G1 Z0. F5.
G1 X-1.4512 Y-1.7844
G1 Z0.15
G0 Z0.2
G0 X-1.385 Y-1.6444
G0 Z0.15
G1 Z0. F5.
G1 X-1.4817 Y-1.7592
G1 Z0.15
G0 Z0.2
G0 X-1.4131 Y-1.6204
G0 Z0.15
G1 Z0. F5.
G1 X-1.5774 Y-1.8088
G1 Z0.15
G0 Z0.2
G0 X-1.4408 Y-1.5958
G0 Z0.15
G1 Z0. F5.
G1 X-1.5413 Y-1.7072
G1 Z0.15
G0 Z0.2
G0 X-1.468 Y-1.5708
G0 Z0.15
G1 Z0. F5.
G1 X-1.5704 Y-1.6804
G1 Z0.15
G0 Z0.2
G0 X-1.4948 Y-1.5453
G0 Z0.15
G1 Z0. F5.
G1 X-1.5991 Y-1.6531
G1 Z0.15
G0 Z0.2
G0 X-1.5212 Y-1.5194
G0 Z0.15
G1 Z0. F5.
G1 X-1.6273 Y-1.6254
G1 Z0.15
G0 Z0.2
G0 X-1.5471 Y-1.493
G0 Z0.15
G1 Z0. F5.
G1 X-1.655 Y-1.5972
G1 Z0.15
G0 Z0.2
G0 X-1.5725 Y-1.4662
G0 Z0.15
G1 Z0. F5.
G1 X-1.6822 Y-1.5684
G1 Z0.15
G0 Z0.2
G0 X-1.5975 Y-1.4389
G0 Z0.15
G1 Z0. F5.
G1 X-1.709 Y-1.5393
G1 Z0.15
G0 Z0.2
G0 X-1.622 Y-1.4112
G0 Z0.15
G1 Z0. F5.
G1 X-1.7352 Y-1.5097
G1 Z0.15
G0 Z0.2
G0 X-1.6461 Y-1.3831
G0 Z0.15
G1 Z0. F5.
G1 X-1.7609 Y-1.4796
G1 Z0.15
G0 Z0.2
G0 X-1.6696 Y-1.3546
G0 Z0.15
G1 Z0. F5.
G1 X-1.8638 Y-1.5121
G1 Z0.15
G0 Z0.2
G0 X-1.6927 Y-1.3256
G0 Z0.15
G1 Z0. F5.
G1 X-1.8108 Y-1.4181
G1 Z0.15
G0 Z0.2
G0 X-1.7152 Y-1.2963
G0 Z0.15
G1 Z0. F5.
G1 X-1.8349 Y-1.3868
G1 Z0.15
G0 Z0.2
G0 X-1.7373 Y-1.2666
G0 Z0.15
G1 Z0. F5.
G1 X-1.8585 Y-1.355
G1 Z0.15
G0 Z0.2
G0 X-1.7588 Y-1.2366
G0 Z0.15
G1 Z0. F5.
G1 X-1.8815 Y-1.3228
G1 Z0.15
G0 Z0.2
G0 X-1.7798 Y-1.2061
G0 Z0.15
G1 Z0. F5.
G1 X-1.904 Y-1.2903
G1 Z0.15
G0 Z0.2
G0 X-1.8003 Y-1.1753
G0 Z0.15
G1 Z0. F5.
G1 X-1.9259 Y-1.2573
G1 Z0.15
G0 Z0.2
G0 X-1.8203 Y-1.1442
G0 Z0.15
G1 Z0. F5.
G1 X-1.9473 Y-1.224
G1 Z0.15
G0 Z0.2
G0 X-1.8397 Y-1.1127
G0 Z0.15
G1 Z0. F5.
G1 X-1.968 Y-1.1903
G1 Z0.15
G0 Z0.2
G0 X-1.8585 Y-1.0809
G0 Z0.15
G1 Z0. F5.
G1 X-1.9882 Y-1.1563
G1 Z0.15
G0 Z0.2
G0 X-1.8769 Y-1.0488
G0 Z0.15
G1 Z0. F5.
G1 X-2.6189 Y-1.4634
G1 Z0.15
G0 Z0.2
G0 X-2.3175 Y-1.6694
G0 Z0.15
G1 Z0. F5.
G1 X-2.1619 Y-1.6335
G1 X-2.2389 Y-1.7735
G1 Z0.15
G0 Z0.2
G0 X-1.8946 Y-1.0163
G0 Z0.15
G1 Z0. F5.
G1 X-2.1149 Y-1.1345
G1 Z0.15
G0 Z0.2
G0 X-1.9118 Y-0.9836
G0 Z0.15
G1 Z0. F5.
G1 X-2.0452 Y-1.0522
G1 Z0.15
G0 Z0.2
G0 X-2.5718 Y-0.8493
G0 Z0.15
G1 Z0. F5.
G1 X-2.6555 Y-0.8273
G1 X-2.7262 Y-0.8493
G1 Z0.15
G0 Z0.2
G0 X-2.5993 Y-0.7609
G0 Z0.15
G1 Z0. F5.
G1 X-2.6555 Y-0.8273
G1 Z0.15
G0 Z0.2
G0 X-2.6233 Y-0.6725
G0 Z0.15
G1 Z0. F5.
G1 X-2.7658 Y-0.7104
G1 X-2.7499 Y-0.7696
G1 Z0.15
G0 Z0.2
G0 X-2.6566 Y-0.5342
G0 Z0.15
G1 Z0. F5.
G1 X-2.7512 Y-0.5548
G1 X-2.7609 Y-0.5576
G1 X-2.7697 Y-0.5615
G1 X-2.7774 Y-0.5665
G1 X-2.7842 Y-0.5726
G1 X-2.7902 Y-0.5805
G1 X-2.7938 Y-0.589
G1 X-2.7951 Y-0.5981
G1 X-2.7941 Y-0.6079
G1 X-2.7908 Y-0.6184
G1 X-2.7859 Y-0.6271
G1 X-2.7794 Y-0.6341
G1 X-2.7712 Y-0.6394
G1 X-2.7627 Y-0.6425
G1 X-2.7534 Y-0.644
G1 X-2.7432 Y-0.6439
G1 X-2.7321 Y-0.6422
G1 X-2.6375 Y-0.6215
G1 Z0.15
G0 Z0.2
G0 X-2.666 Y-0.4836
G0 Z0.15
G1 Z0. F5.
G1 X-2.784 Y-0.5037
G1 X-2.7902 Y-0.5042
G1 X-2.7961 Y-0.5033
G1 X-2.8017 Y-0.501
G1 X-2.8069 Y-0.4974
G1 X-2.8112 Y-0.4931
G1 X-2.8147 Y-0.4882
G1 X-2.8171 Y-0.4828
G1 X-2.8187 Y-0.4768
G1 X-2.819 Y-0.4694
G1 X-2.8174 Y-0.4615
G1 X-2.8169 Y-0.46
G1 X-2.8158 Y-0.457
G1 X-2.8142 Y-0.4527
G1 X-2.812 Y-0.447
G1 Z0.15
G0 Z0.2
G0 X-2.1494 Y0.051
G0 Z0.15
G1 Z0. F5.
G1 X-2.9992 Y0.0712
G1 Z0.15
G0 Z0.2
G0 X-2.8011 Y0.5562
G0 Z0.15
G1 Z0. F5.
G1 X-2.7849 Y0.6318
G1 X-2.6415 Y0.601
G1 X-2.6578 Y0.5254
G1 Z0.15
G0 Z0.2
G0 X-2.7223 Y0.5393
G0 Z0.15
G1 Z0. F5.
G1 X-2.706 Y0.6149
G1 Z0.15
G0 Z0.2
G0 X-2.7434 Y0.7939
G0 Z0.15
G1 Z0. F5.
G1 X-2.6026 Y0.756
G1 X-2.7719 Y0.6881
G1 X-2.631 Y0.6502
G1 Z0.15
G0 Z0.2
G0 X-2.559 Y0.8913
G0 Z0.15
G1 Z0. F5.
G1 X-2.6509 Y0.9216
G1 X-2.6608 Y0.9242
G1 X-2.6703 Y0.9253
G1 X-2.6795 Y0.9249
G1 X-2.6884 Y0.9231
G1 X-2.6976 Y0.9193
G1 X-2.705 Y0.9138
G1 X-2.7108 Y0.9067
G1 X-2.7149 Y0.8978
G1 X-2.7174 Y0.887
G1 X-2.7176 Y0.877
G1 X-2.7156 Y0.8676
G1 X-2.7112 Y0.859
G1 X-2.7055 Y0.852
G1 X-2.6982 Y0.8459
G1 X-2.6893 Y0.8408
G1 X-2.6789 Y0.8367
G1 X-2.587 Y0.8064
G1 Z0.15
G0 Z0.2
G0 X-2.5414 Y0.9397
G0 Z0.15
G1 Z0. F5.
G1 X-2.6532 Y0.9823
G1 X-2.6588 Y0.9851
G1 X-2.6634 Y0.9889
G1 X-2.667 Y0.9936
G1 X-2.6697 Y0.9994
G1 X-2.6713 Y1.0053
G1 X-2.6717 Y1.0112
G1 X-2.6711 Y1.0172
G1 X-2.6694 Y1.0231
G1 X-2.6659 Y1.0296
G1 X-2.6605 Y1.0357
G1 X-2.6593 Y1.0367
G1 X-2.6569 Y1.0387
G1 X-2.6533 Y1.0416
G1 X-2.6485 Y1.0454
G1 Z0.15
G0 Z0.2
G0 X-2.1351 Y1.1966
G0 Z0.15
G1 Z0. F5.
G1 X-2.1434 Y1.1816
G1 X-2.2464 Y1.2385
G1 Z0.15
G0 Z0.2
G0 X-2.0372 Y1.2688
G0 Z0.15
G1 Z0. F5.
G1 X-1.825 Y1.1366
G1 Z0.15
G0 Z0.2
G0 X-1.8052 Y1.1678
G0 Z0.15
G1 Z0. F5.
G1 X-1.9311 Y1.2493
G1 Z0.15
G0 Z0.2
G0 X-2.0461 Y1.3431
G0 Z0.15
G1 Z0. F5.
G1 X-2.0555 Y1.3286
G1 X-2.1543 Y1.3926
G1 Z0.15
G0 Z0.2
G0 X-1.9963 Y1.4481
G0 Z0.15
G1 Z0. F5.
G1 X-1.9939 Y1.4421
G1 X-1.9921 Y1.4369
G1 X-1.991 Y1.4326
G1 X-1.9904 Y1.4291
G1 Y1.4243
G1 X-1.9914 Y1.4196
G1 X-1.9933 Y1.4149
G1 X-1.9961 Y1.4102
G1 X-1.9998 Y1.4058
G1 X-2.004 Y1.4023
G1 X-2.0088 Y1.3997
G1 X-2.0141 Y1.3979
G1 X-2.0198 Y1.3971
G1 X-2.0252 Y1.3975
G1 X-2.0304 Y1.3991
G1 X-2.0352 Y1.4018
G1 X-2.0394 Y1.4055
G1 X-2.0426 Y1.41
G1 X-2.0446 Y1.4151
G1 X-2.0455 Y1.4209
G1 Y1.4263
G1 X-2.0447 Y1.4317
G1 X-2.043 Y1.4372
G1 X-2.0405 Y1.4427
G1 X-2.0471 Y1.4364
G1 X-2.0536 Y1.4315
G1 X-2.0598 Y1.4279
G1 X-2.0658 Y1.4255
G1 X-2.0716 Y1.4245
G1 X-2.0772 Y1.4248
G1 X-2.0826 Y1.4264
G1 X-2.0877 Y1.4293
G1 X-2.0945 Y1.435
G1 X-2.0995 Y1.4413
G1 X-2.1028 Y1.4483
G1 X-2.1043 Y1.4558
G1 X-2.1041 Y1.4631
G1 X-2.1024 Y1.4706
G1 X-2.0992 Y1.4782
G1 X-2.0945 Y1.4859
G1 X-2.091 Y1.4899
G1 X-2.0869 Y1.493
G1 X-2.0822 Y1.4952
G1 X-2.0768 Y1.4966
G1 X-2.0726 Y1.497
G1 X-2.0677
G1 X-2.062 Y1.4966
G1 X-2.0556 Y1.4957
G1 Z0.15
G0 Z0.2
G0 X-2.0218 Y1.8021
G0 Z0.15
G1 Z0. F5.
G1 X-2.0446 Y1.8856
G1 X-2.0991 Y1.9358
G1 Z0.15
G0 Z0.2
G0 X-1.9591 Y1.8701
G0 Z0.15
G1 Z0. F5.
G1 X-2.0446 Y1.8856
G1 Z0.15
G0 Z0.2
G0 X-1.8914 Y1.9402
G0 Z0.15
G1 Z0. F5.
G1 X-2.0399 Y1.9992
G1 Z0.15
G0 Z0.2
G0 X-1.9267 Y2.0351
G0 Z0.15
G1 Z0. F5.
G1 X-1.9856 Y1.9778
G1 Z0.15
G0 Z0.2
G0 X-1.9465 Y2.0902
G0 Z0.15
G1 Z0. F5.
G1 X-1.8914 Y1.9402
G1 Z0.15
G0 Z0.2
G0 X-1.7909 Y2.2255
G0 Z0.15
G1 Z0. F5.
G1 X-1.7111 Y2.1019
G1 X-1.8471 Y2.1659
G1 X-1.8055 Y2.0215
G1 X-1.9148 Y2.1199
G1 Z0.15
G0 Z0.2
G0 X-1.2303 Y2.1159
G0 Z0.15
G1 Z0. F5.
G1 X-1.2451 Y2.1071
G1 X-1.3049 Y2.2085
G1 Z0.15
G0 Z0.2
G0 X-1.163 Y2.2517
G0 Z0.15
G1 Z0. F5.
G1 X-1.164 Y2.2556
G1 X-1.1646 Y2.2587
G1 X-1.1649 Y2.2671
G1 X-1.1634 Y2.276
G1 X-1.1608 Y2.2836
G1 X-1.1575 Y2.2894
G1 X-1.1523 Y2.2949
G1 X-1.1464 Y2.2988
G1 X-1.1375 Y2.3015
G1 X-1.127 Y2.3016
G1 X-1.1228 Y2.3007
G1 X-1.1183 Y2.2991
G1 X-1.1137 Y2.2967
G1 X-1.1089 Y2.2935
G1 X-1.1039 Y2.2894
G1 X-1.0998 Y2.2847
G1 X-1.0991 Y2.2837
G1 X-1.0976 Y2.2816
G1 X-1.0954 Y2.2784
G1 X-1.0925 Y2.2741
G1 X-1.085 Y2.2612
G1 X-1.0791 Y2.2473
G1 X-1.0772 Y2.2417
G1 X-1.0757 Y2.2375
G1 X-1.0748 Y2.2346
G1 X-1.0743 Y2.2331
G1 X-1.073 Y2.2258
G1 X-1.0729 Y2.2183
G1 X-1.0734 Y2.2121
G1 X-1.074 Y2.2081
G1 X-1.0755 Y2.2033
G1 X-1.0779 Y2.1987
G1 X-1.0833 Y2.1923
G1 X-1.0902 Y2.1875
G1 X-1.0995 Y2.1839
G1 X-1.1089 Y2.1832
G1 X-1.1127 Y2.1839
G1 X-1.1168 Y2.1853
G1 X-1.1212 Y2.1875
G1 X-1.1259 Y2.1904
G1 X-1.1288 Y2.1926
G1 X-1.132 Y2.1956
G1 X-1.1355 Y2.1993
G1 X-1.1393 Y2.2038
G1 X-1.1418 Y2.2071
G1 X-1.1444 Y2.2112
G1 X-1.1474 Y2.2162
G1 X-1.1507 Y2.222
G1 X-1.1561 Y2.2328
G1 X-1.1598 Y2.242
G1 X-1.1616 Y2.2472
G1 X-1.163 Y2.2517
G1 Z0.15
G0 Z0.2
G0 X-0.9829 Y2.2619
G0 Z0.15
G1 Z0. F5.
G1 X-0.9839 Y2.2555
G1 X-0.985 Y2.2501
G1 X-0.9862 Y2.2458
G1 X-0.9875 Y2.2425
G1 X-0.99 Y2.2384
G1 X-0.9932 Y2.2348
G1 X-0.9972 Y2.2317
G1 X-1.0021 Y2.2291
G1 X-1.0074 Y2.2272
G1 X-1.0128 Y2.2264
G1 X-1.0183 Y2.2265
G1 X-1.0238 Y2.2277
G1 X-1.0291 Y2.2299
G1 X-1.0336 Y2.233
G1 X-1.0372 Y2.237
G1 X-1.04 Y2.2418
G1 X-1.0417 Y2.2472
G1 X-1.0422 Y2.2525
G1 X-1.0413 Y2.258
G1 X-1.0392 Y2.2634
G1 X-1.0364 Y2.2681
G1 X-1.0329 Y2.2724
G1 X-1.0287 Y2.2762
G1 X-1.0237 Y2.2797
G1 X-1.0327 Y2.2777
G1 X-1.0407 Y2.2767
G1 X-1.0479
G1 X-1.0543 Y2.2778
G1 X-1.0598 Y2.2798
G1 X-1.0644 Y2.2829
G1 X-1.0683 Y2.287
G1 X-1.0712 Y2.2921
G1 X-1.0742 Y2.3005
G1 X-1.0753 Y2.3085
G1 X-1.0746 Y2.3161
G1 X-1.072 Y2.3234
G1 X-1.0681 Y2.3296
G1 X-1.0629 Y2.3352
G1 X-1.0563 Y2.3401
G1 X-1.0483 Y2.3443
G1 X-1.0433 Y2.346
G1 X-1.0382 Y2.3466
G1 X-1.0329 Y2.3461
G1 X-1.0276 Y2.3445
G1 X-1.0238 Y2.3427
G1 X-1.0195 Y2.3402
G1 X-1.0149 Y2.337
G1 X-1.0098 Y2.333
G1 Z0.15
G0 Z0.2
G0 X-0.8327 Y2.5769
G0 Z0.15
G1 Z0. F5.
G1 X-0.8793 Y2.7168
G1 X-0.9374 Y2.6973
G1 Z0.15
G0 Z0.2
G0 X-0.8261 Y2.7334
G0 Z0.15
G1 Z0. F5.
G1 X-0.7841 Y2.5946
G1 Z0.15
G0 Z0.2
G0 X-0.7758 Y2.7479
G0 Z0.15
G1 Z0. F5.
G1 X-0.7116 Y2.6886
G1 Z0.15
G0 Z0.2
G0 X-0.6975 Y2.7692
G0 Z0.15
G1 Z0. F5.
G1 X-0.6599 Y2.6283
G1 X-0.6961 Y2.6187
G1 X-0.7067 Y2.6165
G1 X-0.7163 Y2.6157
G1 X-0.7247 Y2.6165
G1 X-0.7321 Y2.6189
G1 X-0.7384 Y2.6227
G1 X-0.7435 Y2.628
G1 X-0.7476 Y2.6349
G1 X-0.7506 Y2.6432
G1 X-0.7518 Y2.6525
G1 X-0.7503 Y2.6609
G1 X-0.7461 Y2.6684
G1 X-0.7391 Y2.6752
G1 X-0.7324 Y2.6795
G1 X-0.724 Y2.6836
G1 X-0.714 Y2.6873
G1 X-0.7023 Y2.6908
G1 X-0.6966 Y2.6923
G1 X-0.6892 Y2.6941
G1 X-0.6824 Y2.6957
G1 X-0.6782 Y2.6968
G1 Z0.15
G0 Z0.2
G0 X-0.5645 Y2.7994
G0 Z0.15
G1 Z0. F5.
G1 X-0.5337 Y2.6568
G1 X-0.568 Y2.6494
G1 X-0.5793 Y2.6476
G1 X-0.5893 Y2.6474
G1 X-0.5981 Y2.6487
G1 X-0.6057 Y2.6515
G1 X-0.612 Y2.6558
G1 X-0.6172 Y2.6617
G1 X-0.6211 Y2.6692
G1 X-0.6238 Y2.6781
G1 X-0.6245 Y2.6855
G1 X-0.6232 Y2.6924
G1 X-0.6199 Y2.6986
G1 X-0.6147 Y2.7043
G1 X-0.6075 Y2.7094
G1 X-0.5983 Y2.7139
G1 X-0.5872 Y2.7178
G1 X-0.574 Y2.7212
G1 X-0.5679 Y2.7224
G1 X-0.5601 Y2.7239
G1 X-0.553 Y2.7252
G1 X-0.5487 Y2.7261
G1 Z0.15
G0 Z0.2
G0 X-0.4299 Y2.6753
G0 Z0.15
G1 Z0. F5.
G1 X-0.5174 Y2.809
G1 Z0.15
G0 Z0.2
G0 X-0.4041 Y2.7732
G0 Z0.15
G1 Z0. F5.
G1 X-0.4853 Y2.7603
G1 Z0.15
G0 Z0.2
G0 X-0.3886 Y2.8296
G0 Z0.15
G1 Z0. F5.
G1 X-0.4299 Y2.6753
G1 Z0.15
G0 Z0.2
G0 X-0.0259 Y2.4474
G0 Z0.15
G1 Z0. F5.
G1 X-0.0431 Y2.4471
G1 X-0.0451 Y2.5648
G1 Z0.15
G0 Z0.2
G0 X0.1282 Y2.4441
G0 Z0.15
G1 Z0. F5.
G1 X0.1345 Y2.5617
G1 Z0.15
G0 Z0.2
G0 X0.1454 Y2.4432
G0 Z0.15
G1 Z0. F5.
G1 X0.1282 Y2.4441
G1 Z0.15
G0 Z0.2
G0 X0.2613 Y2.4523
G0 Z0.15
G1 Z0. F5.
G1 X0.2573 Y2.4473
G1 X0.2536 Y2.4432
G1 X0.2505 Y2.44
G1 X0.2477 Y2.4378
G1 X0.2436 Y2.4354
G1 X0.239 Y2.4339
G1 X0.2339 Y2.4331
G1 X0.2285 Y2.4333
G1 X0.2229 Y2.4343
G1 X0.2178 Y2.4362
G1 X0.2131 Y2.439
G1 X0.2089 Y2.4428
G1 X0.2054 Y2.4474
G1 X0.203 Y2.4522
G1 X0.2018 Y2.4575
G1 Y2.463
G1 X0.2029 Y2.4685
G1 X0.2051 Y2.4734
G1 X0.2086 Y2.4777
G1 X0.2131 Y2.4815
G1 X0.2178 Y2.4841
G1 X0.223 Y2.4861
G1 X0.2286 Y2.4874
G1 X0.2346 Y2.488
G1 X0.2258 Y2.4906
G1 X0.2183 Y2.4937
G1 X0.2121 Y2.4973
G1 X0.2071 Y2.5014
G1 X0.2033 Y2.5059
G1 X0.2008 Y2.5109
G1 X0.1995 Y2.5163
G1 X0.1994 Y2.5222
G1 X0.201 Y2.531
G1 X0.204 Y2.5385
G1 X0.2084 Y2.5448
G1 X0.2141 Y2.5498
G1 X0.2206 Y2.5533
G1 X0.2279 Y2.5556
G1 X0.2361 Y2.5566
G1 X0.2451 Y2.5563
G1 X0.2503 Y2.5553
G1 X0.255 Y2.5533
G1 X0.2594 Y2.5503
G1 X0.2632 Y2.5463
G1 X0.2656 Y2.5428
G1 X0.2681 Y2.5386
G1 X0.2706 Y2.5334
G1 X0.2731 Y2.5275
G1 Z0.15
G0 Z0.2
G0 X0.224 Y2.1383
G0 Z0.15
G1 Z0. F5.
G1 X0.2397 Y2.2875
G1 Z0.15
G0 Z0.2
G0 X0.1872 Y2.1418
G0 Z0.15
G1 Z0. F5.
G1 X0.2003 Y2.2913
G1 Z0.15
G0 Z0.2
G0 X0.1503 Y2.1447
G0 Z0.15
G1 Z0. F5.
G1 X0.1608 Y2.2944
G1 Z0.15
G0 Z0.2
G0 X0.1134 Y2.147
G0 Z0.15
G1 Z0. F5.
G1 X0.1213 Y2.2968
G1 Z0.15
G0 Z0.2
G0 X0.0765 Y2.1486
G0 Z0.15
G1 Z0. F5.
G1 X0.0854 Y2.3985
G1 Z0.15
G0 Z0.2
G0 X0.0395 Y2.1496
G0 Z0.15
G1 Z0. F5.
G1 X0.0551 Y2.9995
G1 Z0.15
G0 Z0.2
G0 X0.0025 Y2.15
G0 Z0.15
G1 Z0. F5.
G1 X0.0027 Y2.3
G1 Z0.15
G0 Z0.2
G0 X-0.0345 Y2.1497
G0 Z0.15
G1 Z0. F5.
G1 X-0.0369 Y2.2997
G1 Z0.15
G0 Z0.2
G0 X-0.0714 Y2.1488
G0 Z0.15
G1 Z0. F5.
G1 X-0.0764 Y2.2987
G1 Z0.15
G0 Z0.2
G0 X-0.1084 Y2.1473
G0 Z0.15
G1 Z0. F5.
G1 X-0.1159 Y2.2971
G1 Z0.15
G0 Z0.2
G0 X-0.1453 Y2.1451
G0 Z0.15
G1 Z0. F5.
G1 X-0.1554 Y2.2947
G1 Z0.15
G0 Z0.2
G0 X-0.1822 Y2.1423
G0 Z0.15
G1 Z0. F5.
G1 X-0.1949 Y2.2917
G1 Z0.15
G0 Z0.2
G0 X-0.219 Y2.1388
G0 Z0.15
G1 Z0. F5.
G1 X-0.2343 Y2.288
G1 Z0.15
G0 Z0.2
G0 X-0.2558 Y2.1347
G0 Z0.15
G1 Z0. F5.
G1 X-0.2736 Y2.2837
G1 Z0.15
G0 Z0.2
G0 X-0.2925 Y2.13
G0 Z0.15
G1 Z0. F5.
G1 X-0.3129 Y2.2786
G1 Z0.15
G0 Z0.2
G0 X-0.329 Y2.1247
G0 Z0.15
G1 Z0. F5.
G1 X-0.3673 Y2.3717
G1 Z0.15
G0 Z0.2
G0 X-0.3655 Y2.1187
G0 Z0.15
G1 Z0. F5.
G1 X-0.3911 Y2.2665
G1 Z0.15
G0 Z0.2
G0 X-0.4019 Y2.1121
G0 Z0.15
G1 Z0. F5.
G1 X-0.43 Y2.2594
G1 Z0.15
G0 Z0.2
G0 X-0.4382 Y2.1049
G0 Z0.15
G1 Z0. F5.
G1 X-0.4688 Y2.2517
G1 Z0.15
G0 Z0.2
G0 X-0.4744 Y2.097
G0 Z0.15
G1 Z0. F5.
G1 X-0.5074 Y2.2433
G1 Z0.15
G0 Z0.2
G0 X-0.5104 Y2.0885
G0 Z0.15
G1 Z0. F5.
G1 X-0.546 Y2.2343
G1 Z0.15
G0 Z0.2
G0 X-0.5462 Y2.0795
G0 Z0.15
G1 Z0. F5.
G1 X-0.5843 Y2.2245
G1 Z0.15
G0 Z0.2
G0 X-0.5819 Y2.0698
G0 Z0.15
G1 Z0. F5.
G1 X-0.6225 Y2.2142
G1 Z0.15
G0 Z0.2
G0 X-0.6174 Y2.0594
G0 Z0.15
G1 Z0. F5.
G1 X-0.6605 Y2.2031
G1 Z0.15
G0 Z0.2
G0 X-0.6528 Y2.0485
G0 Z0.15
G1 Z0. F5.
G1 X-0.6983 Y2.1914
G1 Z0.15
G0 Z0.2
G0 X-0.6879 Y2.037
G0 Z0.15
G1 Z0. F5.
G1 X-0.7679 Y2.2738
G1 Z0.15
G0 Z0.2
G0 X-0.7228 Y2.0249
G0 Z0.15
G1 Z0. F5.
G1 X-0.7733 Y2.1661
G1 Z0.15
G0 Z0.2
G0 X-0.7576 Y2.0121
G0 Z0.15
G1 Z0. F5.
G1 X-0.8104 Y2.1525
G1 Z0.15
G0 Z0.2
G0 X-0.7921 Y1.9988
G0 Z0.15
G1 Z0. F5.
G1 X-0.8473 Y2.1382
G1 Z0.15
G0 Z0.2
G0 X-0.8263 Y1.9849
G0 Z0.15
G1 Z0. F5.
G1 X-0.884 Y2.1233
G1 Z0.15
G0 Z0.2
G0 X-0.8603 Y1.9704
G0 Z0.15
G1 Z0. F5.
G1 X-0.9204 Y2.1078
G1 Z0.15
G0 Z0.2
G0 X-0.8941 Y1.9553
G0 Z0.15
G1 Z0. F5.
G1 X-0.9565 Y2.0917
G1 Z0.15
G0 Z0.2
G0 X-0.9276 Y1.9396
G0 Z0.15
G1 Z0. F5.
G1 X-0.9923 Y2.0749
G1 Z0.15
G0 Z0.2
G0 X-0.9608 Y1.9234
G0 Z0.15
G1 Z0. F5.
G1 X-1.0279 Y2.0575
G1 Z0.15
G0 Z0.2
G0 X-0.9938 Y1.9065
G0 Z0.15
G1 Z0. F5.
G1 X-1.0631 Y2.0396
G1 Z0.15
G0 Z0.2
G0 X-1.0264 Y1.8892
G0 Z0.15
G1 Z0. F5.
G1 X-1.4322 Y2.636
G1 Z0.15
G0 Z0.2
G0 X-1.0588 Y1.8712
G0 Z0.15
G1 Z0. F5.
G1 X-1.1326 Y2.0018
G1 Z0.15
G0 Z0.2
G0 X-1.0908 Y1.8527
G0 Z0.15
G1 Z0. F5.
G1 X-1.1669 Y1.982
G1 Z0.15
G0 Z0.2
G0 X-1.1225 Y1.8337
G0 Z0.15
G1 Z0. F5.
G1 X-1.2008 Y1.9616
G1 Z0.15
G0 Z0.2
G0 X-1.1539 Y1.8141
G0 Z0.15
G1 Z0. F5.
G1 X-1.2344 Y1.9407
G1 Z0.15
G0 Z0.2
G0 X-1.1849 Y1.794
G0 Z0.15
G1 Z0. F5.
G1 X-1.2676 Y1.9192
G1 Z0.15
G0 Z0.2
G0 X-1.2156 Y1.7734
G0 Z0.15
G1 Z0. F5.
G1 X-1.3004 Y1.8971
G1 Z0.15
G0 Z0.2
G0 X-1.2459 Y1.7522
G0 Z0.15
G1 Z0. F5.
G1 X-1.3329 Y1.8744
G1 Z0.15
G0 Z0.2
G0 X-1.2759 Y1.7305
G0 Z0.15
G1 Z0. F5.
G1 X-1.3649 Y1.8512
G1 Z0.15
G0 Z0.2
G0 X-1.3055 Y1.7083
G0 Z0.15
G1 Z0. F5.
G1 X-1.3966 Y1.8275
G1 Z0.15
G0 Z0.2
G0 X-1.3347 Y1.6856
G0 Z0.15
G1 Z0. F5.
G1 X-1.4899 Y1.8816
G1 Z0.15
G0 Z0.2
G0 X-1.3635 Y1.6624
G0 Z0.15
G1 Z0. F5.
G1 X-1.4586 Y1.7783
G1 Z0.15
G0 Z0.2
G0 X-1.3919 Y1.6387
G0 Z0.15
G1 Z0. F5.
G1 X-1.489 Y1.753
G1 Z0.15
G0 Z0.2
G0 X-1.4198 Y1.6145
G0 Z0.15
G1 Z0. F5.
G1 X-1.5189 Y1.7271
G1 Z0.15
G0 Z0.2
G0 X-1.4474 Y1.5898
G0 Z0.15
G1 Z0. F5.
G1 X-1.5484 Y1.7007
G1 Z0.15
G0 Z0.2
G0 X-1.4745 Y1.5647
G0 Z0.15
G1 Z0. F5.
G1 X-1.5774 Y1.6738
G1 Z0.15
G0 Z0.2
G0 X-1.5012 Y1.5391
G0 Z0.15
G1 Z0. F5.
G1 X-1.606 Y1.6465
G1 Z0.15
G0 Z0.2
G0 X-1.5275 Y1.513
G0 Z0.15
G1 Z0. F5.
G1 X-1.6341 Y1.6186
G1 Z0.15
G0 Z0.2
G0 X-1.5533 Y1.4865
G0 Z0.15
G1 Z0. F5.
G1 X-1.6617 Y1.5902
G1 Z0.15
G0 Z0.2
G0 X-1.5786 Y1.4596
G0 Z0.15
G1 Z0. F5.
G1 X-1.6888 Y1.5614
G1 Z0.15
G0 Z0.2
G0 X-1.6035 Y1.4322
G0 Z0.15
G1 Z0. F5.
G1 X-1.79 Y1.5988
G1 Z0.15
G0 Z0.2
G0 X-1.6279 Y1.4044
G0 Z0.15
G1 Z0. F5.
G1 X-1.7415 Y1.5024
G1 Z0.15
G0 Z0.2
G0 X-1.6518 Y1.3762
G0 Z0.15
G1 Z0. F5.
G1 X-1.7671 Y1.4722
G1 Z0.15
G0 Z0.2
G0 X-1.6753 Y1.3476
G0 Z0.15
G1 Z0. F5.
G1 X-1.7921 Y1.4416
G1 Z0.15
G0 Z0.2
G0 X-1.6982 Y1.3186
G0 Z0.15
G1 Z0. F5.
G1 X-1.8167 Y1.4106
G1 Z0.15
G0 Z0.2
G0 X-1.7206 Y1.2892
G0 Z0.15
G1 Z0. F5.
G1 X-1.8407 Y1.3791
G1 Z0.15
G0 Z0.2
G0 X-1.7425 Y1.2594
G0 Z0.15
G1 Z0. F5.
G1 X-1.8641 Y1.3473
G1 Z0.15
G0 Z0.2
G0 X-1.7639 Y1.2292
G0 Z0.15
G1 Z0. F5.
G1 X-1.887 Y1.315
G1 Z0.15
G0 Z0.2
G0 X-1.7848 Y1.1987
G0 Z0.15
G1 Z0. F5.
G1 X-1.9094 Y1.2823
G1 Z0.15
G0 Z0.2
G0 X-1.8443 Y1.105
G0 Z0.15
G1 Z0. F5.
G1 X-2.5734 Y1.5419
G1 Z0.15
G0 Z0.2
G0 X-1.863 Y1.0731
G0 Z0.15
G1 Z0. F5.
G1 X-1.993 Y1.148
G1 Z0.15
G0 Z0.2
G0 X-1.8812 Y1.0409
G0 Z0.15
G1 Z0. F5.
G1 X-2.0125 Y1.1136
G1 Z0.15
G0 Z0.2
G0 X-1.8988 Y1.0084
G0 Z0.15
G1 Z0. F5.
G1 X-2.0313 Y1.0788
G1 Z0.15
G0 Z0.2
G0 X-1.9159 Y0.9756
G0 Z0.15
G1 Z0. F5.
G1 X-2.0496 Y1.0437
G1 Z0.15
G0 Z0.2
G0 X-1.9324 Y0.9425
G0 Z0.15
G1 Z0. F5.
G1 X-2.0672 Y1.0083
G1 Z0.15
G0 Z0.2
G0 X-1.9483 Y0.9091
G0 Z0.15
G1 Z0. F5.
G1 X-2.0843 Y0.9726
G1 Z0.15
G0 Z0.2
G0 X-1.9637 Y0.8755
G0 Z0.15
G1 Z0. F5.
G1 X-2.1007 Y0.9366
G1 Z0.15
G0 Z0.2
G0 X-1.9784 Y0.8416
G0 Z0.15
G1 Z0. F5.
G1 X-2.1165 Y0.9003
G1 Z0.15
G0 Z0.2
G0 X-1.9926 Y0.8074
G0 Z0.15
G1 Z0. F5.
G1 X-2.1317 Y0.8637
G1 Z0.15
G0 Z0.2
G0 X-2.0062 Y0.773
G0 Z0.15
G1 Z0. F5.
G1 X-2.2395 Y0.8629
G1 Z0.15
G0 Z0.2
G0 X-2.0192 Y0.7384
G0 Z0.15
G1 Z0. F5.
G1 X-2.1601 Y0.7899
G1 Z0.15
G0 Z0.2
G0 X-2.0316 Y0.7035
G0 Z0.15
G1 Z0. F5.
G1 X-2.1734 Y0.7526
G1 Z0.15
G0 Z0.2
G0 X-2.0434 Y0.6685
G0 Z0.15
G1 Z0. F5.
G1 X-2.186 Y0.7151
G1 Z0.15
G0 Z0.2
G0 X-2.0546 Y0.6332
G0 Z0.15
G1 Z0. F5.
G1 X-2.198 Y0.6774
G1 Z0.15
G0 Z0.2
G0 X-2.0652 Y0.5978
G0 Z0.15
G1 Z0. F5.
G1 X-2.2093 Y0.6395
G1 Z0.15
G0 Z0.2
G0 X-2.0752 Y0.5622
G0 Z0.15
G1 Z0. F5.
G1 X-2.22 Y0.6014
G1 Z0.15
G0 Z0.2
G0 X-2.0846 Y0.5264
G0 Z0.15
G1 Z0. F5.
G1 X-2.23 Y0.5631
G1 Z0.15
G0 Z0.2
G0 X-2.0933 Y0.4905
G0 Z0.15
G1 Z0. F5.
G1 X-2.2394 Y0.5247
G1 Z0.15
G0 Z0.2
G0 X-2.1014 Y0.4544
G0 Z0.15
G1 Z0. F5.
G1 X-2.248 Y0.4861
G1 Z0.15
G0 Z0.2
G0 X-2.1089 Y0.4182
G0 Z0.15
G1 Z0. F5.
G1 X-2.3542 Y0.4668
G1 Z0.15
G0 Z0.2
G0 X-2.1158 Y0.3818
G0 Z0.15
G1 Z0. F5.
G1 X-2.2634 Y0.4085
G1 Z0.15
G0 Z0.2
G0 X-2.1221 Y0.3454
G0 Z0.15
G1 Z0. F5.
G1 X-2.2701 Y0.3695
G1 Z0.15
G0 Z0.2
G0 X-2.1277 Y0.3088
G0 Z0.15
G1 Z0. F5.
G1 X-2.2761 Y0.3304
G1 Z0.15
G0 Z0.2
G0 X-2.1327 Y0.2722
G0 Z0.15
G1 Z0. F5.
G1 X-2.2815 Y0.2912
G1 Z0.15
G0 Z0.2
G0 X-2.1371 Y0.2355
G0 Z0.15
G1 Z0. F5.
G1 X-2.2862 Y0.2519
G1 Z0.15
G0 Z0.2
G0 X-2.1408 Y0.1987
G0 Z0.15
G1 Z0. F5.
G1 X-2.2902 Y0.2125
G1 Z0.15
G0 Z0.2
G0 X-2.1439 Y0.1618
G0 Z0.15
G1 Z0. F5.
G1 X-2.2935 Y0.1731
G1 Z0.15
G0 Z0.2
G0 X-2.1464 Y0.1249
G0 Z0.15
G1 Z0. F5.
G1 X-2.2961 Y0.1336
G1 Z0.15
G0 Z0.2
G0 X-2.1482 Y0.088
G0 Z0.15
G1 Z0. F5.
G1 X-2.2981 Y0.0941
G1 Z0.15
G0 Z0.2
G0 X0.2608 Y2.1341
G0 Z0.15
G1 Z0. F5.
G1 X0.279 Y2.283
G1 Z0.15
G0 Z0.2
G0 X0.2975 Y2.1293
G0 Z0.15
G1 Z0. F5.
G1 X0.3182 Y2.2779
G1 Z0.15
G0 Z0.2
G0 X0.334 Y2.1239
G0 Z0.15
G1 Z0. F5.
G1 X0.3573 Y2.2721
G1 Z0.15
G0 Z0.2
G0 X0.3705 Y2.1178
G0 Z0.15
G1 Z0. F5.
G1 X0.3964 Y2.2656
G1 Z0.15
G0 Z0.2
G0 X0.4069 Y2.1111
G0 Z0.15
G1 Z0. F5.
G1 X0.4353 Y2.2584
G1 Z0.15
G0 Z0.2
G0 X0.4432 Y2.1038
G0 Z0.15
G1 Z0. F5.
G1 X0.4947 Y2.3485
G1 Z0.15
G0 Z0.2
G0 X0.4793 Y2.0959
G0 Z0.15
G1 Z0. F5.
G1 X0.5127 Y2.2421
G1 Z0.15
G0 Z0.2
G0 X0.5153 Y2.0873
G0 Z0.15
G1 Z0. F5.
G1 X0.5512 Y2.233
G1 Z0.15
G0 Z0.2
G0 X0.5511 Y2.0782
G0 Z0.15
G1 Z0. F5.
G1 X0.5895 Y2.2232
G1 Z0.15
G0 Z0.2
G0 X0.5868 Y2.0684
G0 Z0.15
G1 Z0. F5.
G1 X0.6277 Y2.2127
G1 Z0.15
G0 Z0.2
G0 X0.6223 Y2.058
G0 Z0.15
G1 Z0. F5.
G1 X0.6657 Y2.2016
G1 Z0.15
G0 Z0.2
G0 X0.6576 Y2.047
G0 Z0.15
G1 Z0. F5.
G1 X0.7034 Y2.1898
G1 Z0.15
G0 Z0.2
M5 M9

M30
%
