%
(1001)
(T2  D=0.125 CR=0. - ZMIN=-0.05 - flat end mill)
G90 G54 G64 G50 G17 G40 G80 G94 G91.1 G49
G20 (Inch)
G30

N10(182D Contour2 6)
T2 G43 H2 M6
S5000 M3 M8
G54
G0 X2.0995 Y-0.0391
G0 Z0.6
G0 Z0.2
G1 Z0.0394 F10.
G1 Z-0.0375
G1 X2.0998 Z-0.0403
G1 X2.1007 Y-0.0392 Z-0.0429
G1 X2.1022 Z-0.0453
G1 X2.1042 Z-0.0473
G1 X2.1066 Z-0.0488
G1 X2.1092 Y-0.0393 Z-0.0497
G1 X2.112 Z-0.05
G1 X2.1245 Y-0.0395 F20.
G3 X2.1372 Y-0.0271 I0.0002 J0.0125
G1 X2.1375 Y0.
G1 X2.1368 Y0.0552
G1 X2.1347 Y0.1101
G1 X2.1313 Y0.1645
G1 X2.1265 Y0.2186
G1 X2.1203 Y0.2723
G1 X2.1129 Y0.3256
G1 X2.1041 Y0.3784
G1 X2.0941 Y0.4308
G1 X2.0828 Y0.4828
G1 X2.0702 Y0.5342
G1 X2.0564 Y0.5852
G1 X2.0414 Y0.6356
G1 X2.0252 Y0.6856
G1 X2.0078 Y0.7349
G1 X1.9893 Y0.7838
G1 X1.9695 Y0.832
G1 X1.9487 Y0.8796
G1 X1.9267 Y0.9267
G1 X1.9037 Y0.9731
G1 X1.8795 Y1.0188
G1 X1.8543 Y1.0639
G1 X1.8281 Y1.1083
G1 X1.8008 Y1.152
G1 X1.7725 Y1.195
G1 X1.7432 Y1.2373
G1 X1.7129 Y1.2789
G1 X1.6816 Y1.3196
G1 X1.6494 Y1.3596
G1 X1.6163 Y1.3988
G1 X1.5822 Y1.4372
G1 X1.5473 Y1.4747
G1 X1.5114 Y1.5114
G1 X1.4747 Y1.5473
G1 X1.4372 Y1.5822
G1 X1.3988 Y1.6163
G1 X1.3596 Y1.6494
G1 X1.3196 Y1.6816
G1 X1.2789 Y1.7129
G1 X1.2373 Y1.7432
G1 X1.195 Y1.7725
G1 X1.152 Y1.8008
G1 X1.1083 Y1.8281
G1 X1.0639 Y1.8543
G1 X1.0188 Y1.8795
G1 X0.9731 Y1.9037
G1 X0.9267 Y1.9267
G1 X0.8796 Y1.9487
G1 X0.832 Y1.9695
G1 X0.7838 Y1.9893
G1 X0.7349 Y2.0078
G1 X0.6856 Y2.0252
G1 X0.6356 Y2.0414
G1 X0.5852 Y2.0564
G1 X0.5342 Y2.0702
G1 X0.4828 Y2.0828
G1 X0.4308 Y2.0941
G1 X0.3784 Y2.1041
G1 X0.3256 Y2.1129
G1 X0.2723 Y2.1203
G1 X0.2186 Y2.1265
G1 X0.1645 Y2.1313
G1 X0.1101 Y2.1347
G1 X0.0552 Y2.1368
G1 X0. Y2.1375
G1 X-0.0552 Y2.1368
G1 X-0.1101 Y2.1347
G1 X-0.1645 Y2.1313
G1 X-0.2186 Y2.1265
G1 X-0.2723 Y2.1203
G1 X-0.3256 Y2.1129
G1 X-0.3784 Y2.1041
G1 X-0.4308 Y2.0941
G1 X-0.4828 Y2.0828
G1 X-0.5342 Y2.0702
G1 X-0.5852 Y2.0564
G1 X-0.6356 Y2.0414
G1 X-0.6856 Y2.0252
G1 X-0.7349 Y2.0078
G1 X-0.7838 Y1.9893
G1 X-0.832 Y1.9695
G1 X-0.8796 Y1.9487
G1 X-0.9267 Y1.9267
G1 X-0.9731 Y1.9037
G1 X-1.0188 Y1.8795
G1 X-1.0639 Y1.8543
G1 X-1.1083 Y1.8281
G1 X-1.152 Y1.8008
G1 X-1.195 Y1.7725
G1 X-1.2373 Y1.7432
G1 X-1.2789 Y1.7129
G1 X-1.3196 Y1.6816
G1 X-1.3596 Y1.6494
G1 X-1.3988 Y1.6163
G1 X-1.4372 Y1.5822
G1 X-1.4747 Y1.5473
G1 X-1.5114 Y1.5114
G1 X-1.5473 Y1.4747
G1 X-1.5822 Y1.4372
G1 X-1.6163 Y1.3988
G1 X-1.6494 Y1.3596
G1 X-1.6816 Y1.3196
G1 X-1.7129 Y1.2789
G1 X-1.7432 Y1.2373
G1 X-1.7725 Y1.195
G1 X-1.8008 Y1.152
G1 X-1.8281 Y1.1083
G1 X-1.8543 Y1.0639
G1 X-1.8795 Y1.0188
G1 X-1.9037 Y0.9731
G1 X-1.9267 Y0.9267
G1 X-1.9487 Y0.8796
G1 X-1.9695 Y0.832
G1 X-1.9893 Y0.7838
G1 X-2.0078 Y0.7349
G1 X-2.0252 Y0.6856
G1 X-2.0414 Y0.6356
G1 X-2.0564 Y0.5852
G1 X-2.0702 Y0.5342
G1 X-2.0828 Y0.4828
G1 X-2.0941 Y0.4308
G1 X-2.1041 Y0.3784
G1 X-2.1129 Y0.3256
G1 X-2.1203 Y0.2723
G1 X-2.1265 Y0.2186
G1 X-2.1313 Y0.1645
G1 X-2.1347 Y0.1101
G1 X-2.1368 Y0.0552
G1 X-2.1375 Y0.
G1 X-2.1368 Y-0.0552
G1 X-2.1347 Y-0.1101
G1 X-2.1313 Y-0.1645
G1 X-2.1265 Y-0.2186
G1 X-2.1203 Y-0.2723
G1 X-2.1129 Y-0.3256
G1 X-2.1041 Y-0.3784
G1 X-2.0941 Y-0.4308
G1 X-2.0828 Y-0.4828
G1 X-2.0702 Y-0.5342
G1 X-2.0564 Y-0.5852
G1 X-2.0414 Y-0.6356
G1 X-2.0252 Y-0.6856
G1 X-2.0078 Y-0.7349
G1 X-1.9893 Y-0.7838
G1 X-1.9695 Y-0.832
G1 X-1.9487 Y-0.8796
G1 X-1.9267 Y-0.9267
G1 X-1.9037 Y-0.9731
G1 X-1.8795 Y-1.0188
G1 X-1.8543 Y-1.0639
G1 X-1.8281 Y-1.1083
G1 X-1.8008 Y-1.152
G1 X-1.7725 Y-1.195
G1 X-1.7432 Y-1.2373
G1 X-1.7129 Y-1.2789
G1 X-1.6816 Y-1.3196
G1 X-1.6494 Y-1.3596
G1 X-1.6163 Y-1.3988
G1 X-1.5822 Y-1.4372
G1 X-1.5473 Y-1.4747
G1 X-1.5114 Y-1.5114
G1 X-1.4747 Y-1.5473
G1 X-1.4372 Y-1.5822
G1 X-1.3988 Y-1.6163
G1 X-1.3596 Y-1.6494
G1 X-1.3196 Y-1.6816
G1 X-1.2789 Y-1.7129
G1 X-1.2373 Y-1.7432
G1 X-1.195 Y-1.7725
G1 X-1.152 Y-1.8008
G1 X-1.1083 Y-1.8281
G1 X-1.0639 Y-1.8543
G1 X-1.0188 Y-1.8795
G1 X-0.9731 Y-1.9037
G1 X-0.9267 Y-1.9267
G1 X-0.8796 Y-1.9487
G1 X-0.832 Y-1.9695
G1 X-0.7838 Y-1.9893
G1 X-0.7349 Y-2.0078
G1 X-0.6856 Y-2.0252
G1 X-0.6356 Y-2.0414
G1 X-0.5852 Y-2.0564
G1 X-0.5342 Y-2.0702
G1 X-0.4828 Y-2.0828
G1 X-0.4308 Y-2.0941
G1 X-0.3784 Y-2.1041
G1 X-0.3256 Y-2.1129
G1 X-0.2723 Y-2.1203
G1 X-0.2186 Y-2.1265
G1 X-0.1645 Y-2.1313
G1 X-0.1101 Y-2.1347
G1 X-0.0552 Y-2.1368
G1 X0. Y-2.1375
G1 X0.0552 Y-2.1368
G1 X0.1101 Y-2.1347
G1 X0.1645 Y-2.1313
G1 X0.2186 Y-2.1265
G1 X0.2723 Y-2.1203
G1 X0.3256 Y-2.1129
G1 X0.3784 Y-2.1041
G1 X0.4308 Y-2.0941
G1 X0.4828 Y-2.0828
G1 X0.5342 Y-2.0702
G1 X0.5852 Y-2.0564
G1 X0.6356 Y-2.0414
G1 X0.6856 Y-2.0252
G1 X0.7349 Y-2.0078
G1 X0.7838 Y-1.9893
G1 X0.832 Y-1.9695
G1 X0.8796 Y-1.9487
G1 X0.9267 Y-1.9267
G1 X0.9731 Y-1.9037
G1 X1.0188 Y-1.8795
G1 X1.0639 Y-1.8543
G1 X1.1083 Y-1.8281
G1 X1.152 Y-1.8008
G1 X1.195 Y-1.7725
G1 X1.2373 Y-1.7432
G1 X1.2789 Y-1.7129
G1 X1.3196 Y-1.6816
G1 X1.3596 Y-1.6494
G1 X1.3988 Y-1.6163
G1 X1.4372 Y-1.5822
G1 X1.4747 Y-1.5473
G1 X1.5114 Y-1.5114
G1 X1.5473 Y-1.4747
G1 X1.5822 Y-1.4372
G1 X1.6163 Y-1.3988
G1 X1.6494 Y-1.3596
G1 X1.6816 Y-1.3196
G1 X1.7129 Y-1.2789
G1 X1.7432 Y-1.2373
G1 X1.7725 Y-1.195
G1 X1.8008 Y-1.152
G1 X1.8281 Y-1.1083
G1 X1.8543 Y-1.0639
G1 X1.8795 Y-1.0188
G1 X1.9037 Y-0.9731
G1 X1.9267 Y-0.9267
G1 X1.9487 Y-0.8796
G1 X1.9695 Y-0.832
G1 X1.9893 Y-0.7838
G1 X2.0078 Y-0.7349
G1 X2.0252 Y-0.6856
G1 X2.0414 Y-0.6356
G1 X2.0564 Y-0.5852
G1 X2.0702 Y-0.5342
G1 X2.0828 Y-0.4828
G1 X2.0941 Y-0.4308
G1 X2.1041 Y-0.3784
G1 X2.1129 Y-0.3256
G1 X2.1203 Y-0.2723
G1 X2.1265 Y-0.2186
G1 X2.1313 Y-0.1645
G1 X2.1347 Y-0.1101
G1 X2.1368 Y-0.0552
G1 X2.1372 Y-0.0271
G3 X2.1248 Y-0.0145 I-0.0125 J0.0002
G1 X2.1123 Y-0.0143
G1 X2.1095 Z-0.0497
G1 X2.1069 Y-0.0142 Z-0.0488
G1 X2.1045 Z-0.0473
G1 X2.1025 Z-0.0453
G1 X2.1011 Z-0.0429
G1 X2.1001 Y-0.0141 Z-0.0403
G1 X2.0998 Z-0.0375
G0 Z0.6

N20(182D Contour2 7)
S5000 M3 M8
G0 X3.05 Y0.0125
G0 Z0.6
G0 Z0.2
G1 Z0.0394 F10.
G1 Z-0.0375
G1 X3.0497 Z-0.0403
G1 X3.0488 Z-0.0429
G1 X3.0473 Z-0.0453
G1 X3.0453 Z-0.0473
G1 X3.0429 Z-0.0488
G1 X3.0403 Z-0.0497
G1 X3.0375 Z-0.05
G1 X3.025 F20.
G3 X3.0125 Y0. I0. J-0.0125
G1 Y-0.0008
G1 X3.0115 Y-0.0769
G1 Y-0.0785
G1 X3.0086 Y-0.1542
G1 X3.0085 Y-0.1558
G1 X3.0038 Y-0.2309
G1 X3.0037 Y-0.2325
G1 X2.997 Y-0.3071
G1 X2.9969 Y-0.3087
G1 X2.9884 Y-0.3828
G1 X2.9882 Y-0.3844
G1 X2.9779 Y-0.4579
G1 X2.9777 Y-0.4595
G1 X2.9656 Y-0.5324
G1 X2.9653 Y-0.534
G1 X2.9515 Y-0.6063
G1 X2.9511 Y-0.6078
G1 X2.9355 Y-0.6795
G1 X2.9352 Y-0.681
G1 X2.9178 Y-0.7521
G1 X2.9175 Y-0.7536
G1 X2.8984 Y-0.8239
G1 X2.898 Y-0.8254
G1 X2.8773 Y-0.8951
G1 X2.8768 Y-0.8965
G1 X2.8544 Y-0.9655
G1 X2.854 Y-0.9669
G1 X2.8299 Y-1.0351
G1 X2.8294 Y-1.0365
G1 X2.8038 Y-1.1039
G1 X2.8032 Y-1.1053
G1 X2.776 Y-1.1719
G1 X2.7754 Y-1.1733
G1 X2.7467 Y-1.2391
G1 X2.746 Y-1.2405
G1 X2.7157 Y-1.3054
G1 X2.7151 Y-1.3068
G1 X2.6832 Y-1.3708
G1 X2.6826 Y-1.3722
G1 X2.6492 Y-1.4353
G1 X2.6485 Y-1.4366
G1 X2.6137 Y-1.4989
G1 X2.613 Y-1.5002
G1 X2.5767 Y-1.5615
G1 X2.5759 Y-1.5628
G1 X2.5383 Y-1.6231
G1 X2.5375 Y-1.6244
G1 X2.4984 Y-1.6837
G1 X2.4975 Y-1.685
G1 X2.4571 Y-1.7433
G1 X2.4562 Y-1.7445
G1 X2.4144 Y-1.8019
G1 X2.4135 Y-1.8031
G1 X2.3704 Y-1.8593
G1 X2.3695 Y-1.8605
G1 X2.325 Y-1.9157
G1 X2.3241 Y-1.9168
G1 X2.2784 Y-1.9709
G1 X2.2774 Y-1.972
G1 X2.2304 Y-2.025
G1 X2.2294 Y-2.0261
G1 X2.1812 Y-2.0779
G1 X2.1801 Y-2.079
G1 X2.1307 Y-2.1296
G1 X2.1296 Y-2.1307
G1 X2.079 Y-2.1801
G1 X2.0779 Y-2.1812
G1 X2.0261 Y-2.2294
G1 X2.025 Y-2.2304
G1 X1.972 Y-2.2774
G1 X1.9709 Y-2.2784
G1 X1.9168 Y-2.3241
G1 X1.9157 Y-2.325
G1 X1.8605 Y-2.3695
G1 X1.8593 Y-2.3704
G1 X1.8031 Y-2.4135
G1 X1.8019 Y-2.4144
G1 X1.7445 Y-2.4562
G1 X1.7433 Y-2.4571
G1 X1.685 Y-2.4975
G1 X1.6837 Y-2.4984
G1 X1.6244 Y-2.5375
G1 X1.6231 Y-2.5383
G1 X1.5628 Y-2.5759
G1 X1.5615 Y-2.5767
G1 X1.5002 Y-2.613
G1 X1.4989 Y-2.6137
G1 X1.4366 Y-2.6485
G1 X1.4353 Y-2.6492
G1 X1.3722 Y-2.6826
G1 X1.3708 Y-2.6832
G1 X1.3068 Y-2.7151
G1 X1.3054 Y-2.7157
G1 X1.2405 Y-2.746
G1 X1.2391 Y-2.7467
G1 X1.1733 Y-2.7754
G1 X1.1719 Y-2.776
G1 X1.1053 Y-2.8032
G1 X1.1039 Y-2.8038
G1 X1.0365 Y-2.8294
G1 X1.0351 Y-2.8299
G1 X0.9669 Y-2.854
G1 X0.9655 Y-2.8544
G1 X0.8965 Y-2.8768
G1 X0.8951 Y-2.8773
G1 X0.8254 Y-2.898
G1 X0.8239 Y-2.8984
G1 X0.7536 Y-2.9175
G1 X0.7521 Y-2.9178
G1 X0.681 Y-2.9352
G1 X0.6795 Y-2.9355
G1 X0.6078 Y-2.9511
G1 X0.6063 Y-2.9515
G1 X0.534 Y-2.9653
G1 X0.5324 Y-2.9656
G1 X0.4595 Y-2.9777
G1 X0.4579 Y-2.9779
G1 X0.3844 Y-2.9882
G1 X0.3828 Y-2.9884
G1 X0.3087 Y-2.9969
G1 X0.3071 Y-2.997
G1 X0.2325 Y-3.0037
G1 X0.2309 Y-3.0038
G1 X0.1558 Y-3.0085
G1 X0.1542 Y-3.0086
G1 X0.0785 Y-3.0115
G1 X0.0769
G1 X0.0008 Y-3.0125
G1 X-0.0008
G1 X-0.0769 Y-3.0115
G1 X-0.0785
G1 X-0.1542 Y-3.0086
G1 X-0.1558 Y-3.0085
G1 X-0.2309 Y-3.0038
G1 X-0.2325 Y-3.0037
G1 X-0.3071 Y-2.997
G1 X-0.3087 Y-2.9969
G1 X-0.3828 Y-2.9884
G1 X-0.3844 Y-2.9882
G1 X-0.4579 Y-2.9779
G1 X-0.4595 Y-2.9777
G1 X-0.5324 Y-2.9656
G1 X-0.534 Y-2.9653
G1 X-0.6063 Y-2.9515
G1 X-0.6078 Y-2.9511
G1 X-0.6795 Y-2.9355
G1 X-0.681 Y-2.9352
G1 X-0.7521 Y-2.9178
G1 X-0.7536 Y-2.9175
G1 X-0.8239 Y-2.8984
G1 X-0.8254 Y-2.898
G1 X-0.8951 Y-2.8773
G1 X-0.8965 Y-2.8768
G1 X-0.9655 Y-2.8544
G1 X-0.9669 Y-2.854
G1 X-1.0351 Y-2.8299
G1 X-1.0365 Y-2.8294
G1 X-1.1039 Y-2.8038
G1 X-1.1053 Y-2.8032
G1 X-1.1719 Y-2.776
G1 X-1.1733 Y-2.7754
G1 X-1.2391 Y-2.7467
G1 X-1.2405 Y-2.746
G1 X-1.3054 Y-2.7157
G1 X-1.3068 Y-2.7151
G1 X-1.3708 Y-2.6832
G1 X-1.3722 Y-2.6826
G1 X-1.4353 Y-2.6492
G1 X-1.4366 Y-2.6485
G1 X-1.4989 Y-2.6137
G1 X-1.5002 Y-2.613
G1 X-1.5615 Y-2.5767
G1 X-1.5628 Y-2.5759
G1 X-1.6231 Y-2.5383
G1 X-1.6244 Y-2.5375
G1 X-1.6837 Y-2.4984
G1 X-1.685 Y-2.4975
G1 X-1.7433 Y-2.4571
G1 X-1.7445 Y-2.4562
G1 X-1.8019 Y-2.4144
G1 X-1.8031 Y-2.4135
G1 X-1.8593 Y-2.3704
G1 X-1.8605 Y-2.3695
G1 X-1.9157 Y-2.325
G1 X-1.9168 Y-2.3241
G1 X-1.9709 Y-2.2784
G1 X-1.972 Y-2.2774
G1 X-2.025 Y-2.2304
G1 X-2.0261 Y-2.2294
G1 X-2.0779 Y-2.1812
G1 X-2.079 Y-2.1801
G1 X-2.1296 Y-2.1307
G1 X-2.1307 Y-2.1296
G1 X-2.1801 Y-2.079
G1 X-2.1812 Y-2.0779
G1 X-2.2294 Y-2.0261
G1 X-2.2304 Y-2.025
G1 X-2.2774 Y-1.972
G1 X-2.2784 Y-1.9709
G1 X-2.3241 Y-1.9168
G1 X-2.325 Y-1.9157
G1 X-2.3695 Y-1.8605
G1 X-2.3704 Y-1.8593
G1 X-2.4135 Y-1.8031
G1 X-2.4144 Y-1.8019
G1 X-2.4562 Y-1.7445
G1 X-2.4571 Y-1.7433
G1 X-2.4975 Y-1.685
G1 X-2.4984 Y-1.6837
G1 X-2.5375 Y-1.6244
G1 X-2.5383 Y-1.6231
G1 X-2.5759 Y-1.5628
G1 X-2.5767 Y-1.5615
G1 X-2.613 Y-1.5002
G1 X-2.6137 Y-1.4989
G1 X-2.6485 Y-1.4366
G1 X-2.6492 Y-1.4353
G1 X-2.6826 Y-1.3722
G1 X-2.6832 Y-1.3708
G1 X-2.7151 Y-1.3068
G1 X-2.7157 Y-1.3054
G1 X-2.746 Y-1.2405
G1 X-2.7467 Y-1.2391
G1 X-2.7754 Y-1.1733
G1 X-2.776 Y-1.1719
G1 X-2.8032 Y-1.1053
G1 X-2.8038 Y-1.1039
G1 X-2.8294 Y-1.0365
G1 X-2.8299 Y-1.0351
G1 X-2.854 Y-0.9669
G1 X-2.8544 Y-0.9655
G1 X-2.8768 Y-0.8965
G1 X-2.8773 Y-0.8951
G1 X-2.898 Y-0.8254
G1 X-2.8984 Y-0.8239
G1 X-2.9175 Y-0.7536
G1 X-2.9178 Y-0.7521
G1 X-2.9352 Y-0.681
G1 X-2.9355 Y-0.6795
G1 X-2.9511 Y-0.6078
G1 X-2.9515 Y-0.6063
G1 X-2.9653 Y-0.534
G1 X-2.9656 Y-0.5324
G1 X-2.9777 Y-0.4595
G1 X-2.9779 Y-0.4579
G1 X-2.9882 Y-0.3844
G1 X-2.9884 Y-0.3828
G1 X-2.9969 Y-0.3087
G1 X-2.997 Y-0.3071
G1 X-3.0037 Y-0.2325
G1 X-3.0038 Y-0.2309
G1 X-3.0085 Y-0.1558
G1 X-3.0086 Y-0.1542
G1 X-3.0115 Y-0.0785
G1 Y-0.0769
G1 X-3.0125 Y-0.0008
G1 Y0.0008
G1 X-3.0115 Y0.0769
G1 Y0.0785
G1 X-3.0086 Y0.1542
G1 X-3.0085 Y0.1558
G1 X-3.0038 Y0.2309
G1 X-3.0037 Y0.2325
G1 X-2.997 Y0.3071
G1 X-2.9969 Y0.3087
G1 X-2.9884 Y0.3828
G1 X-2.9882 Y0.3844
G1 X-2.9779 Y0.4579
G1 X-2.9777 Y0.4595
G1 X-2.9656 Y0.5324
G1 X-2.9653 Y0.534
G1 X-2.9515 Y0.6063
G1 X-2.9511 Y0.6078
G1 X-2.9355 Y0.6795
G1 X-2.9352 Y0.681
G1 X-2.9178 Y0.7521
G1 X-2.9175 Y0.7536
G1 X-2.8984 Y0.8239
G1 X-2.898 Y0.8254
G1 X-2.8773 Y0.8951
G1 X-2.8768 Y0.8965
G1 X-2.8544 Y0.9655
G1 X-2.854 Y0.9669
G1 X-2.8299 Y1.0351
G1 X-2.8294 Y1.0365
G1 X-2.8038 Y1.1039
G1 X-2.8032 Y1.1053
G1 X-2.776 Y1.1719
G1 X-2.7754 Y1.1733
G1 X-2.7467 Y1.2391
G1 X-2.746 Y1.2405
G1 X-2.7157 Y1.3054
G1 X-2.7151 Y1.3068
G1 X-2.6832 Y1.3708
G1 X-2.6826 Y1.3722
G1 X-2.6492 Y1.4353
G1 X-2.6485 Y1.4366
G1 X-2.6137 Y1.4989
G1 X-2.613 Y1.5002
G1 X-2.5767 Y1.5615
G1 X-2.5759 Y1.5628
G1 X-2.5383 Y1.6231
G1 X-2.5375 Y1.6244
G1 X-2.4984 Y1.6837
G1 X-2.4975 Y1.685
G1 X-2.4571 Y1.7433
G1 X-2.4562 Y1.7445
G1 X-2.4144 Y1.8019
G1 X-2.4135 Y1.8031
G1 X-2.3704 Y1.8593
G1 X-2.3695 Y1.8605
G1 X-2.325 Y1.9157
G1 X-2.3241 Y1.9168
G1 X-2.2784 Y1.9709
G1 X-2.2774 Y1.972
G1 X-2.2304 Y2.025
G1 X-2.2294 Y2.0261
G1 X-2.1812 Y2.0779
G1 X-2.1801 Y2.079
G1 X-2.1307 Y2.1296
G1 X-2.1296 Y2.1307
G1 X-2.079 Y2.1801
G1 X-2.0779 Y2.1812
G1 X-2.0261 Y2.2294
G1 X-2.025 Y2.2304
G1 X-1.972 Y2.2774
G1 X-1.9709 Y2.2784
G1 X-1.9168 Y2.3241
G1 X-1.9157 Y2.325
G1 X-1.8605 Y2.3695
G1 X-1.8593 Y2.3704
G1 X-1.8031 Y2.4135
G1 X-1.8019 Y2.4144
G1 X-1.7445 Y2.4562
G1 X-1.7433 Y2.4571
G1 X-1.685 Y2.4975
G1 X-1.6837 Y2.4984
G1 X-1.6244 Y2.5375
G1 X-1.6231 Y2.5383
G1 X-1.5628 Y2.5759
G1 X-1.5615 Y2.5767
G1 X-1.5002 Y2.613
G1 X-1.4989 Y2.6137
G1 X-1.4366 Y2.6485
G1 X-1.4353 Y2.6492
G1 X-1.3722 Y2.6826
G1 X-1.3708 Y2.6832
G1 X-1.3068 Y2.7151
G1 X-1.3054 Y2.7157
G1 X-1.2405 Y2.746
G1 X-1.2391 Y2.7467
G1 X-1.1733 Y2.7754
G1 X-1.1719 Y2.776
G1 X-1.1053 Y2.8032
G1 X-1.1039 Y2.8038
G1 X-1.0365 Y2.8294
G1 X-1.0351 Y2.8299
G1 X-0.9669 Y2.854
G1 X-0.9655 Y2.8544
G1 X-0.8965 Y2.8768
G1 X-0.8951 Y2.8773
G1 X-0.8254 Y2.898
G1 X-0.8239 Y2.8984
G1 X-0.7536 Y2.9175
G1 X-0.7521 Y2.9178
G1 X-0.681 Y2.9352
G1 X-0.6795 Y2.9355
G1 X-0.6078 Y2.9511
G1 X-0.6063 Y2.9515
G1 X-0.534 Y2.9653
G1 X-0.5324 Y2.9656
G1 X-0.4595 Y2.9777
G1 X-0.4579 Y2.9779
G1 X-0.3844 Y2.9882
G1 X-0.3828 Y2.9884
G1 X-0.3087 Y2.9969
G1 X-0.3071 Y2.997
G1 X-0.2325 Y3.0037
G1 X-0.2309 Y3.0038
G1 X-0.1558 Y3.0085
G1 X-0.1542 Y3.0086
G1 X-0.0785 Y3.0115
G1 X-0.0769
G1 X-0.0008 Y3.0125
G1 X0.0008
G1 X0.0769 Y3.0115
G1 X0.0785
G1 X0.1542 Y3.0086
G1 X0.1558 Y3.0085
G1 X0.2309 Y3.0038
G1 X0.2325 Y3.0037
G1 X0.3071 Y2.997
G1 X0.3087 Y2.9969
G1 X0.3828 Y2.9884
G1 X0.3844 Y2.9882
G1 X0.4579 Y2.9779
G1 X0.4595 Y2.9777
G1 X0.5324 Y2.9656
G1 X0.534 Y2.9653
G1 X0.6063 Y2.9515
G1 X0.6078 Y2.9511
G1 X0.6795 Y2.9355
G1 X0.681 Y2.9352
G1 X0.7521 Y2.9178
G1 X0.7536 Y2.9175
G1 X0.8239 Y2.8984
G1 X0.8254 Y2.898
G1 X0.8951 Y2.8773
G1 X0.8965 Y2.8768
G1 X0.9655 Y2.8544
G1 X0.9669 Y2.854
G1 X1.0351 Y2.8299
G1 X1.0365 Y2.8294
G1 X1.1039 Y2.8038
G1 X1.1053 Y2.8032
G1 X1.1719 Y2.776
G1 X1.1733 Y2.7754
G1 X1.2391 Y2.7467
G1 X1.2405 Y2.746
G1 X1.3054 Y2.7157
G1 X1.3068 Y2.7151
G1 X1.3708 Y2.6832
G1 X1.3722 Y2.6826
G1 X1.4353 Y2.6492
G1 X1.4366 Y2.6485
G1 X1.4989 Y2.6137
G1 X1.5002 Y2.613
G1 X1.5615 Y2.5767
G1 X1.5628 Y2.5759
G1 X1.6231 Y2.5383
G1 X1.6244 Y2.5375
G1 X1.6837 Y2.4984
G1 X1.685 Y2.4975
G1 X1.7433 Y2.4571
G1 X1.7445 Y2.4562
G1 X1.8019 Y2.4144
G1 X1.8031 Y2.4135
G1 X1.8593 Y2.3704
G1 X1.8605 Y2.3695
G1 X1.9157 Y2.325
G1 X1.9168 Y2.3241
G1 X1.9709 Y2.2784
G1 X1.972 Y2.2774
G1 X2.025 Y2.2304
G1 X2.0261 Y2.2294
G1 X2.0779 Y2.1812
G1 X2.079 Y2.1801
G1 X2.1296 Y2.1307
G1 X2.1307 Y2.1296
G1 X2.1801 Y2.079
G1 X2.1812 Y2.0779
G1 X2.2294 Y2.0261
G1 X2.2304 Y2.025
G1 X2.2774 Y1.972
G1 X2.2784 Y1.9709
G1 X2.3241 Y1.9168
G1 X2.325 Y1.9157
G1 X2.3695 Y1.8605
G1 X2.3704 Y1.8593
G1 X2.4135 Y1.8031
G1 X2.4144 Y1.8019
G1 X2.4562 Y1.7445
G1 X2.4571 Y1.7433
G1 X2.4975 Y1.685
G1 X2.4984 Y1.6837
G1 X2.5375 Y1.6244
G1 X2.5383 Y1.6231
G1 X2.5759 Y1.5628
G1 X2.5767 Y1.5615
G1 X2.613 Y1.5002
G1 X2.6137 Y1.4989
G1 X2.6485 Y1.4366
G1 X2.6492 Y1.4353
G1 X2.6826 Y1.3722
G1 X2.6832 Y1.3708
G1 X2.7151 Y1.3068
G1 X2.7157 Y1.3054
G1 X2.746 Y1.2405
G1 X2.7467 Y1.2391
G1 X2.7754 Y1.1733
G1 X2.776 Y1.1719
G1 X2.8032 Y1.1053
G1 X2.8038 Y1.1039
G1 X2.8294 Y1.0365
G1 X2.8299 Y1.0351
G1 X2.854 Y0.9669
G1 X2.8544 Y0.9655
G1 X2.8768 Y0.8965
G1 X2.8773 Y0.8951
G1 X2.898 Y0.8254
G1 X2.8984 Y0.8239
G1 X2.9175 Y0.7536
G1 X2.9178 Y0.7521
G1 X2.9352 Y0.681
G1 X2.9355 Y0.6795
G1 X2.9511 Y0.6078
G1 X2.9515 Y0.6063
G1 X2.9653 Y0.534
G1 X2.9656 Y0.5324
G1 X2.9777 Y0.4595
G1 X2.9779 Y0.4579
G1 X2.9882 Y0.3844
G1 X2.9884 Y0.3828
G1 X2.9969 Y0.3087
G1 X2.997 Y0.3071
G1 X3.0037 Y0.2325
G1 X3.0038 Y0.2309
G1 X3.0085 Y0.1558
G1 X3.0086 Y0.1542
G1 X3.0115 Y0.0785
G1 Y0.0769
G1 X3.0125 Y0.0008
G1 Y0.
G3 X3.025 Y-0.0125 I0.0125 J0.
G1 X3.0375
G1 X3.0403 Z-0.0497
G1 X3.0429 Z-0.0488
G1 X3.0453 Z-0.0473
G1 X3.0473 Z-0.0453
G1 X3.0488 Z-0.0429
G1 X3.0497 Z-0.0403
G1 X3.05 Z-0.0375
G0 Z0.6
M5 M9

G30
M30
%
