%
(CalendarCutTest)
(T2  D=0.125 CR=0. - ZMIN=-0.05 - flat end mill)
G90 G54 G64 G50 G17 G40 G80 G94 G91.1 G49
G20 (Inch)

N10(Test)
T2 G43 H2 M6
S5000 M3 M8
G54
G0 X-2.1263 Y2.3634
G0 Z0.6
G0 Z0.2
G1 Z0.0394 F10.
G1 Z-0.0375
G1 Y2.3637 Z-0.0403
G1 Y2.3647 Z-0.0429
G1 Y2.3661 Z-0.0453
G1 Y2.3681 Z-0.0473
G1 Y2.3705 Z-0.0488
G1 Y2.3731 Z-0.0497
G1 Y2.3759 Z-0.05
G1 Y2.3884 F20.
G3 X-2.1388 Y2.4009 I-0.0125 J0.
G1 X-2.8295 F40.
G2 X-2.892 Y2.4634 I0. J0.0625
G1 Y2.7135
G2 X-2.8295 Y2.776 I0.0625 J0.
G1 X-2.1299
G2 X-2.0674 Y2.7135 I0. J-0.0625
G1 Y2.4634
G2 X-2.1299 Y2.4009 I-0.0625 J0.
G1 X-2.1388
G3 X-2.1513 Y2.3884 I0. J-0.0125 F20.
G1 Y2.3759
G1 Y2.3731 Z-0.0497
G1 Y2.3705 Z-0.0488
G1 Y2.3681 Z-0.0473
G1 Y2.3661 Z-0.0453
G1 Y2.3647 Z-0.0429
G1 Y2.3637 Z-0.0403
G1 Y2.3634 Z-0.0375
G0 Z0.6
M5 M9

M30
%
