%
(RaceProfiles)
(T2  D=0.125 CR=0. - ZMIN=-0.05 - flat end mill)
G90 G54 G64 G50 G17 G40 G80 G94 G91.1 G49
G20 (Inch)

N10(2D Contour2 3)
T2 G43 H2 M6
S5000 M3 M8
G54
G0 X-0.157 Y0.1089
G0 Z0.6
G0 Z0.2
G1 Z0.0394 F10.
G1 Z-0.0375
G1 X-0.1568 Y0.1087 Z-0.0403
G1 X-0.156 Y0.1083 Z-0.0429
G1 X-0.1547 Y0.1075 Z-0.0453
G1 X-0.1529 Y0.1066 Z-0.0473
G1 X-0.1509 Y0.1054 Z-0.0488
G1 X-0.1486 Y0.1041 Z-0.0497
G1 X-0.1462 Y0.1027 Z-0.05
G1 X-0.1353 Y0.0966 F20.
G3 X-0.1182 Y0.1013 I0.0062 J0.0109
G3 X0.2784 Y1.6087 I-2.6658 J1.5074 F40.
G2 X0.3409 Y1.6712 I0.0625 J0.
G1 X0.4909
G2 X0.5534 Y1.6087 I0. J-0.0625
G2 X-1.1153 Y-1.2817 I-3.3375 J0.
G2 X-1.2007 Y-1.2588 I-0.0313 J0.0541
G1 X-1.2757 Y-1.1289
G2 X-1.2528 Y-1.0435 I0.0541 J0.0312
G3 X-0.1182 Y0.1013 I-1.5313 J2.6522
G3 X-0.123 Y0.1183 I-0.0109 J0.0062 F20.
G1 X-0.1339 Y0.1245
G1 X-0.1363 Y0.1259 Z-0.0497
G1 X-0.1386 Y0.1272 Z-0.0488
G1 X-0.1406 Y0.1283 Z-0.0473
G1 X-0.1424 Y0.1293 Z-0.0453
G1 X-0.1437 Y0.13 Z-0.0429
G1 X-0.1445 Y0.1305 Z-0.0403
G1 X-0.1447 Y0.1306 Z-0.0375
G0 Z0.2
G0 X-0.154 Y0.1483
G1 Z0.0394 F10.
G1 Z-0.0375
G1 X-0.1543 Y0.1484 Z-0.0403
G1 X-0.1551 Y0.1489 Z-0.0429
G1 X-0.1564 Y0.1496 Z-0.0453
G1 X-0.1581 Y0.1506 Z-0.0473
G1 X-0.1602 Y0.1517 Z-0.0488
G1 X-0.1625 Y0.153 Z-0.0497
G1 X-0.1649 Y0.1544 Z-0.05
G1 X-0.1758 Y0.1605 F20.
G3 X-0.1928 Y0.1557 I-0.0061 J-0.0109
G2 X-1.4363 Y-1.1045 I-2.9123 J1.6302 F40.
G2 X-1.5217 Y-1.0816 I-0.0312 J0.0541
G1 X-1.5967 Y-0.9517
G2 X-1.5738 Y-0.8663 I0.0541 J0.0312
G3 X-0.0426 Y1.7859 I-1.5312 J2.6522
G2 X0.0199 Y1.8484 I0.0625 J0.
G1 X0.1699
G2 X0.2324 Y1.7859 I0. J-0.0625
G2 X-0.1928 Y0.1557 I-3.3375 J0.
G3 X-0.188 Y0.1387 I0.0109 J-0.0061 F20.
G1 X-0.1771 Y0.1326
G1 X-0.1747 Y0.1312 Z-0.0497
G1 X-0.1724 Y0.1299 Z-0.0488
G1 X-0.1703 Y0.1287 Z-0.0473
G1 X-0.1686 Y0.1278 Z-0.0453
G1 X-0.1673 Y0.1271 Z-0.0429
G1 X-0.1665 Y0.1266 Z-0.0403
G1 X-0.1662 Y0.1264 Z-0.0375
G0 Z0.2
G0 X-0.4803 Y0.316
G1 Z0.0394 F10.
G1 Z-0.0375
G1 X-0.4805 Y0.3162 Z-0.0403
G1 X-0.4813 Y0.3166 Z-0.0429
G1 X-0.4826 Y0.3174 Z-0.0453
G1 X-0.4844 Y0.3183 Z-0.0473
G1 X-0.4864 Y0.3195 Z-0.0488
G1 X-0.4887 Y0.3208 Z-0.0497
G1 X-0.4912 Y0.3222 Z-0.05
G1 X-0.502 Y0.3283 F20.
G3 X-0.5191 Y0.3235 I-0.0061 J-0.0109
G2 X-1.7574 Y-0.9273 I-2.907 J1.6395 F40.
G2 X-1.8427 Y-0.9044 I-0.0313 J0.0541
G1 X-1.9177 Y-0.7745
G2 X-1.8949 Y-0.6891 I0.0541 J0.0313
G3 X-0.3636 Y1.9631 I-1.5313 J2.6522
G2 X-0.3011 Y2.0256 I0.0625 J0.
G1 X-0.1511
G2 X-0.0886 Y1.9631 I0. J-0.0625
G2 X-0.5191 Y0.3235 I-3.3375 J0.
G3 X-0.5143 Y0.3065 I0.0109 J-0.0061 F20.
G1 X-0.5034 Y0.3004
G1 X-0.501 Y0.299 Z-0.0497
G1 X-0.4987 Y0.2977 Z-0.0488
G1 X-0.4966 Y0.2965 Z-0.0473
G1 X-0.4949 Y0.2956 Z-0.0453
G1 X-0.4936 Y0.2948 Z-0.0429
G1 X-0.4928 Y0.2944 Z-0.0403
G1 X-0.4925 Y0.2942 Z-0.0375
G0 Z0.2
G0 X0.164 Y-0.0683
G1 Z0.0394 F10.
G1 Z-0.0375
G1 X0.1642 Y-0.0685 Z-0.0403
G1 X0.1651 Y-0.0689 Z-0.0429
G1 X0.1663 Y-0.0696 Z-0.0453
G1 X0.1681 Y-0.0706 Z-0.0473
G1 X0.1701 Y-0.0718 Z-0.0488
G1 X0.1724 Y-0.0731 Z-0.0497
G1 X0.1749 Y-0.0745 Z-0.05
G1 X0.1857 Y-0.0806 F20.
G3 X0.2028 Y-0.0759 I0.0062 J0.0109
G3 X0.5994 Y1.4315 I-2.6658 J1.5074 F40.
G2 X0.6619 Y1.494 I0.0625 J0.
G1 X0.8119
G2 X0.8744 Y1.4315 I0. J-0.0625
G2 X-0.7943 Y-1.4588 I-3.3375 J0.
G2 X-0.8797 Y-1.436 I-0.0313 J0.0541
G1 X-0.9547 Y-1.306
G2 X-0.9318 Y-1.2207 I0.0541 J0.0312
G3 X0.2028 Y-0.0759 I-1.5312 J2.6522
G3 X0.198 Y-0.0588 I-0.0109 J0.0062 F20.
G1 X0.1872 Y-0.0527
G1 X0.1847 Y-0.0513 Z-0.0497
G1 X0.1824 Y-0.05 Z-0.0488
G1 X0.1804 Y-0.0489 Z-0.0473
G1 X0.1787 Y-0.0479 Z-0.0453
G1 X0.1774 Y-0.0471 Z-0.0429
G1 X0.1766 Y-0.0467 Z-0.0403
G1 X0.1763 Y-0.0465 Z-0.0375
G0 Z0.2
G0 X0.4904 Y-0.236
G1 Z0.0394 F10.
G1 Z-0.0375
G1 X0.4906 Y-0.2362 Z-0.0403
G1 X0.4914 Y-0.2367 Z-0.0429
G1 X0.4927 Y-0.2374 Z-0.0453
G1 X0.4945 Y-0.2383 Z-0.0473
G1 X0.4965 Y-0.2395 Z-0.0488
G1 X0.4988 Y-0.2408 Z-0.0497
G1 X0.5013 Y-0.2422 Z-0.05
G1 X0.5122 Y-0.2483 F20.
G3 X0.5292 Y-0.2435 I0.0061 J0.0109
G3 X0.9205 Y1.2544 I-2.6712 J1.4978 F40.
G2 X0.983 Y1.3169 I0.0625 J0.
G1 X1.133
G2 X1.1955 Y1.2544 I0. J-0.0625
G2 X-0.4733 Y-1.636 I-3.3375 J0.
G2 X-0.5587 Y-1.6131 I-0.0312 J0.0541
G1 X-0.6337 Y-1.4832
G2 X-0.6108 Y-1.3978 I0.0541 J0.0312
G3 X0.5292 Y-0.2435 I-1.5312 J2.6522
G3 X0.5244 Y-0.2265 I-0.0109 J0.0061 F20.
G1 X0.5135 Y-0.2204
G1 X0.5111 Y-0.219 Z-0.0497
G1 X0.5088 Y-0.2177 Z-0.0488
G1 X0.5067 Y-0.2165 Z-0.0473
G1 X0.505 Y-0.2156 Z-0.0453
G1 X0.5037 Y-0.2148 Z-0.0429
G1 X0.5029 Y-0.2144 Z-0.0403
G1 X0.5026 Y-0.2142 Z-0.0375
G0 Z0.2
G0 X0.8167 Y-0.4038
G1 Z0.0394 F10.
G1 Z-0.0375
G1 X0.817 Y-0.4039 Z-0.0403
G1 X0.8178 Y-0.4044 Z-0.0429
G1 X0.8191 Y-0.4051 Z-0.0453
G1 X0.8208 Y-0.4061 Z-0.0473
G1 X0.8229 Y-0.4072 Z-0.0488
G1 X0.8252 Y-0.4085 Z-0.0497
G1 X0.8276 Y-0.4098 Z-0.05
G1 X0.8386 Y-0.4159 F20.
G3 X0.8555 Y-0.4111 I0.0061 J0.0109
G3 X1.2415 Y1.0772 I-2.6766 J1.4882 F40.
G2 X1.304 Y1.1397 I0.0625 J0.
G1 X1.454
G2 X1.5165 Y1.0772 I0. J-0.0625
G2 X-0.1523 Y-1.8132 I-3.3375 J0.
G2 X-0.2376 Y-1.7903 I-0.0313 J0.0541
G1 X-0.3126 Y-1.6604
G2 X-0.2898 Y-1.575 I0.0541 J0.0313
G3 X0.8555 Y-0.4111 I-1.5313 J2.6522
G3 X0.8507 Y-0.3941 I-0.0109 J0.0061 F20.
G1 X0.8398 Y-0.388
G1 X0.8373 Y-0.3866 Z-0.0497
G1 X0.835 Y-0.3854 Z-0.0488
G1 X0.833 Y-0.3842 Z-0.0473
G1 X0.8312 Y-0.3833 Z-0.0453
G1 X0.8299 Y-0.3825 Z-0.0429
G1 X0.8291 Y-0.3821 Z-0.0403
G1 X0.8288 Y-0.3819 Z-0.0375
G0 Z0.2
G0 X1.143 Y-0.5715
G1 Z0.0394 F10.
G1 Z-0.0375
G1 X1.1433 Y-0.5716 Z-0.0403
G1 X1.1441 Y-0.5721 Z-0.0429
G1 X1.1454 Y-0.5728 Z-0.0453
G1 X1.1471 Y-0.5738 Z-0.0473
G1 X1.1492 Y-0.5749 Z-0.0488
G1 X1.1515 Y-0.5762 Z-0.0497
G1 X1.154 Y-0.5775 Z-0.05
G1 X1.1649 Y-0.5836 F20.
G3 X1.1819 Y-0.5786 I0.006 J0.0109
G3 X1.5625 Y0.9 I-2.6819 J1.4786 F40.
G2 X1.625 Y0.9625 I0.0625 J0.
G1 X1.775
G2 X1.8375 Y0.9 I0. J-0.0625
G2 X0.1688 Y-1.9904 I-3.3375 J0.
G2 X0.0834 Y-1.9675 I-0.0313 J0.0541
G1 X0.0084 Y-1.8376
G2 X0.0312 Y-1.7522 I0.0541 J0.0313
G3 X1.1819 Y-0.5786 I-1.5313 J2.6522
G3 X1.177 Y-0.5617 I-0.0109 J0.006 F20.
G1 X1.166 Y-0.5556
G1 X1.1636 Y-0.5543 Z-0.0497
G1 X1.1613 Y-0.553 Z-0.0488
G1 X1.1592 Y-0.5519 Z-0.0473
G1 X1.1575 Y-0.5509 Z-0.0453
G1 X1.1562 Y-0.5502 Z-0.0429
G1 X1.1554 Y-0.5497 Z-0.0403
G1 X1.1551 Y-0.5496 Z-0.0375
G0 Z0.6
M5 M9

M30
%
