%
(1001)
(T1  D=0.25 CR=0. TAPER=45deg - ZMIN=0. - chamfer mill)
G90 G54 G64 G50 G17 G40 G80 G94 G91.1 G49
G20 (Inch)

N10(Trace1 2)
T1 G43 H1 M6
M5 M9 (SPINDLE IS OFF)
G54
G0 X0.1314 Y2.8224
G0 Z0.2
G0 Z0.15
G1 Z0. F5.
G1 X0.2724 Y2.7711
G1 Z0.15
G0 Z0.2
G0 X0.1543 Y2.8809
G0 Z0.15
G1 Z0. F5.
G1 X0.2465 Y2.8424
G1 Z0.15
G0 Z0.2
G0 X0.1798 Y2.9383
G0 Z0.15
G1 Z0. F5.
G1 X0.2702 Y2.8955
G1 Z0.15
G0 Z0.2
G0 X0.208 Y2.9945
G0 Z0.15
G1 Z0. F5.
G1 X0.2963 Y2.9475
G1 Z0.15
G0 Z0.2
G0 X0.2388 Y3.0492
G0 Z0.15
G1 Z0. F5.
G1 X0.3248 Y2.9982
G1 Z0.15
G0 Z0.2
G0 X0.2721 Y3.1025
G0 Z0.15
G1 Z0. F5.
G1 X0.3765 Y3.0338
G1 Z0.15
G0 Z0.2
G0 X0.3078 Y3.1542
G0 Z0.15
G1 Z0. F5.
G1 X0.3887 Y3.0954
G1 Z0.15
G0 Z0.2
G0 X0.3459 Y3.2041
G0 Z0.15
G1 Z0. F5.
G1 X0.424 Y3.1417
G1 Z0.15
G0 Z0.2
G0 X0.3863 Y3.2523
G0 Z0.15
G1 Z0. F5.
G1 X0.4614 Y3.1862
G1 Z0.15
G0 Z0.2
G0 X0.5706 Y3.1576
G0 Z0.15
G1 Z0. F5.
G1 X0.5725 Y3.1619
G1 X0.5751 Y3.1653
G1 X0.5798 Y3.1687
G1 X0.5859 Y3.1709
G1 X0.5914 Y3.1712
G1 X0.598 Y3.1699
G1 X0.6051 Y3.1666
G1 X0.6057 Y3.1662
G1 X0.607 Y3.1652
G1 X0.6089 Y3.1638
G1 X0.6115 Y3.1619
G1 X0.6185 Y3.1559
G1 X0.6247 Y3.149
G1 X0.6269 Y3.1462
G1 X0.6286 Y3.144
G1 X0.6298 Y3.1425
G1 X0.6303 Y3.1417
G1 X0.6342 Y3.1335
G1 X0.6351 Y3.1298
G1 X0.6356 Y3.1273
G1 X0.6352 Y3.121
G1 X0.6334 Y3.1162
G1 X0.6304 Y3.112
G1 X0.6257 Y3.108
G1 X0.6203 Y3.1057
G1 X0.6153 Y3.1054
G1 X0.609 Y3.1065
G1 X0.6044 Y3.1083
G1 X0.5985 Y3.1116
G1 X0.594 Y3.1148
G1 X0.5882 Y3.1199
G1 X0.5829 Y3.125
G1 X0.5788 Y3.1296
G1 X0.575 Y3.1346
G1 X0.5727 Y3.1383
G1 X0.5708 Y3.1432
G1 X0.5699 Y3.1486
G1 Y3.1536
G1 X0.5706 Y3.1576
G1 Z0.15
G0 Z0.2
G0 X0.5744 Y3.0534
G0 Z0.15
G1 Z0. F5.
G1 X0.5677 Y3.0453
G1 X0.5118 Y3.0914
G1 Z0.15
G0 Z0.2
G0 X0.7005 Y3.1806
G0 Z0.15
G1 Z0. F5.
G1 X0.6926 Y3.1736
G1 X0.6451 Y3.2284
G1 Z0.15
G0 Z0.2
G0 X0.7705 Y3.2574
G0 Z0.15
G1 Z0. F5.
G1 X0.7718 Y3.254
G1 X0.7732 Y3.2489
G1 X0.7728 Y3.2407
G1 X0.77 Y3.2341
G1 X0.7651 Y3.2286
G1 X0.7617 Y3.2263
G1 X0.758 Y3.2248
G1 X0.7537 Y3.224
G1 X0.7495 Y3.2241
G1 X0.7455 Y3.225
G1 X0.7415 Y3.2268
G1 X0.738 Y3.2291
G1 X0.7354 Y3.2317
G1 X0.7336 Y3.2346
G1 X0.7321 Y3.2383
G1 X0.7313 Y3.2405
G1 X0.7311 Y3.2415
G1 X0.7308 Y3.2448
G1 X0.7366 Y3.3004
G1 X0.7018 Y3.2749
G1 Z0.15
G0 Z0.2
G0 X0.5689 Y3.4245
G0 Z0.15
G1 Z0. F5.
G1 X0.6304 Y3.3457
G1 Z0.15
G0 Z0.2
G0 X0.5203 Y3.3847
G0 Z0.15
G1 Z0. F5.
G1 X0.5854 Y3.3088
G1 Z0.15
G0 Z0.2
G0 X0.4736 Y3.3426
G0 Z0.15
G1 Z0. F5.
G1 X0.5765 Y3.2335
G1 Z0.15
G0 Z0.2
G0 X0.4289 Y3.2985
G0 Z0.15
G1 Z0. F5.
G1 X0.5008 Y3.229
G1 Z0.15
G0 Z0.2
G0 X0.6193 Y3.462
G0 Z0.15
G1 Z0. F5.
G1 X0.6771 Y3.3804
G1 Z0.15
G0 Z0.2
G0 X0.6713 Y3.4971
G0 Z0.15
G1 Z0. F5.
G1 X0.7253 Y3.4129
G1 Z0.15
G0 Z0.2
G0 X0.725 Y3.5298
G0 Z0.15
G1 Z0. F5.
G1 X0.7875 Y3.4216
G1 Z0.15
G0 Z0.2
G0 X0.7801 Y3.5599
G0 Z0.15
G1 Z0. F5.
G1 X0.826 Y3.4711
G1 Z0.15
G0 Z0.2
G0 X0.8366 Y3.5875
G0 Z0.15
G1 Z0. F5.
G1 X0.8783 Y3.4966
G1 Z0.15
G0 Z0.2
G0 X0.8943 Y3.6124
G0 Z0.15
G1 Z0. F5.
G1 X0.9317 Y3.5196
G1 Z0.15
G0 Z0.2
G0 X0.9531 Y3.6345
G0 Z0.15
G1 Z0. F5.
G1 X0.9862 Y3.5402
G1 Z0.15
G0 Z0.2
G0 X1.0344 Y3.4512
G0 Z0.15
G1 Z0. F5.
G1 X1.0307 Y3.4377
G1 X1.0276 Y3.4261
G1 X1.0247 Y3.4147
G1 X1.0227 Y3.4062
G1 X1.0215 Y3.4006
G1 X1.0212 Y3.3979
G1 X1.022 Y3.3936
G1 X1.0238 Y3.389
G1 X1.0264 Y3.3847
G1 X1.0294 Y3.3814
G1 X1.0331 Y3.3789
G1 X1.0374 Y3.3772
G1 X1.0423 Y3.3764
G1 X1.0471 Y3.3767
G1 X1.0519 Y3.3783
G1 X1.0564 Y3.3812
G1 X1.0602 Y3.3853
G1 X1.0627 Y3.3903
G1 X1.0638 Y3.3958
G1 X1.0632 Y3.4018
G1 X1.0609 Y3.4078
G1 X1.0572 Y3.4127
G1 X1.0531 Y3.4157
G1 X1.0486 Y3.4175
G1 X1.0437 Y3.4179
G1 X1.038 Y3.4169
G1 X1.0332 Y3.4151
G1 X1.0291 Y3.4125
G1 X1.0255 Y3.4087
G1 X1.0229 Y3.4042
G1 X1.0213 Y3.3994
G1 Y3.3962
G1 Z0.15
G0 Z0.2
G0 X0.9731 Y3.3503
G0 Z0.15
G1 Z0. F5.
G1 X0.9635 Y3.346
G1 X0.9342 Y3.4122
G1 Z0.15
G0 Z0.2
G0 X1.1014 Y3.439
G0 Z0.15
G1 Z0. F5.
G1 X1.1003 Y3.445
G1 X1.0997 Y3.4513
G1 X1.0996 Y3.4557
G1 X1.1006 Y3.4608
G1 X1.1026 Y3.4659
G1 X1.1052 Y3.4701
G1 X1.1079 Y3.4732
G1 X1.1118 Y3.4758
G1 X1.1158 Y3.4774
G1 X1.1215 Y3.4779
G1 X1.1279 Y3.4766
G1 X1.1327 Y3.4739
G1 X1.1377 Y3.4693
G1 X1.142 Y3.4629
G1 X1.1423 Y3.4622
G1 X1.1429 Y3.4607
G1 X1.1438 Y3.4585
G1 X1.145 Y3.4555
G1 X1.1479 Y3.4468
G1 X1.1496 Y3.4376
G1 X1.15 Y3.434
G1 X1.1503 Y3.4313
G1 X1.1505 Y3.4295
G1 X1.1506 Y3.4285
G1 X1.1496 Y3.4194
G1 X1.1484 Y3.4158
G1 X1.1476 Y3.4134
G1 X1.144 Y3.4083
G1 X1.1399 Y3.4052
G1 X1.1351 Y3.4031
G1 X1.1291 Y3.4022
G1 X1.1233 Y3.403
G1 X1.1189 Y3.4053
G1 X1.114 Y3.4096
G1 X1.111 Y3.4135
G1 X1.1077 Y3.4194
G1 X1.1056 Y3.4245
G1 X1.1033 Y3.4318
G1 X1.1014 Y3.439
G1 Z0.15
G0 Z0.2
G0 X1.229 Y3.4239
G0 Z0.15
G1 Z0. F5.
G1 X1.2222 Y3.4212
G1 X1.2181 Y3.4207
G1 X1.2141 Y3.421
G1 X1.2099 Y3.4222
G1 X1.2062 Y3.4242
G1 X1.203 Y3.4268
G1 X1.2003 Y3.4302
G1 X1.1982 Y3.4338
G1 X1.197 Y3.4374
G1 X1.1967 Y3.4407
G1 X1.197 Y3.4447
G1 X1.1973 Y3.447
G1 X1.1975 Y3.4481
G1 X1.1988 Y3.4511
G1 X1.2289 Y3.4981
G1 X1.1864 Y3.491
G1 Z0.15
G0 Z0.2
G0 X1.2399 Y3.4446
G0 Z0.15
G1 Z0. F5.
G1 X1.2395 Y3.441
G1 X1.2386 Y3.4357
G1 X1.2344 Y3.4286
G1 X1.229 Y3.4239
G1 Z0.15
G0 Z0.2
G0 X1.4627 Y3.4366
G0 Z0.15
G1 Z0. F5.
G1 X1.4521 Y3.4371
G1 X1.4557 Y3.5094
G1 Z0.15
G0 Z0.2
G0 X1.5283 Y3.4894
G0 Z0.15
G1 Z0. F5.
G1 X1.5269 Y3.4844
G1 X1.527 Y3.4797
G1 X1.528 Y3.4758
G1 X1.5301 Y3.4718
G1 X1.5324 Y3.4689
G1 X1.5359 Y3.4657
G1 X1.5399 Y3.4634
G1 X1.5458 Y3.4618
G1 X1.5515 Y3.4602
G1 X1.5555 Y3.4577
G1 X1.5597 Y3.453
G1 X1.5621 Y3.4485
G1 X1.5633 Y3.444
G1 X1.5634 Y3.4404
G1 X1.5627 Y3.4377
G1 X1.5602 Y3.4332
G1 X1.5558 Y3.4295
G1 X1.5515 Y3.4275
G1 X1.5464 Y3.4266
G1 X1.5411 Y3.4269
G1 X1.5362 Y3.4284
G1 X1.5322 Y3.4308
G1 X1.5292 Y3.4339
G1 X1.5268 Y3.4381
G1 X1.5257 Y3.4426
G1 X1.5259 Y3.4467
G1 X1.5272 Y3.4507
G1 X1.53 Y3.4547
G1 X1.5345 Y3.4584
G1 X1.5392 Y3.4611
G1 X1.5428 Y3.4618
G1 X1.5488 Y3.4615
G1 X1.5544 Y3.462
G1 X1.5599 Y3.4636
G1 X1.5644 Y3.466
G1 X1.5686 Y3.4697
G1 X1.5713 Y3.4738
G1 X1.5727 Y3.4785
G1 X1.5724 Y3.4848
G1 X1.5704 Y3.4905
G1 X1.5668 Y3.4954
G1 X1.5615 Y3.4992
G1 X1.5547 Y3.5016
G1 X1.549 Y3.5024
G1 X1.5435 Y3.5019
G1 X1.5387 Y3.5004
G1 X1.5348 Y3.4981
G1 X1.5309 Y3.4942
G1 X1.5283 Y3.4894
G1 Z0.15
G0 Z0.2
G0 X1.6143 Y3.4312
G0 Z0.15
G1 Z0. F5.
G1 X1.6139 Y3.4379
G1 X1.6143 Y3.4434
G1 X1.6155 Y3.451
G1 X1.6171 Y3.4583
G1 X1.6189 Y3.4641
G1 X1.6211 Y3.4701
G1 X1.623 Y3.474
G1 X1.6261 Y3.4782
G1 X1.6303 Y3.4818
G1 X1.6345 Y3.4844
G1 X1.6383 Y3.4859
G1 X1.6429 Y3.4866
G1 X1.6473 Y3.4862
G1 X1.6526 Y3.484
G1 X1.6576 Y3.48
G1 X1.6608 Y3.4755
G1 X1.6632 Y3.4691
G1 X1.6641 Y3.4614
G1 Y3.4606
G1 X1.664 Y3.4591
G1 X1.6638 Y3.4567
G1 X1.6635 Y3.4535
G1 X1.6621 Y3.4444
G1 X1.6596 Y3.4355
G1 X1.6583 Y3.4321
G1 X1.6574 Y3.4295
G1 X1.6567 Y3.4277
G1 X1.6564 Y3.4268
G1 X1.6514 Y3.4192
G1 X1.6487 Y3.4165
G1 X1.6469 Y3.4147
G1 X1.6414 Y3.4118
G1 X1.6363 Y3.4108
G1 X1.6312 Y3.4111
G1 X1.6253 Y3.413
G1 X1.6205 Y3.4163
G1 X1.6176 Y3.4204
G1 X1.6152 Y3.4263
G1 X1.6143 Y3.4312
G1 Z0.15
G0 Z0.2
G0 X1.7434 Y3.4011
G0 Z0.15
G1 Z0. F5.
G1 X1.7414 Y3.3981
G1 X1.7382 Y3.3938
G1 X1.7313 Y3.3893
G1 X1.7244 Y3.3876
G1 X1.717 Y3.3882
G1 X1.7132 Y3.3896
G1 X1.7097 Y3.3917
G1 X1.7065 Y3.3946
G1 X1.7041 Y3.3981
G1 X1.7025 Y3.4019
G1 X1.7015 Y3.4061
G1 X1.7013 Y3.4102
G1 X1.7018 Y3.4139
G1 X1.7031 Y3.4171
G1 X1.7051 Y3.4205
G1 X1.7064 Y3.4224
G1 X1.7071 Y3.4233
G1 X1.7096 Y3.4254
G1 X1.7576 Y3.454
G1 X1.7164 Y3.4667
G1 Z0.15
G0 Z0.2
G0 X1.757 Y3.6626
G0 Z0.15
G1 Z0. F5.
G1 X1.7305 Y3.5662
G1 Z0.15
G0 Z0.2
G0 X1.696 Y3.6778
G0 Z0.15
G1 Z0. F5.
G1 X1.6741 Y3.5802
G1 Z0.15
G0 Z0.2
G0 X1.6344 Y3.6902
G0 Z0.15
G1 Z0. F5.
G1 X1.6084 Y3.5424
G1 Z0.15
G0 Z0.2
G0 X1.5723 Y3.6996
G0 Z0.15
G1 Z0. F5.
G1 X1.5596 Y3.6004
G1 Z0.15
G0 Z0.2
G0 X1.5098 Y3.7062
G0 Z0.15
G1 Z0. F5.
G1 X1.5017 Y3.6065
G1 Z0.15
G0 Z0.2
G0 X1.4471 Y3.7098
G0 Z0.15
G1 Z0. F5.
G1 X1.4436 Y3.6099
G1 Z0.15
G0 Z0.2
G0 X1.3843 Y3.7106
G0 Z0.15
G1 Z0. F5.
G1 X1.3855 Y3.6106
G1 Z0.15
G0 Z0.2
G0 X1.3215 Y3.7084
G0 Z0.15
G1 Z0. F5.
G1 X1.3288 Y3.5836
G1 Z0.15
G0 Z0.2
G0 X1.2589 Y3.7033
G0 Z0.15
G1 Z0. F5.
G1 X1.2693 Y3.6038
G1 Z0.15
G0 Z0.2
G0 X1.1966 Y3.6953
G0 Z0.15
G1 Z0. F5.
G1 X1.2116 Y3.5964
G1 Z0.15
G0 Z0.2
G0 X1.1347 Y3.6843
G0 Z0.15
G1 Z0. F5.
G1 X1.1544 Y3.5863
G1 Z0.15
G0 Z0.2
G0 X1.0734 Y3.6706
G0 Z0.15
G1 Z0. F5.
G1 X1.0976 Y3.5735
G1 Z0.15
G0 Z0.2
G0 X1.0128 Y3.654
G0 Z0.15
G1 Z0. F5.
G1 X1.0558 Y3.5103
G1 Z0.15
G0 Z0.2
G0 X1.8172 Y3.6446
G0 Z0.15
G1 Z0. F5.
G1 X1.7863 Y3.5495
G1 Z0.15
G0 Z0.2
G0 X1.8765 Y3.6238
G0 Z0.15
G1 Z0. F5.
G1 X1.8412 Y3.5302
G1 Z0.15
G0 Z0.2
G0 X1.9347 Y3.6003
G0 Z0.15
G1 Z0. F5.
G1 X1.8852 Y3.4855
G1 Z0.15
G0 Z0.2
G0 X1.9918 Y3.574
G0 Z0.15
G1 Z0. F5.
G1 X1.948 Y3.4842
G1 Z0.15
G0 Z0.2
G0 X2.0476 Y3.5452
G0 Z0.15
G1 Z0. F5.
G1 X1.9996 Y3.4574
G1 Z0.15
G0 Z0.2
G0 X2.102 Y3.5138
G0 Z0.15
G1 Z0. F5.
G1 X2.05 Y3.4284
G1 Z0.15
G0 Z0.2
G0 X2.1549 Y3.4799
G0 Z0.15
G1 Z0. F5.
G1 X2.099 Y3.397
G1 Z0.15
G0 Z0.2
G0 X2.2062 Y3.4435
G0 Z0.15
G1 Z0. F5.
G1 X2.1166 Y3.3232
G1 Z0.15
G0 Z0.2
G0 X2.1139 Y3.2597
G0 Z0.15
G1 Z0. F5.
G1 X2.118 Y3.2593
G1 X2.1224 Y3.2578
G1 X2.1261 Y3.2555
G1 X2.1299 Y3.2512
G1 X2.1326 Y3.2453
G1 X2.1334 Y3.2398
G1 X2.1327 Y3.2331
G1 X2.1301 Y3.2258
G1 X2.1297 Y3.2251
G1 X2.1289 Y3.2238
G1 X2.1276 Y3.2217
G1 X2.1259 Y3.219
G1 X2.1206 Y3.2115
G1 X2.1143 Y3.2047
G1 X2.1117 Y3.2022
G1 X2.1097 Y3.2003
G1 X2.1083 Y3.199
G1 X2.1076 Y3.1984
G1 X2.0997 Y3.1938
G1 X2.0961 Y3.1925
G1 X2.0937 Y3.1918
G1 X2.0874 Y3.1916
G1 X2.0825 Y3.193
G1 X2.078 Y3.1956
G1 X2.0736 Y3.1999
G1 X2.0709 Y3.2051
G1 X2.0701 Y3.21
G1 X2.0706 Y3.2164
G1 X2.0719 Y3.2211
G1 X2.0747 Y3.2273
G1 X2.0775 Y3.2321
G1 X2.082 Y3.2383
G1 X2.0866 Y3.2441
G1 X2.0908 Y3.2485
G1 X2.0955 Y3.2528
G1 X2.099 Y3.2555
G1 X2.1036 Y3.2578
G1 X2.109 Y3.2592
G1 X2.1139 Y3.2597
G1 Z0.15
G0 Z0.2
G0 X2.1507 Y3.1327
G0 Z0.15
G1 Z0. F5.
G1 X2.1445 Y3.1366
G1 X2.1417 Y3.1395
G1 X2.1395 Y3.143
G1 X2.138 Y3.1471
G1 X2.1373 Y3.1513
G1 X2.1376 Y3.1554
G1 X2.1386 Y3.1595
G1 X2.1403 Y3.1634
G1 X2.1424 Y3.1664
G1 X2.145 Y3.1687
G1 X2.1483 Y3.1709
G1 X2.1503 Y3.1719
G1 X2.1513 Y3.1724
G1 X2.1545 Y3.1732
G1 X2.2102 Y3.1772
G1 X2.1791 Y3.207
G1 Z0.15
G0 Z0.2
G0 X2.1738 Y3.1363
G0 Z0.15
G1 Z0. F5.
G1 X2.1707 Y3.1345
G1 X2.1659 Y3.1322
G1 X2.1577 Y3.1312
G1 X2.1507 Y3.1327
G1 Z0.15
G0 Z0.2
G0 X2.023 Y3.2402
G0 Z0.15
G1 Z0. F5.
G1 X1.9888 Y3.2635
G1 X2.0611 Y3.3019
G1 Z0.15
G0 Z0.2
G0 X1.9389 Y3.294
G0 Z0.15
G1 Z0. F5.
G1 X1.9297 Y3.2992
G1 X1.9653 Y3.3622
G1 Z0.15
G0 Z0.2
G0 X2.2557 Y3.4049
G0 Z0.15
G1 Z0. F5.
G1 X2.1923 Y3.3275
G1 Z0.15
G0 Z0.2
G0 X2.3033 Y3.3639
G0 Z0.15
G1 Z0. F5.
G1 X2.2364 Y3.2896
G1 Z0.15
G0 Z0.2
G0 X2.349 Y3.3208
G0 Z0.15
G1 Z0. F5.
G1 X2.2787 Y3.2497
G1 Z0.15
G0 Z0.2
G0 X2.3927 Y3.2756
G0 Z0.15
G1 Z0. F5.
G1 X2.3191 Y3.2078
G1 Z0.15
G0 Z0.2
G0 X2.4342 Y3.2284
G0 Z0.15
G1 Z0. F5.
G1 X2.3384 Y3.1481
G1 Z0.15
G0 Z0.2
G0 X2.4734 Y3.1794
G0 Z0.15
G1 Z0. F5.
G1 X2.3939 Y3.1187
G1 Z0.15
G0 Z0.2
G0 X2.5103 Y3.1286
G0 Z0.15
G1 Z0. F5.
G1 X2.4281 Y3.0717
G1 Z0.15
G0 Z0.2
G0 X2.5449 Y3.0761
G0 Z0.15
G1 Z0. F5.
G1 X2.4601 Y3.0231
G1 Z0.15
G0 Z0.2
G0 X2.3993 Y2.9278
G0 Z0.15
G1 Z0. F5.
G1 X2.3936 Y2.9306
G1 X2.3876 Y2.9315
G1 X2.3825 Y2.9307
G1 X2.3774 Y2.9283
G1 X2.3727 Y2.9245
G1 X2.3696 Y2.9197
G1 X2.3679 Y2.914
G1 X2.3682 Y2.9077
G1 X2.3699 Y2.9029
G1 X2.3734 Y2.8975
G1 X2.3759 Y2.895
G1 X2.3789 Y2.8929
G1 X2.3827 Y2.8913
G1 X2.3871 Y2.8902
G1 Z0.15
G0 Z0.2
G0 X2.3875 Y2.8901
G0 Z0.15
G1 Z0. F5.
G1 X2.3919 Y2.8905
G1 X2.3951 Y2.8913
G1 X2.4003 Y2.894
G1 X2.4042 Y2.8977
G1 X2.4071 Y2.9025
G1 X2.4084 Y2.908
G1 X2.4082 Y2.9136
G1 X2.4064 Y2.9191
G1 X2.4034 Y2.924
G1 X2.3993 Y2.9278
G1 Z0.15
G0 Z0.2
G0 X2.3831 Y2.8902
G0 Z0.15
G1 Z0. F5.
G1 X2.3875 Y2.8901
G1 Z0.15
G0 Z0.2
G0 X2.3356 Y2.8929
G0 Z0.15
G1 Z0. F5.
G1 X2.3831 Y2.8902
G1 Z0.15
G0 Z0.2
G0 X2.4033 Y2.8389
G0 Z0.15
G1 Z0. F5.
G1 X2.4101 Y2.842
G1 X2.4158 Y2.8441
G1 X2.4219 Y2.8458
G1 X2.4262 Y2.8466
G1 X2.4314
G1 X2.4368 Y2.8454
G1 X2.4414 Y2.8436
G1 X2.4449 Y2.8415
G1 X2.4482 Y2.8382
G1 X2.4504 Y2.8344
G1 X2.4519 Y2.8289
G1 X2.4517 Y2.8225
G1 X2.4499 Y2.8172
G1 X2.4463 Y2.8115
G1 X2.4407 Y2.8061
G1 X2.44 Y2.8057
G1 X2.4387 Y2.8048
G1 X2.4367 Y2.8036
G1 X2.4339 Y2.8019
G1 X2.4258 Y2.7976
G1 X2.4171 Y2.7943
G1 X2.4137 Y2.7932
G1 X2.411 Y2.7925
G1 X2.4092 Y2.7919
G1 X2.4083 Y2.7917
G1 X2.3992 Y2.7912
G1 X2.3954 Y2.7916
G1 X2.3929 Y2.7921
G1 X2.3872 Y2.7947
G1 X2.3835 Y2.7982
G1 X2.3806 Y2.8025
G1 X2.3786 Y2.8083
G1 X2.3785 Y2.8142
G1 X2.38 Y2.8189
G1 X2.3833 Y2.8244
G1 X2.3866 Y2.8281
G1 X2.3919 Y2.8324
G1 X2.3965 Y2.8353
G1 X2.4033 Y2.8389
G1 Z0.15
G0 Z0.2
G0 X2.4396 Y2.7065
G0 Z0.15
G1 Z0. F5.
G1 X2.436 Y2.7063
G1 X2.4307 Y2.7064
G1 X2.4229 Y2.7092
G1 X2.4174 Y2.7137
G1 X2.4135 Y2.7199
G1 X2.4123 Y2.7238
G1 X2.412 Y2.7279
G1 X2.4124 Y2.7322
G1 X2.4137 Y2.7362
G1 X2.4158 Y2.7398
G1 X2.4186 Y2.7431
G1 X2.4218 Y2.7458
G1 X2.4251 Y2.7475
G1 X2.4284 Y2.7484
G1 X2.4323 Y2.7488
G1 X2.4346 Y2.7489
G1 X2.4357
G1 X2.439 Y2.7482
G1 X2.4905 Y2.7267
G1 X2.4761 Y2.7673
G1 Z0.15
G0 Z0.2
G0 X2.6575 Y2.8518
G0 Z0.15
G1 Z0. F5.
G1 X2.5644 Y2.8154
G1 Z0.15
G0 Z0.2
G0 X2.679 Y2.7928
G0 Z0.15
G1 Z0. F5.
G1 X2.5842 Y2.7607
G1 Z0.15
G0 Z0.2
G0 X2.6977 Y2.7328
G0 Z0.15
G1 Z0. F5.
G1 X2.6016 Y2.7052
G1 Z0.15
G0 Z0.2
G0 X2.7136 Y2.672
G0 Z0.15
G1 Z0. F5.
G1 X2.592 Y2.6432
G1 Z0.15
G0 Z0.2
G0 X2.7267 Y2.6105
G0 Z0.15
G1 Z0. F5.
G1 X2.6284 Y2.592
G1 Z0.15
G0 Z0.2
G0 X2.7369 Y2.5486
G0 Z0.15
G1 Z0. F5.
G1 X2.6378 Y2.5346
G1 Z0.15
G0 Z0.2
G0 X2.7442 Y2.4861
G0 Z0.15
G1 Z0. F5.
G1 X2.6446 Y2.4769
G1 Z0.15
G0 Z0.2
G0 X2.5497 Y2.4146
G0 Z0.15
G1 Z0. F5.
G1 X2.5513 Y2.4078
G1 X2.5507 Y2.4019
G1 X2.5485 Y2.396
G1 X2.5446 Y2.391
G1 X2.5413 Y2.3886
G1 X2.5389 Y2.3872
G1 X2.5378 Y2.3866
G1 Z0.15
G0 Z0.2
G0 X2.5309 Y2.3356
G0 Z0.15
G1 Z0. F5.
G1 X2.5351 Y2.3344
G1 X2.5398 Y2.332
G1 X2.5441 Y2.3286
G1 X2.5474 Y2.3249
G1 X2.5495 Y2.3214
G1 X2.551 Y2.3169
G1 X2.5513 Y2.3126
G1 X2.5502 Y2.307
G1 X2.5471 Y2.3013
G1 X2.5431 Y2.2974
G1 X2.5373 Y2.294
G1 X2.5299 Y2.2917
G1 X2.5291 Y2.2916
G1 X2.5276 Y2.2914
G1 X2.5252 Y2.2912
G1 X2.522 Y2.2909
G1 X2.5128 Y2.2907
G1 X2.5036 Y2.2917
G1 X2.5 Y2.2923
G1 X2.4973 Y2.2928
G1 X2.4954 Y2.2931
G1 X2.4945 Y2.2933
G1 X2.4861 Y2.2969
G1 X2.4829 Y2.2991
G1 X2.4809 Y2.3006
G1 X2.477 Y2.3055
G1 X2.4752 Y2.3103
G1 X2.4746 Y2.3154
G1 X2.4754 Y2.3215
G1 X2.4779 Y2.3268
G1 X2.4814 Y2.3304
G1 X2.4868 Y2.3338
G1 X2.4915 Y2.3356
G1 X2.4981 Y2.337
G1 X2.5035 Y2.3376
G1 X2.5112 Y2.3377
G1 X2.5187 Y2.3375
G1 X2.5247 Y2.3367
G1 X2.5309 Y2.3356
G1 Z0.15
G0 Z0.2
G0 X2.4669 Y2.2269
G0 Z0.15
G1 Z0. F5.
G1 X2.4676 Y2.2309
G1 X2.4691 Y2.2347
G1 X2.4715 Y2.2383
G1 X2.4744 Y2.2413
G1 X2.4779 Y2.2436
G1 X2.4819 Y2.2453
G1 X2.4859 Y2.2462
G1 X2.4897 Y2.2463
G1 X2.493 Y2.2457
G1 X2.4967 Y2.2442
G1 X2.4988 Y2.2433
G1 X2.4998 Y2.2428
G1 X2.5024 Y2.2407
G1 X2.5388 Y2.1984
G1 X2.5441 Y2.2411
G1 Z0.15
G0 Z0.2
G0 X2.4843 Y2.2031
G0 Z0.15
G1 Z0. F5.
G1 X2.4809 Y2.2046
G1 X2.4762 Y2.207
G1 X2.4705 Y2.213
G1 X2.4676 Y2.2195
G1 X2.4669 Y2.2269
G1 Z0.15
G0 Z0.2
G0 X2.4754 Y2.4259
G0 Z0.15
G1 Z0. F5.
G1 X2.4766 Y2.3984
G1 X2.5076 Y2.3932
G1 X2.5064 Y2.3975
G1 X2.5051 Y2.4041
G1 X2.505 Y2.4101
G1 X2.5058 Y2.4148
G1 X2.5078 Y2.4195
G1 X2.5104 Y2.4232
G1 X2.5148 Y2.4267
G1 X2.5204 Y2.4289
G1 X2.5257 Y2.4296
G1 X2.5315 Y2.429
G1 X2.5373 Y2.4272
G1 X2.5424 Y2.4241
G1 X2.5468 Y2.4197
G1 X2.5497 Y2.4146
G1 Z0.15
G0 Z0.2
G0 X2.4704 Y2.4858
G0 Z0.15
G1 Z0. F5.
G1 X2.4691 Y2.4963
G1 X2.541 Y2.5053
G1 Z0.15
G0 Z0.2
G0 X2.7485 Y2.4235
G0 Z0.15
G1 Z0. F5.
G1 X2.6486 Y2.4188
G1 Z0.15
G0 Z0.2
G0 X2.75 Y2.3607
G0 Z0.15
G1 Z0. F5.
G1 X2.6
G1 Z0.15
G0 Z0.2
G0 X2.7485 Y2.2979
G0 Z0.15
G1 Z0. F5.
G1 X2.6486 Y2.3025
G1 Z0.15
G0 Z0.2
G0 X2.7442 Y2.2352
G0 Z0.15
G1 Z0. F5.
G1 X2.6446 Y2.2445
G1 Z0.15
G0 Z0.2
G0 X2.7369 Y2.1728
G0 Z0.15
G1 Z0. F5.
G1 X2.6378 Y2.1867
G1 Z0.15
G0 Z0.2
G0 X2.7267 Y2.1108
G0 Z0.15
G1 Z0. F5.
G1 X2.6284 Y2.1293
G1 Z0.15
G0 Z0.2
G0 X2.7136 Y2.0493
G0 Z0.15
G1 Z0. F5.
G1 X2.592 Y2.0782
G1 Z0.15
G0 Z0.2
G0 X2.6977 Y1.9886
G0 Z0.15
G1 Z0. F5.
G1 X2.6016 Y2.0161
G1 Z0.15
G0 Z0.2
G0 X2.679 Y1.9286
G0 Z0.15
G1 Z0. F5.
G1 X2.5842 Y1.9606
G1 Z0.15
G0 Z0.2
G0 X2.6575 Y1.8695
G0 Z0.15
G1 Z0. F5.
G1 X2.5644 Y1.9059
G1 Z0.15
G0 Z0.2
G0 X2.4542 Y1.9007
G0 Z0.15
G1 Z0. F5.
G1 X2.3862 Y1.9313
G1 X2.4225 Y1.876
G1 X2.4412 Y1.9174
G1 Z0.15
G0 Z0.2
G0 X2.4127 Y1.9921
G0 Z0.15
G1 Z0. F5.
G1 X2.4163 Y2.002
G1 X2.4845 Y1.9778
G1 Z0.15
G0 Z0.2
G0 X2.3893 Y1.8379
G0 Z0.15
G1 Z0. F5.
G1 X2.3943 Y1.8345
G1 X2.3994 Y1.8307
G1 X2.4026 Y1.8277
G1 X2.4057 Y1.8235
G1 X2.408 Y1.8185
G1 X2.4093 Y1.8137
G1 X2.4096 Y1.8096
G1 X2.4089 Y1.805
G1 X2.4073 Y1.801
G1 X2.4037 Y1.7965
G1 X2.3984 Y1.7928
G1 X2.3932 Y1.7911
G1 X2.3864 Y1.7906
G1 X2.3787 Y1.7919
G1 X2.378 Y1.7922
G1 X2.3765 Y1.7927
G1 X2.3743 Y1.7936
G1 X2.3713 Y1.7948
G1 X2.363 Y1.7987
G1 X2.3552 Y1.8038
G1 X2.3523 Y1.8059
G1 X2.3501 Y1.8075
G1 X2.3486 Y1.8087
G1 X2.3479 Y1.8093
G1 X2.342 Y1.8162
G1 X2.3401 Y1.8196
G1 X2.339 Y1.8218
G1 X2.3377 Y1.828
G1 X2.3382 Y1.8331
G1 X2.34 Y1.8379
G1 X2.3435 Y1.843
G1 X2.3481 Y1.8466
G1 X2.3528 Y1.8483
G1 X2.3592 Y1.8489
G1 X2.3641 Y1.8484
G1 X2.3707 Y1.8467
G1 X2.3758 Y1.8448
G1 X2.3827 Y1.8415
G1 X2.3893 Y1.8379
G1 Z0.15
G0 Z0.2
G0 X2.2982 Y1.7333
G0 Z0.15
G1 Z0. F5.
G1 X2.2959 Y1.7361
G1 X2.2928 Y1.7403
G1 X2.2904 Y1.7483
G1 X2.2907 Y1.7554
G1 X2.2934 Y1.7623
G1 X2.2958 Y1.7655
G1 X2.2989 Y1.7683
G1 X2.3026 Y1.7705
G1 X2.3066 Y1.7718
G1 X2.3107 Y1.7723
G1 X2.315 Y1.772
G1 X2.3191 Y1.771
G1 X2.3224 Y1.7694
G1 X2.3251 Y1.7674
G1 X2.3278 Y1.7644
G1 X2.3292 Y1.7626
G1 X2.3299 Y1.7617
G1 X2.3313 Y1.7587
G1 X2.3448 Y1.7046
G1 X2.3688 Y1.7404
G1 Z0.15
G0 Z0.2
G0 X2.5449 Y1.6453
G0 Z0.15
G1 Z0. F5.
G1 X2.4601 Y1.6983
G1 Z0.15
G0 Z0.2
G0 X2.5103 Y1.5928
G0 Z0.15
G1 Z0. F5.
G1 X2.4281 Y1.6497
G1 Z0.15
G0 Z0.2
G0 X2.4734 Y1.542
G0 Z0.15
G1 Z0. F5.
G1 X2.3939 Y1.6026
G1 Z0.15
G0 Z0.2
G0 X2.4342 Y1.4929
G0 Z0.15
G1 Z0. F5.
G1 X2.3384 Y1.5733
G1 Z0.15
G0 Z0.2
G0 X2.3927 Y1.4457
G0 Z0.15
G1 Z0. F5.
G1 X2.3191 Y1.5135
G1 Z0.15
G0 Z0.2
G0 X2.349 Y1.4005
G0 Z0.15
G1 Z0. F5.
G1 X2.2787 Y1.4717
G1 Z0.15
G0 Z0.2
G0 X2.3033 Y1.3574
G0 Z0.15
G1 Z0. F5.
G1 X2.2364 Y1.4317
G1 Z0.15
G0 Z0.2
G0 X2.2557 Y1.3165
G0 Z0.15
G1 Z0. F5.
G1 X2.1923 Y1.3938
G1 Z0.15
G0 Z0.2
G0 X2.2062 Y1.2778
G0 Z0.15
G1 Z0. F5.
G1 X2.1166 Y1.3981
G1 Z0.15
G0 Z0.2
G0 X2.0565 Y1.4189
G0 Z0.15
G1 Z0. F5.
G1 X2.0549 Y1.4151
G1 X2.0522 Y1.4113
G1 X2.049 Y1.4085
G1 X2.0438 Y1.4061
G1 X2.0374 Y1.4051
G1 X2.0319 Y1.406
G1 X2.0257 Y1.4086
G1 X2.0194 Y1.4132
G1 X2.0189 Y1.4137
G1 X2.0178 Y1.4149
G1 X2.0162 Y1.4167
G1 X2.0141 Y1.419
G1 X2.0084 Y1.4263
G1 X2.0037 Y1.4343
G1 X2.002 Y1.4375
G1 X2.0008 Y1.44
G1 X2. Y1.4416
G1 X1.9996 Y1.4425
G1 X1.9975 Y1.4514
G1 X1.9973 Y1.4552
G1 Y1.4578
G1 X1.9989 Y1.4638
G1 X2.0017 Y1.4681
G1 X2.0054 Y1.4717
G1 X2.0108 Y1.4746
G1 X2.0165 Y1.4758
G1 X2.0215 Y1.4752
G1 X2.0275 Y1.4728
G1 X2.0316 Y1.4702
G1 X2.0368 Y1.4658
G1 X2.0405 Y1.4617
G1 X2.0452 Y1.4556
G1 X2.0494 Y1.4495
G1 X2.0524 Y1.4442
G1 X2.0552 Y1.4385
G1 X2.0568 Y1.4344
G1 X2.0577 Y1.4293
G1 X2.0574 Y1.4238
G1 X2.0565 Y1.4189
G1 Z0.15
G0 Z0.2
G0 X2.0711 Y1.5027
G0 Z0.15
G1 Z0. F5.
G1 X2.0705 Y1.51
G1 X2.0708 Y1.515
G1 X2.073 Y1.5204
G1 X2.0773 Y1.5252
G1 X2.0833 Y1.5285
G1 X2.0901 Y1.5295
G1 X2.0967 Y1.5279
G1 X2.1019 Y1.5236
G1 X2.1038 Y1.5207
G1 X2.1049 Y1.5176
G1 X2.1052 Y1.5142
G1 X2.1048 Y1.5106
G1 X2.1025 Y1.5044
G1 X2.0982 Y1.4986
G1 X2.1032 Y1.5012
G1 X2.1078 Y1.503
G1 X2.1121 Y1.5041
G1 X2.1161 Y1.5045
G1 X2.1197 Y1.5041
G1 X2.1229 Y1.503
G1 X2.1259 Y1.5012
G1 X2.1284 Y1.4986
G1 X2.1315 Y1.4941
G1 X2.1334 Y1.4895
G1 X2.1342 Y1.4849
G1 X2.1338 Y1.4802
G1 X2.1325 Y1.4758
G1 X2.1302 Y1.4717
G1 X2.1271 Y1.4677
G1 X2.123 Y1.464
G1 X2.1173 Y1.461
G1 X2.1107 Y1.4606
G1 X2.1053 Y1.4619
G1 X2.0983 Y1.4646
G1 Z0.15
G0 Z0.2
G0 X2.1396 Y1.5768
G0 Z0.15
G1 Z0. F5.
G1 X2.1472 Y1.5841
G1 X2.1974 Y1.5318
G1 Z0.15
G0 Z0.2
G0 X2.1549 Y1.2415
G0 Z0.15
G1 Z0. F5.
G1 X2.099 Y1.3244
G1 Z0.15
G0 Z0.2
G0 X2.102 Y1.2076
G0 Z0.15
G1 Z0. F5.
G1 X2.05 Y1.293
G1 Z0.15
G0 Z0.2
G0 X2.0476 Y1.1761
G0 Z0.15
G1 Z0. F5.
G1 X1.9996 Y1.2639
G1 Z0.15
G0 Z0.2
G0 X1.9918 Y1.1473
G0 Z0.15
G1 Z0. F5.
G1 X1.948 Y1.2372
G1 Z0.15
G0 Z0.2
G0 X1.9347 Y1.1211
G0 Z0.15
G1 Z0. F5.
G1 X1.8852 Y1.2359
G1 Z0.15
G0 Z0.2
G0 X1.8765 Y1.0975
G0 Z0.15
G1 Z0. F5.
G1 X1.8412 Y1.1911
G1 Z0.15
G0 Z0.2
G0 X1.8172 Y1.0767
G0 Z0.15
G1 Z0. F5.
G1 X1.7863 Y1.1718
G1 Z0.15
G0 Z0.2
G0 X1.757 Y1.0587
G0 Z0.15
G1 Z0. F5.
G1 X1.7305 Y1.1552
G1 Z0.15
G0 Z0.2
G0 X1.696 Y1.0435
G0 Z0.15
G1 Z0. F5.
G1 X1.6741 Y1.1411
G1 Z0.15
G0 Z0.2
G0 X1.6344 Y1.0312
G0 Z0.15
G1 Z0. F5.
G1 X1.6084 Y1.1789
G1 Z0.15
G0 Z0.2
G0 X1.564 Y1.2245
G0 Z0.15
G1 Z0. F5.
G1 X1.5609 Y1.2218
G1 X1.5568 Y1.2196
G1 X1.5526 Y1.2185
G1 X1.5469 Y1.2187
G1 X1.5408 Y1.2207
G1 X1.5362 Y1.2239
G1 X1.5318 Y1.229
G1 X1.5283 Y1.236
G1 X1.528 Y1.2367
G1 X1.5276 Y1.2382
G1 X1.527 Y1.2405
G1 X1.5261 Y1.2436
G1 X1.5243 Y1.2526
G1 X1.5237 Y1.2619
G1 Y1.2655
G1 Y1.2683
G1 Y1.2701
G1 Y1.2711
G1 X1.5258 Y1.28
G1 X1.5274 Y1.2835
G1 X1.5285 Y1.2857
G1 X1.5327 Y1.2904
G1 X1.5371 Y1.293
G1 X1.5421 Y1.2945
G1 X1.5482 Y1.2948
G1 X1.5538 Y1.2932
G1 X1.558 Y1.2904
G1 X1.5623 Y1.2857
G1 X1.5648 Y1.2814
G1 X1.5674 Y1.2752
G1 X1.5689 Y1.2699
G1 X1.5704 Y1.2623
G1 X1.5714 Y1.255
G1 X1.5717 Y1.2489
G1 Y1.2426
G1 X1.5712 Y1.2382
G1 X1.5697 Y1.2332
G1 X1.567 Y1.2284
G1 X1.564 Y1.2245
G1 Z0.15
G0 Z0.2
G0 X1.4332 Y1.2655
G0 Z0.15
G1 Z0. F5.
G1 X1.434 Y1.269
G1 X1.4356 Y1.2741
G1 X1.4405 Y1.2808
G1 X1.4464 Y1.2848
G1 X1.4535 Y1.2867
G1 X1.4576
G1 X1.4616 Y1.2859
G1 X1.4656 Y1.2842
G1 X1.4691 Y1.2818
G1 X1.4719 Y1.2788
G1 X1.4742 Y1.2752
G1 X1.4759 Y1.2714
G1 X1.4766 Y1.2677
G1 X1.4765 Y1.2643
G1 X1.4758 Y1.2604
G1 X1.4752 Y1.2582
G1 X1.4749 Y1.2571
G1 X1.4733 Y1.2542
G1 X1.4379 Y1.211
G1 X1.481 Y1.2132
G1 Z0.15
G0 Z0.2
G0 X1.6141 Y1.2861
G0 Z0.15
G1 Z0. F5.
G1 X1.6143 Y1.2897
G1 X1.615 Y1.295
G1 X1.6188 Y1.3024
G1 X1.6239 Y1.3073
G1 X1.6306 Y1.3104
G1 X1.6346 Y1.3111
G1 X1.6387 Y1.3109
G1 X1.6429 Y1.31
G1 X1.6468 Y1.3082
G1 X1.6501 Y1.3057
G1 X1.653 Y1.3025
G1 X1.6552 Y1.299
G1 X1.6566 Y1.2955
G1 X1.6571 Y1.2921
G1 X1.657 Y1.2881
G1 X1.6567 Y1.2858
G1 X1.6566 Y1.2848
G1 X1.6555 Y1.2816
G1 X1.6278 Y1.2332
G1 X1.6699 Y1.2424
G1 Z0.15
G0 Z0.2
G0 X1.7091 Y1.3282
G0 Z0.15
G1 Z0. F5.
G1 X1.7192 Y1.3313
G1 X1.7406 Y1.2621
G1 Z0.15
G0 Z0.2
G0 X1.9211 Y1.3969
G0 Z0.15
G1 Z0. F5.
G1 X1.9203 Y1.4004
G1 X1.9194 Y1.4056
G1 X1.9208 Y1.4138
G1 X1.9243 Y1.42
G1 X1.9298 Y1.4249
G1 X1.9334 Y1.4268
G1 X1.9374 Y1.4279
G1 X1.9417 Y1.4282
G1 X1.9459 Y1.4276
G1 X1.9498 Y1.4262
G1 X1.9535 Y1.424
G1 X1.9567 Y1.4213
G1 X1.959 Y1.4183
G1 X1.9604 Y1.4153
G1 X1.9615 Y1.4114
G1 X1.962 Y1.4092
G1 X1.9622 Y1.4081
G1 X1.962 Y1.4048
G1 X1.9499 Y1.3503
G1 X1.9873 Y1.3715
G1 Z0.15
G0 Z0.2
G0 X1.5723 Y1.0217
G0 Z0.15
G1 Z0. F5.
G1 X1.5596 Y1.1209
G1 Z0.15
G0 Z0.2
G0 X1.5098 Y1.0151
G0 Z0.15
G1 Z0. F5.
G1 X1.5017 Y1.1148
G1 Z0.15
G0 Z0.2
G0 X1.4471 Y1.0115
G0 Z0.15
G1 Z0. F5.
G1 X1.4436 Y1.1114
G1 Z0.15
G0 Z0.2
G0 X1.3843 Y1.0108
G0 Z0.15
G1 Z0. F5.
G1 X1.3855 Y1.1108
G1 Z0.15
G0 Z0.2
G0 X1.3215 Y1.013
G0 Z0.15
G1 Z0. F5.
G1 X1.3288 Y1.1377
G1 Z0.15
G0 Z0.2
G0 X1.2589 Y1.0181
G0 Z0.15
G1 Z0. F5.
G1 X1.2693 Y1.1175
G1 Z0.15
G0 Z0.2
G0 X1.1966 Y1.0261
G0 Z0.15
G1 Z0. F5.
G1 X1.2116 Y1.1249
G1 Z0.15
G0 Z0.2
G0 X1.1347 Y1.037
G0 Z0.15
G1 Z0. F5.
G1 X1.1544 Y1.135
G1 Z0.15
G0 Z0.2
G0 X1.0734 Y1.0508
G0 Z0.15
G1 Z0. F5.
G1 X1.0976 Y1.1478
G1 Z0.15
G0 Z0.2
G0 X1.0128 Y1.0674
G0 Z0.15
G1 Z0. F5.
G1 X1.0558 Y1.2111
G1 Z0.15
G0 Z0.2
G0 X1.0366 Y1.2717
G0 Z0.15
G1 Z0. F5.
G1 X1.0327 Y1.2707
G1 X1.028 Y1.2706
G1 X1.0238 Y1.2715
G1 X1.0187 Y1.2742
G1 X1.0142 Y1.2788
G1 X1.0115 Y1.2837
G1 X1.0099 Y1.2903
G1 Y1.298
G1 X1.01 Y1.2988
G1 X1.0103 Y1.3003
G1 X1.0107 Y1.3027
G1 X1.0114 Y1.3058
G1 X1.0138 Y1.3147
G1 X1.0174 Y1.3233
G1 X1.019 Y1.3265
G1 X1.0203 Y1.329
G1 X1.0211 Y1.3306
G1 X1.0216 Y1.3315
G1 X1.0274 Y1.3385
G1 X1.0304 Y1.3409
G1 X1.0324 Y1.3424
G1 X1.0383 Y1.3447
G1 X1.0434 Y1.3451
G1 X1.0485 Y1.3442
G1 X1.054 Y1.3416
G1 X1.0584 Y1.3377
G1 X1.0608 Y1.3334
G1 X1.0626 Y1.3272
G1 X1.0629 Y1.3223
G1 X1.0624 Y1.3155
G1 X1.0614 Y1.3101
G1 X1.0593 Y1.3027
G1 X1.0569 Y1.2956
G1 X1.0545 Y1.2901
G1 X1.0516 Y1.2844
G1 X1.0492 Y1.2808
G1 X1.0457 Y1.277
G1 X1.0411 Y1.2739
G1 X1.0366 Y1.2717
G1 Z0.15
G0 Z0.2
G0 X0.9381 Y1.3671
G0 Z0.15
G1 Z0. F5.
G1 X0.9404 Y1.3699
G1 X0.9441 Y1.3737
G1 X0.9515 Y1.3775
G1 X0.9586 Y1.3784
G1 X0.9658 Y1.3769
G1 X0.9695 Y1.3751
G1 X0.9727 Y1.3726
G1 X0.9755 Y1.3693
G1 X0.9775 Y1.3656
G1 X0.9787 Y1.3616
G1 X0.9792 Y1.3574
G1 X0.9789 Y1.3532
G1 X0.9779 Y1.3496
G1 X0.9763 Y1.3466
G1 X0.9739 Y1.3434
G1 X0.9724 Y1.3417
G1 X0.9716 Y1.3409
G1 X0.9689 Y1.339
G1 X0.9179 Y1.3163
G1 X0.9573 Y1.2989
G1 Z0.15
G0 Z0.2
G0 X1.1253 Y1.3185
G0 Z0.15
G1 Z0. F5.
G1 X1.1356 Y1.3159
G1 X1.1177 Y1.2457
G1 Z0.15
G0 Z0.2
G0 X1.2129 Y1.2993
G0 Z0.15
G1 Z0. F5.
G1 X1.2233 Y1.2976
G1 X1.2113 Y1.2261
G1 Z0.15
G0 Z0.2
G0 X0.9531 Y1.0868
G0 Z0.15
G1 Z0. F5.
G1 X0.9862 Y1.1812
G1 Z0.15
G0 Z0.2
G0 X0.8943 Y1.109
G0 Z0.15
G1 Z0. F5.
G1 X0.9317 Y1.2017
G1 Z0.15
G0 Z0.2
G0 X0.8366 Y1.1339
G0 Z0.15
G1 Z0. F5.
G1 X0.8783 Y1.2247
G1 Z0.15
G0 Z0.2
G0 X0.7801 Y1.1614
G0 Z0.15
G1 Z0. F5.
G1 X0.826 Y1.2502
G1 Z0.15
G0 Z0.2
G0 X0.725 Y1.1915
G0 Z0.15
G1 Z0. F5.
G1 X0.7875 Y1.2998
G1 Z0.15
G0 Z0.2
G0 X0.6713 Y1.2242
G0 Z0.15
G1 Z0. F5.
G1 X0.7253 Y1.3084
G1 Z0.15
G0 Z0.2
G0 X0.6193 Y1.2593
G0 Z0.15
G1 Z0. F5.
G1 X0.6771 Y1.3409
G1 Z0.15
G0 Z0.2
G0 X0.5689 Y1.2969
G0 Z0.15
G1 Z0. F5.
G1 X0.6304 Y1.3757
G1 Z0.15
G0 Z0.2
G0 X0.6526 Y1.4864
G0 Z0.15
G1 Z0. F5.
G1 X0.6483 Y1.488
G1 X0.6446 Y1.4904
G1 X0.641 Y1.4948
G1 X0.6385 Y1.5008
G1 X0.6379 Y1.5063
G1 X0.6388 Y1.513
G1 X0.6417 Y1.5202
G1 X0.6421 Y1.5209
G1 X0.6429 Y1.5222
G1 X0.6442 Y1.5242
G1 X0.646 Y1.5269
G1 X0.6515 Y1.5342
G1 X0.6581 Y1.5408
G1 X0.6608 Y1.5432
G1 X0.6628 Y1.5451
G1 X0.6642 Y1.5463
G1 X0.665 Y1.5469
G1 X0.673 Y1.5512
G1 X0.6767 Y1.5524
G1 X0.6791 Y1.553
G1 X0.6854 Y1.5529
G1 X0.6903 Y1.5514
G1 X0.6947 Y1.5486
G1 X0.6989 Y1.5442
G1 X0.7015 Y1.539
G1 X0.7021 Y1.534
G1 X0.7014 Y1.5276
G1 X0.6999 Y1.5229
G1 X0.697 Y1.5168
G1 X0.694 Y1.5122
G1 X0.6893 Y1.5061
G1 X0.6844 Y1.5005
G1 X0.6801 Y1.4962
G1 X0.6753 Y1.4921
G1 X0.6717 Y1.4895
G1 X0.667 Y1.4874
G1 X0.6616 Y1.4862
G1 X0.6567 Y1.4858
G1 X0.6526 Y1.4864
G1 Z0.15
G0 Z0.2
G0 X0.6108 Y1.559
G0 Z0.15
G1 Z0. F5.
G1 X0.6056 Y1.5553
G1 X0.6019 Y1.5531
G1 X0.597 Y1.5513
G1 X0.5915 Y1.5505
G1 X0.5866 Y1.5506
G1 X0.5826 Y1.5515
G1 X0.5784 Y1.5535
G1 X0.5749 Y1.5562
G1 X0.5717 Y1.5609
G1 X0.5697 Y1.567
G1 X0.5695 Y1.5726
G1 X0.571 Y1.5792
G1 X0.5744 Y1.5862
G1 X0.5749 Y1.5868
G1 X0.5759 Y1.588
G1 X0.5793 Y1.5924
G1 X0.5855 Y1.5993
G1 X0.5925 Y1.6053
G1 X0.5954 Y1.6075
G1 X0.5976 Y1.6091
G1 X0.5991 Y1.6102
G1 X0.5999 Y1.6108
G1 X0.6083 Y1.6144
G1 X0.612 Y1.6152
G1 X0.6145 Y1.6157
G1 X0.6208 Y1.6151
G1 X0.6255 Y1.6132
G1 X0.6296 Y1.6101
G1 X0.6335 Y1.6053
G1 X0.6357 Y1.5999
G1 X0.6359 Y1.5949
G1 X0.6346 Y1.5886
G1 X0.6327 Y1.584
G1 X0.6293 Y1.5782
G1 X0.6259 Y1.5738
G1 X0.6208 Y1.5681
G1 X0.6154 Y1.5629
G1 X0.6108 Y1.559
G1 Z0.15
G0 Z0.2
G0 X0.5414 Y1.6801
G0 Z0.15
G1 Z0. F5.
G1 X0.5447 Y1.6815
G1 X0.5497 Y1.6833
G1 X0.558
G1 X0.5647 Y1.681
G1 X0.5705 Y1.6764
G1 X0.5729 Y1.6732
G1 X0.5747 Y1.6695
G1 X0.5757 Y1.6653
G1 X0.5759 Y1.661
G1 X0.5752 Y1.657
G1 X0.5736 Y1.6529
G1 X0.5715 Y1.6493
G1 X0.569 Y1.6465
G1 X0.5663 Y1.6446
G1 X0.5627 Y1.6428
G1 X0.5605 Y1.642
G1 X0.5595 Y1.6416
G1 X0.5562 Y1.6412
G1 X0.5005 Y1.6437
G1 X0.5279 Y1.6105
G1 Z0.15
G0 Z0.2
G0 X0.3863 Y1.4691
G0 Z0.15
G1 Z0. F5.
G1 X0.4614 Y1.5351
G1 Z0.15
G0 Z0.2
G0 X0.4289 Y1.4229
G0 Z0.15
G1 Z0. F5.
G1 X0.5008 Y1.4923
G1 Z0.15
G0 Z0.2
G0 X0.4736 Y1.3787
G0 Z0.15
G1 Z0. F5.
G1 X0.5765 Y1.4878
G1 Z0.15
G0 Z0.2
G0 X0.5203 Y1.3367
G0 Z0.15
G1 Z0. F5.
G1 X0.5854 Y1.4125
G1 Z0.15
G0 Z0.2
G0 X0.7564 Y1.4962
G0 Z0.15
G1 Z0. F5.
G1 X0.765 Y1.49
G1 X0.7222 Y1.4315
G1 Z0.15
G0 Z0.2
G0 X0.3459 Y1.5172
G0 Z0.15
G1 Z0. F5.
G1 X0.424 Y1.5797
G1 Z0.15
G0 Z0.2
G0 X0.3078 Y1.5672
G0 Z0.15
G1 Z0. F5.
G1 X0.3887 Y1.6259
G1 Z0.15
G0 Z0.2
G0 X0.2721 Y1.6188
G0 Z0.15
G1 Z0. F5.
G1 X0.3765 Y1.6875
G1 Z0.15
G0 Z0.2
G0 X0.2388 Y1.6721
G0 Z0.15
G1 Z0. F5.
G1 X0.3248 Y1.7231
G1 Z0.15
G0 Z0.2
G0 X0.208 Y1.7269
G0 Z0.15
G1 Z0. F5.
G1 X0.2963 Y1.7738
G1 Z0.15
G0 Z0.2
G0 X0.1798 Y1.783
G0 Z0.15
G1 Z0. F5.
G1 X0.2702 Y1.8258
G1 Z0.15
G0 Z0.2
G0 X0.1543 Y1.8404
G0 Z0.15
G1 Z0. F5.
G1 X0.2465 Y1.879
G1 Z0.15
G0 Z0.2
G0 X0.1314 Y1.8989
G0 Z0.15
G1 Z0. F5.
G1 X0.2724 Y1.9502
G1 Z0.15
G0 Z0.2
G0 X2.0344 Y0.6393
G0 Z0.15
G1 Z0. F5.
G1 Y0.5393
G1 Z0.15
G0 Z0.2
G0 X2.5769 Y1.6993
G0 Z0.15
G1 Z0. F5.
G1 X2.4897 Y1.7483
G1 Z0.15
G0 Z0.2
G0 X2.6064 Y1.7548
G0 Z0.15
G1 Z0. F5.
G1 X2.4724 Y1.8221
G1 Z0.15
G0 Z0.2
G0 X2.6333 Y1.8116
G0 Z0.15
G1 Z0. F5.
G1 X2.5419 Y1.8522
G1 Z0.15
G0 Z0.2
G0 X2.6333 Y2.9098
G0 Z0.15
G1 Z0. F5.
G1 X2.5419 Y2.8691
G1 Z0.15
G0 Z0.2
G0 X2.6064 Y2.9665
G0 Z0.15
G1 Z0. F5.
G1 X2.4724 Y2.8992
G1 Z0.15
G0 Z0.2
G0 X2.5769 Y3.022
G0 Z0.15
G1 Z0. F5.
G1 X2.4897 Y2.973
G1 Z0.15
G0 Z0.2
G0 X2.3004 Y2.9529
G0 Z0.15
G1 Z0. F5.
G1 X2.2945 Y2.9617
G1 X2.3547 Y3.002
G1 Z0.15
G0 Z0.2
M5 M9

M30
%
