%
(1001)
(T1  D=0.25 CR=0. TAPER=45deg - ZMIN=0. - chamfer mill)
G90 G54 G64 G50 G17 G40 G80 G94 G91.1 G49
G20 (Inch)
G30

N10(Trace1 2)
T1 G43 H1 M6
S5100 M3 M8
G54
G0 X0.1314 Y2.8742
G0 Z0.2
G0 Z0.15
G1 Z0. F5.
G1 X0.2724 Y2.8229 F10.
G1 Z0.15 F5.
G0 Z0.2
G0 X0.1543 Y2.9327
G0 Z0.15
G1 Z0. F5.
G1 X0.2465 Y2.8942 F10.
G1 Z0.15 F5.
G0 Z0.2
G0 X0.1798 Y2.9901
G0 Z0.15
G1 Z0. F5.
G1 X0.2702 Y2.9474 F10.
G1 Z0.15 F5.
G0 Z0.2
G0 X0.208 Y3.0463
G0 Z0.15
G1 Z0. F5.
G1 X0.2963 Y2.9993 F10.
G1 Z0.15 F5.
G0 Z0.2
G0 X0.2388 Y3.1011
G0 Z0.15
G1 Z0. F5.
G1 X0.3248 Y3.0501 F10.
G1 Z0.15 F5.
G0 Z0.2
G0 X0.2721 Y3.1543
G0 Z0.15
G1 Z0. F5.
G1 X0.3765 Y3.0856 F10.
G1 Z0.15 F5.
G0 Z0.2
G0 X0.3078 Y3.206
G0 Z0.15
G1 Z0. F5.
G1 X0.3887 Y3.1472 F10.
G1 Z0.15 F5.
G0 Z0.2
G0 X0.3459 Y3.256
G0 Z0.15
G1 Z0. F5.
G1 X0.424 Y3.1935 F10.
G1 Z0.15 F5.
G0 Z0.2
G0 X0.3863 Y3.3041
G0 Z0.15
G1 Z0. F5.
G1 X0.4614 Y3.238 F10.
G1 Z0.15 F5.
G0 Z0.2
G0 X0.5706 Y3.2094
G0 Z0.15
G1 Z0. F5.
G1 X0.5725 Y3.2137 F10.
G1 X0.5751 Y3.2172
G1 X0.5798 Y3.2206
G1 X0.5859 Y3.2227
G1 X0.5914 Y3.223
G1 X0.598 Y3.2217
G1 X0.6051 Y3.2184
G1 X0.6057 Y3.218
G1 X0.607 Y3.2171
G1 X0.6089 Y3.2156
G1 X0.6115 Y3.2137
G1 X0.6185 Y3.2077
G1 X0.6247 Y3.2008
G1 X0.6269 Y3.198
G1 X0.6286 Y3.1958
G1 X0.6298 Y3.1944
G1 X0.6303 Y3.1936
G1 X0.6342 Y3.1853
G1 X0.6351 Y3.1816
G1 X0.6356 Y3.1791
G1 X0.6352 Y3.1728
G1 X0.6334 Y3.1681
G1 X0.6304 Y3.1638
G1 X0.6257 Y3.1599
G1 X0.6203 Y3.1576
G1 X0.6153 Y3.1572
G1 X0.609 Y3.1583
G1 X0.6044 Y3.1601
G1 X0.5985 Y3.1634
G1 X0.594 Y3.1666
G1 X0.5882 Y3.1717
G1 X0.5829 Y3.1769
G1 X0.5788 Y3.1814
G1 X0.575 Y3.1865
G1 X0.5727 Y3.1902
G1 X0.5708 Y3.195
G1 X0.5699 Y3.2005
G1 Y3.2054
G1 X0.5706 Y3.2094
G1 Z0.15 F5.
G0 Z0.2
G0 X0.5744 Y3.1053
G0 Z0.15
G1 Z0. F5.
G1 X0.5677 Y3.0971 F10.
G1 X0.5118 Y3.1432
G1 Z0.15 F5.
G0 Z0.2
G0 X0.7005 Y3.2324
G0 Z0.15
G1 Z0. F5.
G1 X0.6926 Y3.2255 F10.
G1 X0.6451 Y3.2802
G1 Z0.15 F5.
G0 Z0.2
G0 X0.7705 Y3.3093
G0 Z0.15
G1 Z0. F5.
G1 X0.7718 Y3.3059 F10.
G1 X0.7732 Y3.3008
G1 X0.7728 Y3.2925
G1 X0.77 Y3.2859
G1 X0.7651 Y3.2804
G1 X0.7617 Y3.2781
G1 X0.758 Y3.2766
G1 X0.7537 Y3.2758
G1 X0.7495 Y3.2759
G1 X0.7455 Y3.2769
G1 X0.7415 Y3.2786
G1 X0.738 Y3.2809
G1 X0.7354 Y3.2836
G1 X0.7336 Y3.2864
G1 X0.7321 Y3.2901
G1 X0.7313 Y3.2923
G1 X0.7311 Y3.2934
G1 X0.7308 Y3.2967
G1 X0.7366 Y3.3522
G1 X0.7018 Y3.3267
G1 Z0.15 F5.
G0 Z0.2
G0 X0.5689 Y3.4763
G0 Z0.15
G1 Z0. F5.
G1 X0.6304 Y3.3975 F10.
G1 Z0.15 F5.
G0 Z0.2
G0 X0.5203 Y3.4365
G0 Z0.15
G1 Z0. F5.
G1 X0.5854 Y3.3606 F10.
G1 Z0.15 F5.
G0 Z0.2
G0 X0.4736 Y3.3945
G0 Z0.15
G1 Z0. F5.
G1 X0.5765 Y3.2853 F10.
G1 Z0.15 F5.
G0 Z0.2
G0 X0.4289 Y3.3503
G0 Z0.15
G1 Z0. F5.
G1 X0.5008 Y3.2808 F10.
G1 Z0.15 F5.
G0 Z0.2
G0 X0.6193 Y3.5138
G0 Z0.15
G1 Z0. F5.
G1 X0.6771 Y3.4323 F10.
G1 Z0.15 F5.
G0 Z0.2
G0 X0.6713 Y3.549
G0 Z0.15
G1 Z0. F5.
G1 X0.7253 Y3.4648 F10.
G1 Z0.15 F5.
G0 Z0.2
G0 X0.725 Y3.5816
G0 Z0.15
G1 Z0. F5.
G1 X0.7875 Y3.4734 F10.
G1 Z0.15 F5.
G0 Z0.2
G0 X0.7801 Y3.6118
G0 Z0.15
G1 Z0. F5.
G1 X0.826 Y3.5229 F10.
G1 Z0.15 F5.
G0 Z0.2
G0 X0.8366 Y3.6393
G0 Z0.15
G1 Z0. F5.
G1 X0.8783 Y3.5484 F10.
G1 Z0.15 F5.
G0 Z0.2
G0 X0.8943 Y3.6642
G0 Z0.15
G1 Z0. F5.
G1 X0.9317 Y3.5715 F10.
G1 Z0.15 F5.
G0 Z0.2
G0 X0.9531 Y3.6864
G0 Z0.15
G1 Z0. F5.
G1 X0.9862 Y3.592 F10.
G1 Z0.15 F5.
G0 Z0.2
G0 X1.0344 Y3.5031
G0 Z0.15
G1 Z0. F5.
G1 X1.0307 Y3.4895 F10.
G1 X1.0276 Y3.4779
G1 X1.0247 Y3.4665
G1 X1.0227 Y3.458
G1 X1.0215 Y3.4524
G1 X1.0212 Y3.4497
G1 X1.022 Y3.4454
G1 X1.0238 Y3.4409
G1 X1.0264 Y3.4365
G1 X1.0294 Y3.4333
G1 X1.0331 Y3.4308
G1 X1.0374 Y3.4291
G1 X1.0423 Y3.4282
G1 X1.0471 Y3.4285
G1 X1.0519 Y3.4301
G1 X1.0564 Y3.433
G1 X1.0602 Y3.4372
G1 X1.0627 Y3.4421
G1 X1.0638 Y3.4476
G1 X1.0632 Y3.4536
G1 X1.0609 Y3.4597
G1 X1.0572 Y3.4645
G1 X1.0531 Y3.4676
G1 X1.0486 Y3.4693
G1 X1.0437 Y3.4698
G1 X1.038 Y3.4687
G1 X1.0332 Y3.4669
G1 X1.0291 Y3.4643
G1 X1.0255 Y3.4606
G1 X1.0229 Y3.456
G1 X1.0213 Y3.4512
G1 Y3.448
G1 Z0.15 F5.
G0 Z0.2
G0 X0.9731 Y3.4021
G0 Z0.15
G1 Z0. F5.
G1 X0.9635 Y3.3978 F10.
G1 X0.9342 Y3.4641
G1 Z0.15 F5.
G0 Z0.2
G0 X1.1014 Y3.4908
G0 Z0.15
G1 Z0. F5.
G1 X1.1003 Y3.4968 F10.
G1 X1.0997 Y3.5031
G1 X1.0996 Y3.5075
G1 X1.1006 Y3.5126
G1 X1.1026 Y3.5177
G1 X1.1052 Y3.522
G1 X1.1079 Y3.525
G1 X1.1118 Y3.5277
G1 X1.1158 Y3.5293
G1 X1.1215 Y3.5297
G1 X1.1279 Y3.5284
G1 X1.1327 Y3.5258
G1 X1.1377 Y3.5212
G1 X1.142 Y3.5147
G1 X1.1423 Y3.514
G1 X1.1429 Y3.5126
G1 X1.1438 Y3.5103
G1 X1.145 Y3.5074
G1 X1.1479 Y3.4986
G1 X1.1496 Y3.4895
G1 X1.15 Y3.4859
G1 X1.1503 Y3.4831
G1 X1.1505 Y3.4813
G1 X1.1506 Y3.4803
G1 X1.1496 Y3.4713
G1 X1.1484 Y3.4676
G1 X1.1476 Y3.4652
G1 X1.144 Y3.4601
G1 X1.1399 Y3.457
G1 X1.1351 Y3.455
G1 X1.1291 Y3.454
G1 X1.1233 Y3.4549
G1 X1.1189 Y3.4572
G1 X1.114 Y3.4614
G1 X1.111 Y3.4653
G1 X1.1077 Y3.4712
G1 X1.1056 Y3.4763
G1 X1.1033 Y3.4836
G1 X1.1014 Y3.4908
G1 Z0.15 F5.
G0 Z0.2
G0 X1.229 Y3.4757
G0 Z0.15
G1 Z0. F5.
G1 X1.2222 Y3.473 F10.
G1 X1.2181 Y3.4725
G1 X1.2141 Y3.4729
G1 X1.2099 Y3.4741
G1 X1.2062 Y3.476
G1 X1.203 Y3.4787
G1 X1.2003 Y3.482
G1 X1.1982 Y3.4856
G1 X1.197 Y3.4892
G1 X1.1967 Y3.4926
G1 X1.197 Y3.4966
G1 X1.1973 Y3.4988
G1 X1.1975 Y3.4999
G1 X1.1988 Y3.503
G1 X1.2289 Y3.55
G1 X1.1864 Y3.5429
G1 Z0.15 F5.
G0 Z0.2
G0 X1.2399 Y3.4964
G0 Z0.15
G1 Z0. F5.
G1 X1.2395 Y3.4928 F10.
G1 X1.2386 Y3.4876
G1 X1.2344 Y3.4804
G1 X1.229 Y3.4757
G1 Z0.15 F5.
G0 Z0.2
G0 X1.4627 Y3.4884
G0 Z0.15
G1 Z0. F5.
G1 X1.4521 Y3.4889 F10.
G1 X1.4557 Y3.5613
G1 Z0.15 F5.
G0 Z0.2
G0 X1.5283 Y3.5413
G0 Z0.15
G1 Z0. F5.
G1 X1.5269 Y3.5363 F10.
G1 X1.527 Y3.5315
G1 X1.528 Y3.5276
G1 X1.5301 Y3.5237
G1 X1.5324 Y3.5207
G1 X1.5359 Y3.5175
G1 X1.5399 Y3.5152
G1 X1.5458 Y3.5136
G1 X1.5515 Y3.512
G1 X1.5555 Y3.5095
G1 X1.5597 Y3.5048
G1 X1.5621 Y3.5003
G1 X1.5633 Y3.4959
G1 X1.5634 Y3.4923
G1 X1.5627 Y3.4895
G1 X1.5602 Y3.4851
G1 X1.5558 Y3.4814
G1 X1.5515 Y3.4794
G1 X1.5464 Y3.4785
G1 X1.5411 Y3.4787
G1 X1.5362 Y3.4802
G1 X1.5322 Y3.4827
G1 X1.5292 Y3.4857
G1 X1.5268 Y3.4899
G1 X1.5257 Y3.4945
G1 X1.5259 Y3.4986
G1 X1.5272 Y3.5025
G1 X1.53 Y3.5066
G1 X1.5345 Y3.5103
G1 X1.5392 Y3.5129
G1 X1.5428 Y3.5137
G1 X1.5488 Y3.5133
G1 X1.5544 Y3.5138
G1 X1.5599 Y3.5154
G1 X1.5644 Y3.5178
G1 X1.5686 Y3.5215
G1 X1.5713 Y3.5256
G1 X1.5727 Y3.5303
G1 X1.5724 Y3.5366
G1 X1.5704 Y3.5424
G1 X1.5668 Y3.5473
G1 X1.5615 Y3.5511
G1 X1.5547 Y3.5535
G1 X1.549 Y3.5542
G1 X1.5435 Y3.5537
G1 X1.5387 Y3.5522
G1 X1.5348 Y3.5499
G1 X1.5309 Y3.546
G1 X1.5283 Y3.5413
G1 Z0.15 F5.
G0 Z0.2
G0 X1.6143 Y3.483
G0 Z0.15
G1 Z0. F5.
G1 X1.6139 Y3.4898 F10.
G1 X1.6143 Y3.4953
G1 X1.6155 Y3.5029
G1 X1.6171 Y3.5101
G1 X1.6189 Y3.516
G1 X1.6211 Y3.5219
G1 X1.623 Y3.5258
G1 X1.6261 Y3.53
G1 X1.6303 Y3.5336
G1 X1.6345 Y3.5363
G1 X1.6383 Y3.5377
G1 X1.6429 Y3.5384
G1 X1.6473 Y3.538
G1 X1.6526 Y3.5359
G1 X1.6576 Y3.5318
G1 X1.6608 Y3.5273
G1 X1.6632 Y3.521
G1 X1.6641 Y3.5132
G1 Y3.5125
G1 X1.664 Y3.5109
G1 X1.6638 Y3.5085
G1 X1.6635 Y3.5053
G1 X1.6621 Y3.4962
G1 X1.6596 Y3.4873
G1 X1.6583 Y3.4839
G1 X1.6574 Y3.4813
G1 X1.6567 Y3.4796
G1 X1.6564 Y3.4787
G1 X1.6514 Y3.4711
G1 X1.6487 Y3.4683
G1 X1.6469 Y3.4665
G1 X1.6414 Y3.4636
G1 X1.6363 Y3.4626
G1 X1.6312 Y3.4629
G1 X1.6253 Y3.4648
G1 X1.6205 Y3.4682
G1 X1.6176 Y3.4722
G1 X1.6152 Y3.4782
G1 X1.6143 Y3.483
G1 Z0.15 F5.
G0 Z0.2
G0 X1.7434 Y3.4529
G0 Z0.15
G1 Z0. F5.
G1 X1.7414 Y3.4499 F10.
G1 X1.7382 Y3.4457
G1 X1.7313 Y3.4411
G1 X1.7244 Y3.4394
G1 X1.717 Y3.44
G1 X1.7132 Y3.4414
G1 X1.7097 Y3.4435
G1 X1.7065 Y3.4465
G1 X1.7041 Y3.4499
G1 X1.7025 Y3.4537
G1 X1.7015 Y3.4579
G1 X1.7013 Y3.4621
G1 X1.7018 Y3.4658
G1 X1.7031 Y3.4689
G1 X1.7051 Y3.4724
G1 X1.7064 Y3.4742
G1 X1.7071 Y3.4751
G1 X1.7096 Y3.4773
G1 X1.7576 Y3.5058
G1 X1.7164 Y3.5185
G1 Z0.15 F5.
G0 Z0.2
G0 X1.757 Y3.7144
G0 Z0.15
G1 Z0. F5.
G1 X1.7305 Y3.618 F10.
G1 Z0.15 F5.
G0 Z0.2
G0 X1.8172 Y3.6964
G0 Z0.15
G1 Z0. F5.
G1 X1.7863 Y3.6013 F10.
G1 Z0.15 F5.
G0 Z0.2
G0 X1.8765 Y3.6756
G0 Z0.15
G1 Z0. F5.
G1 X1.8412 Y3.5821 F10.
G1 Z0.15 F5.
G0 Z0.2
G0 X1.9347 Y3.6521
G0 Z0.15
G1 Z0. F5.
G1 X1.8852 Y3.5373 F10.
G1 Z0.15 F5.
G0 Z0.2
G0 X1.9918 Y3.6259
G0 Z0.15
G1 Z0. F5.
G1 X1.948 Y3.536 F10.
G1 Z0.15 F5.
G0 Z0.2
G0 X2.0476 Y3.597
G0 Z0.15
G1 Z0. F5.
G1 X1.9996 Y3.5093 F10.
G1 Z0.15 F5.
G0 Z0.2
G0 X2.102 Y3.5656
G0 Z0.15
G1 Z0. F5.
G1 X2.05 Y3.4802 F10.
G1 Z0.15 F5.
G0 Z0.2
G0 X2.1549 Y3.5317
G0 Z0.15
G1 Z0. F5.
G1 X2.099 Y3.4488 F10.
G1 Z0.15 F5.
G0 Z0.2
G0 X2.2062 Y3.4954
G0 Z0.15
G1 Z0. F5.
G1 X2.1166 Y3.375 F10.
G1 Z0.15 F5.
G0 Z0.2
G0 X2.1139 Y3.3115
G0 Z0.15
G1 Z0. F5.
G1 X2.118 Y3.3111 F10.
G1 X2.1224 Y3.3096
G1 X2.1261 Y3.3073
G1 X2.1299 Y3.303
G1 X2.1326 Y3.2972
G1 X2.1334 Y3.2917
G1 X2.1327 Y3.2849
G1 X2.1301 Y3.2776
G1 X2.1297 Y3.2769
G1 X2.1289 Y3.2756
G1 X2.1276 Y3.2736
G1 X2.1259 Y3.2708
G1 X2.1206 Y3.2633
G1 X2.1143 Y3.2565
G1 X2.1117 Y3.254
G1 X2.1097 Y3.2521
G1 X2.1083 Y3.2508
G1 X2.1076 Y3.2502
G1 X2.0997 Y3.2456
G1 X2.0961 Y3.2444
G1 X2.0937 Y3.2436
G1 X2.0874 Y3.2435
G1 X2.0825 Y3.2449
G1 X2.078 Y3.2475
G1 X2.0736 Y3.2518
G1 X2.0709 Y3.2569
G1 X2.0701 Y3.2618
G1 X2.0706 Y3.2683
G1 X2.0719 Y3.273
G1 X2.0747 Y3.2792
G1 X2.0775 Y3.2839
G1 X2.082 Y3.2902
G1 X2.0866 Y3.296
G1 X2.0908 Y3.3004
G1 X2.0955 Y3.3047
G1 X2.099 Y3.3073
G1 X2.1036 Y3.3096
G1 X2.109 Y3.311
G1 X2.1139 Y3.3115
G1 Z0.15 F5.
G0 Z0.2
G0 X2.1507 Y3.1846
G0 Z0.15
G1 Z0. F5.
G1 X2.1445 Y3.1884 F10.
G1 X2.1417 Y3.1914
G1 X2.1395 Y3.1948
G1 X2.138 Y3.1989
G1 X2.1373 Y3.2031
G1 X2.1376 Y3.2072
G1 X2.1386 Y3.2114
G1 X2.1403 Y3.2152
G1 X2.1424 Y3.2183
G1 X2.145 Y3.2205
G1 X2.1483 Y3.2227
G1 X2.1503 Y3.2238
G1 X2.1513 Y3.2242
G1 X2.1545 Y3.2251
G1 X2.2102 Y3.229
G1 X2.1791 Y3.2589
G1 Z0.15 F5.
G0 Z0.2
G0 X2.1738 Y3.1881
G0 Z0.15
G1 Z0. F5.
G1 X2.1707 Y3.1863 F10.
G1 X2.1659 Y3.184
G1 X2.1577 Y3.183
G1 X2.1507 Y3.1846
G1 Z0.15 F5.
G0 Z0.2
G0 X2.023 Y3.2921
G0 Z0.15
G1 Z0. F5.
G1 X1.9888 Y3.3154 F10.
G1 X2.0611 Y3.3537
G1 Z0.15 F5.
G0 Z0.2
G0 X1.9389 Y3.3458
G0 Z0.15
G1 Z0. F5.
G1 X1.9297 Y3.3511 F10.
G1 X1.9653 Y3.4141
G1 Z0.15 F5.
G0 Z0.2
G0 X2.2557 Y3.4567
G0 Z0.15
G1 Z0. F5.
G1 X2.1923 Y3.3793 F10.
G1 Z0.15 F5.
G0 Z0.2
G0 X2.3033 Y3.4157
G0 Z0.15
G1 Z0. F5.
G1 X2.2364 Y3.3414 F10.
G1 Z0.15 F5.
G0 Z0.2
G0 X2.349 Y3.3726
G0 Z0.15
G1 Z0. F5.
G1 X2.2787 Y3.3015 F10.
G1 Z0.15 F5.
G0 Z0.2
G0 X2.3927 Y3.3274
G0 Z0.15
G1 Z0. F5.
G1 X2.3191 Y3.2597 F10.
G1 Z0.15 F5.
G0 Z0.2
G0 X2.4342 Y3.2803
G0 Z0.15
G1 Z0. F5.
G1 X2.3384 Y3.1999 F10.
G1 Z0.15 F5.
G0 Z0.2
G0 X2.4734 Y3.2312
G0 Z0.15
G1 Z0. F5.
G1 X2.3939 Y3.1706 F10.
G1 Z0.15 F5.
G0 Z0.2
G0 X2.5103 Y3.1804
G0 Z0.15
G1 Z0. F5.
G1 X2.4281 Y3.1235 F10.
G1 Z0.15 F5.
G0 Z0.2
G0 X2.5449 Y3.1279
G0 Z0.15
G1 Z0. F5.
G1 X2.4601 Y3.0749 F10.
G1 Z0.15 F5.
G0 Z0.2
G0 X2.3993 Y2.9796
G0 Z0.15
G1 Z0. F5.
G1 X2.3936 Y2.9824 F10.
G1 X2.3876 Y2.9834
G1 X2.3825 Y2.9826
G1 X2.3774 Y2.9801
G1 X2.3727 Y2.9763
G1 X2.3696 Y2.9715
G1 X2.3679 Y2.9658
G1 X2.3682 Y2.9596
G1 X2.3699 Y2.9547
G1 X2.3734 Y2.9494
G1 X2.3759 Y2.9468
G1 X2.3789 Y2.9448
G1 X2.3827 Y2.9431
G1 X2.3871 Y2.942
G1 Z0.15 F5.
G0 Z0.2
G0 X2.3875
G0 Z0.15
G1 Z0. F5.
G1 X2.3919 Y2.9423 F10.
G1 X2.3951 Y2.9431
G1 X2.4003 Y2.9458
G1 X2.4042 Y2.9495
G1 X2.4071 Y2.9544
G1 X2.4084 Y2.9598
G1 X2.4082 Y2.9654
G1 X2.4064 Y2.9709
G1 X2.4034 Y2.9759
G1 X2.3993 Y2.9796
G1 Z0.15 F5.
G0 Z0.2
G0 X2.3831 Y2.942
G0 Z0.15
G1 Z0. F5.
G1 X2.3875 F10.
G1 Z0.15 F5.
G0 Z0.2
G0 X2.3356 Y2.9448
G0 Z0.15
G1 Z0. F5.
G1 X2.3831 Y2.942 F10.
G1 Z0.15 F5.
G0 Z0.2
G0 X2.4033 Y2.8907
G0 Z0.15
G1 Z0. F5.
G1 X2.4101 Y2.8938 F10.
G1 X2.4158 Y2.8959
G1 X2.4219 Y2.8976
G1 X2.4262 Y2.8984
G1 X2.4314
G1 X2.4368 Y2.8973
G1 X2.4414 Y2.8955
G1 X2.4449 Y2.8933
G1 X2.4482 Y2.89
G1 X2.4504 Y2.8863
G1 X2.4519 Y2.8807
G1 X2.4517 Y2.8743
G1 X2.4499 Y2.869
G1 X2.4463 Y2.8633
G1 X2.4407 Y2.8579
G1 X2.44 Y2.8575
G1 X2.4387 Y2.8567
G1 X2.4367 Y2.8554
G1 X2.4339 Y2.8537
G1 X2.4258 Y2.8494
G1 X2.4171 Y2.8461
G1 X2.4137 Y2.8451
G1 X2.411 Y2.8443
G1 X2.4092 Y2.8438
G1 X2.4083 Y2.8435
G1 X2.3992 Y2.843
G1 X2.3954 Y2.8435
G1 X2.3929 Y2.8439
G1 X2.3872 Y2.8466
G1 X2.3835 Y2.85
G1 X2.3806 Y2.8544
G1 X2.3786 Y2.8602
G1 X2.3785 Y2.866
G1 X2.38 Y2.8708
G1 X2.3833 Y2.8763
G1 X2.3866 Y2.8799
G1 X2.3919 Y2.8842
G1 X2.3965 Y2.8872
G1 X2.4033 Y2.8907
G1 Z0.15 F5.
G0 Z0.2
G0 X2.4396 Y2.7584
G0 Z0.15
G1 Z0. F5.
G1 X2.436 Y2.7581 F10.
G1 X2.4307 Y2.7582
G1 X2.4229 Y2.761
G1 X2.4174 Y2.7655
G1 X2.4135 Y2.7718
G1 X2.4123 Y2.7757
G1 X2.412 Y2.7797
G1 X2.4124 Y2.784
G1 X2.4137 Y2.7881
G1 X2.4158 Y2.7916
G1 X2.4186 Y2.7949
G1 X2.4218 Y2.7976
G1 X2.4251 Y2.7994
G1 X2.4284 Y2.8003
G1 X2.4323 Y2.8007
G1 X2.4346
G1 X2.4357
G1 X2.439 Y2.8
G1 X2.4905 Y2.7786
G1 X2.4761 Y2.8192
G1 Z0.15 F5.
G0 Z0.2
G0 X2.6575 Y2.9036
G0 Z0.15
G1 Z0. F5.
G1 X2.5644 Y2.8672 F10.
G1 Z0.15 F5.
G0 Z0.2
G0 X2.679 Y2.8446
G0 Z0.15
G1 Z0. F5.
G1 X2.5842 Y2.8126 F10.
G1 Z0.15 F5.
G0 Z0.2
G0 X2.6977 Y2.7846
G0 Z0.15
G1 Z0. F5.
G1 X2.6016 Y2.757 F10.
G1 Z0.15 F5.
G0 Z0.2
G0 X2.7136 Y2.7238
G0 Z0.15
G1 Z0. F5.
G1 X2.592 Y2.695 F10.
G1 Z0.15 F5.
G0 Z0.2
G0 X2.7267 Y2.6624
G0 Z0.15
G1 Z0. F5.
G1 X2.6284 Y2.6439 F10.
G1 Z0.15 F5.
G0 Z0.2
G0 X2.7369 Y2.6004
G0 Z0.15
G1 Z0. F5.
G1 X2.6378 Y2.5865 F10.
G1 Z0.15 F5.
G0 Z0.2
G0 X2.7442 Y2.538
G0 Z0.15
G1 Z0. F5.
G1 X2.6446 Y2.5287 F10.
G1 Z0.15 F5.
G0 Z0.2
G0 X2.5497 Y2.4664
G0 Z0.15
G1 Z0. F5.
G1 X2.5513 Y2.4596 F10.
G1 X2.5507 Y2.4537
G1 X2.5485 Y2.4479
G1 X2.5446 Y2.4428
G1 X2.5413 Y2.4404
G1 X2.5389 Y2.4391
G1 X2.5378 Y2.4384
G1 Z0.15 F5.
G0 Z0.2
G0 X2.5309 Y2.3874
G0 Z0.15
G1 Z0. F5.
G1 X2.5351 Y2.3862 F10.
G1 X2.5398 Y2.3839
G1 X2.5441 Y2.3804
G1 X2.5474 Y2.3767
G1 X2.5495 Y2.3732
G1 X2.551 Y2.3688
G1 X2.5513 Y2.3644
G1 X2.5502 Y2.3588
G1 X2.5471 Y2.3532
G1 X2.5431 Y2.3492
G1 X2.5373 Y2.3458
G1 X2.5299 Y2.3435
G1 X2.5291 Y2.3434
G1 X2.5276 Y2.3433
G1 X2.5252 Y2.343
G1 X2.522 Y2.3428
G1 X2.5128 Y2.3425
G1 X2.5036 Y2.3435
G1 X2.5 Y2.3441
G1 X2.4973 Y2.3446
G1 X2.4954 Y2.3449
G1 X2.4945 Y2.3451
G1 X2.4861 Y2.3488
G1 X2.4829 Y2.3509
G1 X2.4809 Y2.3524
G1 X2.477 Y2.3573
G1 X2.4752 Y2.3621
G1 X2.4746 Y2.3673
G1 X2.4754 Y2.3733
G1 X2.4779 Y2.3786
G1 X2.4814 Y2.3822
G1 X2.4868 Y2.3856
G1 X2.4915 Y2.3874
G1 X2.4981 Y2.3889
G1 X2.5035 Y2.3894
G1 X2.5112 Y2.3896
G1 X2.5187 Y2.3893
G1 X2.5247 Y2.3886
G1 X2.5309 Y2.3874
G1 Z0.15 F5.
G0 Z0.2
G0 X2.4669 Y2.2787
G0 Z0.15
G1 Z0. F5.
G1 X2.4676 Y2.2827 F10.
G1 X2.4691 Y2.2865
G1 X2.4715 Y2.2902
G1 X2.4744 Y2.2932
G1 X2.4779 Y2.2954
G1 X2.4819 Y2.2971
G1 X2.4859 Y2.2981
G1 X2.4897 Y2.2982
G1 X2.493 Y2.2975
G1 X2.4967 Y2.2961
G1 X2.4988 Y2.2951
G1 X2.4998 Y2.2946
G1 X2.5024 Y2.2925
G1 X2.5388 Y2.2502
G1 X2.5441 Y2.293
G1 Z0.15 F5.
G0 Z0.2
G0 X2.4843 Y2.255
G0 Z0.15
G1 Z0. F5.
G1 X2.4809 Y2.2564 F10.
G1 X2.4762 Y2.2588
G1 X2.4705 Y2.2649
G1 X2.4676 Y2.2714
G1 X2.4669 Y2.2787
G1 Z0.15 F5.
G0 Z0.2
G0 X2.4754 Y2.4777
G0 Z0.15
G1 Z0. F5.
G1 X2.4766 Y2.4503 F10.
G1 X2.5076 Y2.445
G1 X2.5064 Y2.4494
G1 X2.5051 Y2.456
G1 X2.505 Y2.4619
G1 X2.5058 Y2.4666
G1 X2.5078 Y2.4713
G1 X2.5104 Y2.475
G1 X2.5148 Y2.4786
G1 X2.5204 Y2.4808
G1 X2.5257 Y2.4814
G1 X2.5315 Y2.4808
G1 X2.5373 Y2.479
G1 X2.5424 Y2.476
G1 X2.5468 Y2.4716
G1 X2.5497 Y2.4664
G1 Z0.15 F5.
G0 Z0.2
G0 X2.4704 Y2.5376
G0 Z0.15
G1 Z0. F5.
G1 X2.4691 Y2.5481 F10.
G1 X2.541 Y2.5571
G1 Z0.15 F5.
G0 Z0.2
G0 X2.7485 Y2.4753
G0 Z0.15
G1 Z0. F5.
G1 X2.6486 Y2.4707 F10.
G1 Z0.15 F5.
G0 Z0.2
G0 X2.75 Y2.4125
G0 Z0.15
G1 Z0. F5.
G1 X2.6 F10.
G1 Z0.15 F5.
G0 Z0.2
G0 X2.7485 Y2.3497
G0 Z0.15
G1 Z0. F5.
G1 X2.6486 Y2.3543 F10.
G1 Z0.15 F5.
G0 Z0.2
G0 X2.7442 Y2.287
G0 Z0.15
G1 Z0. F5.
G1 X2.6446 Y2.2963 F10.
G1 Z0.15 F5.
G0 Z0.2
G0 X2.7369 Y2.2246
G0 Z0.15
G1 Z0. F5.
G1 X2.6378 Y2.2385 F10.
G1 Z0.15 F5.
G0 Z0.2
G0 X2.7267 Y2.1626
G0 Z0.15
G1 Z0. F5.
G1 X2.6284 Y2.1811 F10.
G1 Z0.15 F5.
G0 Z0.2
G0 X2.7136 Y2.1012
G0 Z0.15
G1 Z0. F5.
G1 X2.592 Y2.13 F10.
G1 Z0.15 F5.
G0 Z0.2
G0 X2.6977 Y2.0404
G0 Z0.15
G1 Z0. F5.
G1 X2.6016 Y2.068 F10.
G1 Z0.15 F5.
G0 Z0.2
G0 X2.679 Y1.9804
G0 Z0.15
G1 Z0. F5.
G1 X2.5842 Y2.0124 F10.
G1 Z0.15 F5.
G0 Z0.2
G0 X2.6575 Y1.9214
G0 Z0.15
G1 Z0. F5.
G1 X2.5644 Y1.9578 F10.
G1 Z0.15 F5.
G0 Z0.2
G0 X2.4542 Y1.9525
G0 Z0.15
G1 Z0. F5.
G1 X2.3862 Y1.9832 F10.
G1 X2.4225 Y1.9278
G1 X2.4412 Y1.9692
G1 Z0.15 F5.
G0 Z0.2
G0 X2.4127 Y2.0439
G0 Z0.15
G1 Z0. F5.
G1 X2.4163 Y2.0539 F10.
G1 X2.4845 Y2.0297
G1 Z0.15 F5.
G0 Z0.2
G0 X2.3893 Y1.8897
G0 Z0.15
G1 Z0. F5.
G1 X2.3943 Y1.8864 F10.
G1 X2.3994 Y1.8825
G1 X2.4026 Y1.8795
G1 X2.4057 Y1.8754
G1 X2.408 Y1.8703
G1 X2.4093 Y1.8656
G1 X2.4096 Y1.8615
G1 X2.4089 Y1.8569
G1 X2.4073 Y1.8528
G1 X2.4037 Y1.8484
G1 X2.3984 Y1.8447
G1 X2.3932 Y1.8429
G1 X2.3864 Y1.8425
G1 X2.3787 Y1.8438
G1 X2.378 Y1.844
G1 X2.3765 Y1.8446
G1 X2.3743 Y1.8454
G1 X2.3713 Y1.8466
G1 X2.363 Y1.8506
G1 X2.3552 Y1.8556
G1 X2.3523 Y1.8577
G1 X2.3501 Y1.8594
G1 X2.3486 Y1.8605
G1 X2.3479 Y1.8611
G1 X2.342 Y1.8681
G1 X2.3401 Y1.8714
G1 X2.339 Y1.8737
G1 X2.3377 Y1.8798
G1 X2.3382 Y1.8849
G1 X2.34 Y1.8898
G1 X2.3435 Y1.8948
G1 X2.3481 Y1.8985
G1 X2.3528 Y1.9001
G1 X2.3592 Y1.9007
G1 X2.3641 Y1.9002
G1 X2.3707 Y1.8986
G1 X2.3758 Y1.8966
G1 X2.3827 Y1.8933
G1 X2.3893 Y1.8897
G1 Z0.15 F5.
G0 Z0.2
G0 X2.2982 Y1.7851
G0 Z0.15
G1 Z0. F5.
G1 X2.2959 Y1.7879 F10.
G1 X2.2928 Y1.7922
G1 X2.2904 Y1.8001
G1 X2.2907 Y1.8072
G1 X2.2934 Y1.8141
G1 X2.2958 Y1.8174
G1 X2.2989 Y1.8201
G1 X2.3026 Y1.8223
G1 X2.3066 Y1.8237
G1 X2.3107 Y1.8241
G1 X2.315 Y1.8238
G1 X2.3191 Y1.8229
G1 X2.3224 Y1.8213
G1 X2.3251 Y1.8192
G1 X2.3278 Y1.8162
G1 X2.3292 Y1.8144
G1 X2.3299 Y1.8136
G1 X2.3313 Y1.8105
G1 X2.3448 Y1.7564
G1 X2.3688 Y1.7922
G1 Z0.15 F5.
G0 Z0.2
G0 X2.5449 Y1.6971
G0 Z0.15
G1 Z0. F5.
G1 X2.4601 Y1.7501 F10.
G1 Z0.15 F5.
G0 Z0.2
G0 X2.5769 Y1.7511
G0 Z0.15
G1 Z0. F5.
G1 X2.4897 Y1.8001 F10.
G1 Z0.15 F5.
G0 Z0.2
G0 X2.6064 Y1.8066
G0 Z0.15
G1 Z0. F5.
G1 X2.4724 Y1.8739 F10.
G1 Z0.15 F5.
G0 Z0.2
G0 X2.6333 Y1.8634
G0 Z0.15
G1 Z0. F5.
G1 X2.5419 Y1.9041 F10.
G1 Z0.15 F5.
G0 Z0.2
G0 X2.5103 Y1.6446
G0 Z0.15
G1 Z0. F5.
G1 X2.4281 Y1.7015 F10.
G1 Z0.15 F5.
G0 Z0.2
G0 X2.4734 Y1.5938
G0 Z0.15
G1 Z0. F5.
G1 X2.3939 Y1.6544 F10.
G1 Z0.15 F5.
G0 Z0.2
G0 X2.4342 Y1.5447
G0 Z0.15
G1 Z0. F5.
G1 X2.3384 Y1.6251 F10.
G1 Z0.15 F5.
G0 Z0.2
G0 X2.3927 Y1.4976
G0 Z0.15
G1 Z0. F5.
G1 X2.3191 Y1.5653 F10.
G1 Z0.15 F5.
G0 Z0.2
G0 X2.349 Y1.4524
G0 Z0.15
G1 Z0. F5.
G1 X2.2787 Y1.5235 F10.
G1 Z0.15 F5.
G0 Z0.2
G0 X2.3033 Y1.4093
G0 Z0.15
G1 Z0. F5.
G1 X2.2364 Y1.4836 F10.
G1 Z0.15 F5.
G0 Z0.2
G0 X2.2557 Y1.3683
G0 Z0.15
G1 Z0. F5.
G1 X2.1923 Y1.4457 F10.
G1 Z0.15 F5.
G0 Z0.2
G0 X2.2062 Y1.3296
G0 Z0.15
G1 Z0. F5.
G1 X2.1166 Y1.45 F10.
G1 Z0.15 F5.
G0 Z0.2
G0 X2.0565 Y1.4708
G0 Z0.15
G1 Z0. F5.
G1 X2.0549 Y1.467 F10.
G1 X2.0522 Y1.4632
G1 X2.049 Y1.4603
G1 X2.0438 Y1.4579
G1 X2.0374 Y1.457
G1 X2.0319 Y1.4578
G1 X2.0257 Y1.4604
G1 X2.0194 Y1.465
G1 X2.0189 Y1.4655
G1 X2.0178 Y1.4667
G1 X2.0162 Y1.4685
G1 X2.0141 Y1.4709
G1 X2.0084 Y1.4781
G1 X2.0037 Y1.4861
G1 X2.002 Y1.4894
G1 X2.0008 Y1.4918
G1 X2. Y1.4935
G1 X1.9996 Y1.4944
G1 X1.9975 Y1.5032
G1 X1.9973 Y1.5071
G1 Y1.5096
G1 X1.9989 Y1.5156
G1 X2.0017 Y1.5199
G1 X2.0054 Y1.5235
G1 X2.0108 Y1.5265
G1 X2.0165 Y1.5276
G1 X2.0215 Y1.527
G1 X2.0275 Y1.5247
G1 X2.0316 Y1.522
G1 X2.0368 Y1.5176
G1 X2.0405 Y1.5136
G1 X2.0452 Y1.5075
G1 X2.0494 Y1.5013
G1 X2.0524 Y1.4961
G1 X2.0552 Y1.4904
G1 X2.0568 Y1.4863
G1 X2.0577 Y1.4811
G1 X2.0574 Y1.4756
G1 X2.0565 Y1.4708
G1 Z0.15 F5.
G0 Z0.2
G0 X2.0711 Y1.5545
G0 Z0.15
G1 Z0. F5.
G1 X2.0705 Y1.5619 F10.
G1 X2.0708 Y1.5668
G1 X2.073 Y1.5723
G1 X2.0773 Y1.5771
G1 X2.0833 Y1.5804
G1 X2.0901 Y1.5813
G1 X2.0967 Y1.5797
G1 X2.1019 Y1.5755
G1 X2.1038 Y1.5726
G1 X2.1049 Y1.5694
G1 X2.1052 Y1.5661
G1 X2.1048 Y1.5625
G1 X2.1025 Y1.5562
G1 X2.0982 Y1.5504
G1 X2.1032 Y1.553
G1 X2.1078 Y1.5548
G1 X2.1121 Y1.556
G1 X2.1161 Y1.5563
G1 X2.1197 Y1.556
G1 X2.1229 Y1.5549
G1 X2.1259 Y1.553
G1 X2.1284 Y1.5504
G1 X2.1315 Y1.5459
G1 X2.1334 Y1.5413
G1 X2.1342 Y1.5367
G1 X2.1338 Y1.532
G1 X2.1325 Y1.5277
G1 X2.1302 Y1.5235
G1 X2.1271 Y1.5196
G1 X2.123 Y1.5158
G1 X2.1173 Y1.5129
G1 X2.1107 Y1.5124
G1 X2.1053 Y1.5137
G1 X2.0983 Y1.5164
G1 Z0.15 F5.
G0 Z0.2
G0 X2.1396 Y1.6286
G0 Z0.15
G1 Z0. F5.
G1 X2.1472 Y1.6359 F10.
G1 X2.1974 Y1.5836
G1 Z0.15 F5.
G0 Z0.2
G0 X2.1549 Y1.2933
G0 Z0.15
G1 Z0. F5.
G1 X2.099 Y1.3762 F10.
G1 Z0.15 F5.
G0 Z0.2
G0 X2.102 Y1.2594
G0 Z0.15
G1 Z0. F5.
G1 X2.05 Y1.3448 F10.
G1 Z0.15 F5.
G0 Z0.2
G0 X2.0476 Y1.228
G0 Z0.15
G1 Z0. F5.
G1 X1.9996 Y1.3157 F10.
G1 Z0.15 F5.
G0 Z0.2
G0 X1.9918 Y1.1991
G0 Z0.15
G1 Z0. F5.
G1 X1.948 Y1.289 F10.
G1 Z0.15 F5.
G0 Z0.2
G0 X1.9347 Y1.1729
G0 Z0.15
G1 Z0. F5.
G1 X1.8852 Y1.2877 F10.
G1 Z0.15 F5.
G0 Z0.2
G0 X1.8765 Y1.1494
G0 Z0.15
G1 Z0. F5.
G1 X1.8412 Y1.2429 F10.
G1 Z0.15 F5.
G0 Z0.2
G0 X1.8172 Y1.1286
G0 Z0.15
G1 Z0. F5.
G1 X1.7863 Y1.2237 F10.
G1 Z0.15 F5.
G0 Z0.2
G0 X1.757 Y1.1106
G0 Z0.15
G1 Z0. F5.
G1 X1.7305 Y1.207 F10.
G1 Z0.15 F5.
G0 Z0.2
G0 X1.696 Y1.0954
G0 Z0.15
G1 Z0. F5.
G1 X1.6741 Y1.1929 F10.
G1 Z0.15 F5.
G0 Z0.2
G0 X1.6344 Y1.083
G0 Z0.15
G1 Z0. F5.
G1 X1.6084 Y1.2307 F10.
G1 Z0.15 F5.
G0 Z0.2
G0 X1.564 Y1.2763
G0 Z0.15
G1 Z0. F5.
G1 X1.5609 Y1.2736 F10.
G1 X1.5568 Y1.2714
G1 X1.5526 Y1.2703
G1 X1.5469 Y1.2705
G1 X1.5408 Y1.2726
G1 X1.5362 Y1.2757
G1 X1.5318 Y1.2809
G1 X1.5283 Y1.2878
G1 X1.528 Y1.2885
G1 X1.5276 Y1.29
G1 X1.527 Y1.2924
G1 X1.5261 Y1.2954
G1 X1.5243 Y1.3045
G1 X1.5237 Y1.3137
G1 Y1.3174
G1 Y1.3201
G1 Y1.322
G1 Y1.3229
G1 X1.5258 Y1.3318
G1 X1.5274 Y1.3353
G1 X1.5285 Y1.3376
G1 X1.5327 Y1.3422
G1 X1.5371 Y1.3449
G1 X1.5421 Y1.3463
G1 X1.5482 Y1.3466
G1 X1.5538 Y1.3451
G1 X1.558 Y1.3423
G1 X1.5623 Y1.3375
G1 X1.5648 Y1.3333
G1 X1.5674 Y1.327
G1 X1.5689 Y1.3217
G1 X1.5704 Y1.3142
G1 X1.5714 Y1.3068
G1 X1.5717 Y1.3007
G1 Y1.2944
G1 X1.5712 Y1.29
G1 X1.5697 Y1.2851
G1 X1.567 Y1.2802
G1 X1.564 Y1.2763
G1 Z0.15 F5.
G0 Z0.2
G0 X1.4332 Y1.3174
G0 Z0.15
G1 Z0. F5.
G1 X1.434 Y1.3209 F10.
G1 X1.4356 Y1.326
G1 X1.4405 Y1.3326
G1 X1.4464 Y1.3366
G1 X1.4535 Y1.3385
G1 X1.4576
G1 X1.4616 Y1.3377
G1 X1.4656 Y1.3361
G1 X1.4691 Y1.3337
G1 X1.4719 Y1.3307
G1 X1.4742 Y1.327
G1 X1.4759 Y1.3232
G1 X1.4766 Y1.3195
G1 X1.4765 Y1.3161
G1 X1.4758 Y1.3122
G1 X1.4752 Y1.31
G1 X1.4749 Y1.309
G1 X1.4733 Y1.3061
G1 X1.4379 Y1.2628
G1 X1.481 Y1.265
G1 Z0.15 F5.
G0 Z0.2
G0 X1.6141 Y1.338
G0 Z0.15
G1 Z0. F5.
G1 X1.6143 Y1.3416 F10.
G1 X1.615 Y1.3468
G1 X1.6188 Y1.3542
G1 X1.6239 Y1.3591
G1 X1.6306 Y1.3622
G1 X1.6346 Y1.3629
G1 X1.6387 Y1.3628
G1 X1.6429 Y1.3618
G1 X1.6468 Y1.36
G1 X1.6501 Y1.3575
G1 X1.653 Y1.3543
G1 X1.6552 Y1.3508
G1 X1.6566 Y1.3473
G1 X1.6571 Y1.3439
G1 X1.657 Y1.3399
G1 X1.6567 Y1.3377
G1 X1.6566 Y1.3366
G1 X1.6555 Y1.3335
G1 X1.6278 Y1.285
G1 X1.6699 Y1.2942
G1 Z0.15 F5.
G0 Z0.2
G0 X1.7091 Y1.38
G0 Z0.15
G1 Z0. F5.
G1 X1.7192 Y1.3832 F10.
G1 X1.7406 Y1.314
G1 Z0.15 F5.
G0 Z0.2
G0 X1.9211 Y1.4487
G0 Z0.15
G1 Z0. F5.
G1 X1.9203 Y1.4522 F10.
G1 X1.9194 Y1.4575
G1 X1.9208 Y1.4656
G1 X1.9243 Y1.4719
G1 X1.9298 Y1.4768
G1 X1.9334 Y1.4786
G1 X1.9374 Y1.4797
G1 X1.9417 Y1.48
G1 X1.9459 Y1.4794
G1 X1.9498 Y1.478
G1 X1.9535 Y1.4758
G1 X1.9567 Y1.4731
G1 X1.959 Y1.4702
G1 X1.9604 Y1.4671
G1 X1.9615 Y1.4632
G1 X1.962 Y1.461
G1 X1.9622 Y1.4599
G1 X1.962 Y1.4566
G1 X1.9499 Y1.4022
G1 X1.9873 Y1.4234
G1 Z0.15 F5.
G0 Z0.2
G0 X1.5723 Y1.0735
G0 Z0.15
G1 Z0. F5.
G1 X1.5596 Y1.1727 F10.
G1 Z0.15 F5.
G0 Z0.2
G0 X1.5098 Y1.067
G0 Z0.15
G1 Z0. F5.
G1 X1.5017 Y1.1666 F10.
G1 Z0.15 F5.
G0 Z0.2
G0 X1.4471 Y1.0633
G0 Z0.15
G1 Z0. F5.
G1 X1.4436 Y1.1633 F10.
G1 Z0.15 F5.
G0 Z0.2
G0 X1.3843 Y1.0626
G0 Z0.15
G1 Z0. F5.
G1 X1.3855 Y1.1626 F10.
G1 Z0.15 F5.
G0 Z0.2
G0 X1.3215 Y1.0648
G0 Z0.15
G1 Z0. F5.
G1 X1.3288 Y1.1896 F10.
G1 Z0.15 F5.
G0 Z0.2
G0 X1.2589 Y1.0699
G0 Z0.15
G1 Z0. F5.
G1 X1.2693 Y1.1693 F10.
G1 Z0.15 F5.
G0 Z0.2
G0 X1.1966 Y1.0779
G0 Z0.15
G1 Z0. F5.
G1 X1.2116 Y1.1768 F10.
G1 Z0.15 F5.
G0 Z0.2
G0 X1.1347 Y1.0888
G0 Z0.15
G1 Z0. F5.
G1 X1.1544 Y1.1869 F10.
G1 Z0.15 F5.
G0 Z0.2
G0 X1.0734 Y1.1026
G0 Z0.15
G1 Z0. F5.
G1 X1.0976 Y1.1996 F10.
G1 Z0.15 F5.
G0 Z0.2
G0 X1.0128 Y1.1192
G0 Z0.15
G1 Z0. F5.
G1 X1.0558 Y1.2629 F10.
G1 Z0.15 F5.
G0 Z0.2
G0 X1.0366 Y1.3236
G0 Z0.15
G1 Z0. F5.
G1 X1.0327 Y1.3225 F10.
G1 X1.028 Y1.3224
G1 X1.0238 Y1.3233
G1 X1.0187 Y1.3261
G1 X1.0142 Y1.3306
G1 X1.0115 Y1.3355
G1 X1.0099 Y1.3421
G1 Y1.3499
G1 X1.01 Y1.3506
G1 X1.0103 Y1.3522
G1 X1.0107 Y1.3545
G1 X1.0114 Y1.3577
G1 X1.0138 Y1.3665
G1 X1.0174 Y1.3751
G1 X1.019 Y1.3783
G1 X1.0203 Y1.3808
G1 X1.0211 Y1.3824
G1 X1.0216 Y1.3833
G1 X1.0274 Y1.3903
G1 X1.0304 Y1.3927
G1 X1.0324 Y1.3942
G1 X1.0383 Y1.3965
G1 X1.0434 Y1.3969
G1 X1.0485 Y1.396
G1 X1.054 Y1.3935
G1 X1.0584 Y1.3896
G1 X1.0608 Y1.3852
G1 X1.0626 Y1.379
G1 X1.0629 Y1.3741
G1 X1.0624 Y1.3673
G1 X1.0614 Y1.3619
G1 X1.0593 Y1.3545
G1 X1.0569 Y1.3475
G1 X1.0545 Y1.3419
G1 X1.0516 Y1.3363
G1 X1.0492 Y1.3326
G1 X1.0457 Y1.3288
G1 X1.0411 Y1.3257
G1 X1.0366 Y1.3236
G1 Z0.15 F5.
G0 Z0.2
G0 X0.9381 Y1.419
G0 Z0.15
G1 Z0. F5.
G1 X0.9404 Y1.4217 F10.
G1 X0.9441 Y1.4256
G1 X0.9515 Y1.4293
G1 X0.9586 Y1.4302
G1 X0.9658 Y1.4288
G1 X0.9695 Y1.4269
G1 X0.9727 Y1.4244
G1 X0.9755 Y1.4211
G1 X0.9775 Y1.4174
G1 X0.9787 Y1.4135
G1 X0.9792 Y1.4092
G1 X0.9789 Y1.405
G1 X0.9779 Y1.4014
G1 X0.9763 Y1.3984
G1 X0.9739 Y1.3952
G1 X0.9724 Y1.3935
G1 X0.9716 Y1.3927
G1 X0.9689 Y1.3909
G1 X0.9179 Y1.3681
G1 X0.9573 Y1.3507
G1 Z0.15 F5.
G0 Z0.2
G0 X1.1253 Y1.3704
G0 Z0.15
G1 Z0. F5.
G1 X1.1356 Y1.3678 F10.
G1 X1.1177 Y1.2976
G1 Z0.15 F5.
G0 Z0.2
G0 X1.2129 Y1.3511
G0 Z0.15
G1 Z0. F5.
G1 X1.2233 Y1.3494 F10.
G1 X1.2113 Y1.278
G1 Z0.15 F5.
G0 Z0.2
G0 X0.9531 Y1.1386
G0 Z0.15
G1 Z0. F5.
G1 X0.9862 Y1.233 F10.
G1 Z0.15 F5.
G0 Z0.2
G0 X0.8943 Y1.1608
G0 Z0.15
G1 Z0. F5.
G1 X0.9317 Y1.2535 F10.
G1 Z0.15 F5.
G0 Z0.2
G0 X0.8366 Y1.1857
G0 Z0.15
G1 Z0. F5.
G1 X0.8783 Y1.2766 F10.
G1 Z0.15 F5.
G0 Z0.2
G0 X0.7801 Y1.2132
G0 Z0.15
G1 Z0. F5.
G1 X0.826 Y1.3021 F10.
G1 Z0.15 F5.
G0 Z0.2
G0 X0.725 Y1.2434
G0 Z0.15
G1 Z0. F5.
G1 X0.7875 Y1.3516 F10.
G1 Z0.15 F5.
G0 Z0.2
G0 X0.6713 Y1.276
G0 Z0.15
G1 Z0. F5.
G1 X0.7253 Y1.3602 F10.
G1 Z0.15 F5.
G0 Z0.2
G0 X0.6193 Y1.3112
G0 Z0.15
G1 Z0. F5.
G1 X0.6771 Y1.3927 F10.
G1 Z0.15 F5.
G0 Z0.2
G0 X0.5689 Y1.3487
G0 Z0.15
G1 Z0. F5.
G1 X0.6304 Y1.4275 F10.
G1 Z0.15 F5.
G0 Z0.2
G0 X0.6526 Y1.5382
G0 Z0.15
G1 Z0. F5.
G1 X0.6483 Y1.5398 F10.
G1 X0.6446 Y1.5422
G1 X0.641 Y1.5467
G1 X0.6385 Y1.5526
G1 X0.6379 Y1.5581
G1 X0.6388 Y1.5648
G1 X0.6417 Y1.5721
G1 X0.6421 Y1.5727
G1 X0.6429 Y1.5741
G1 X0.646 Y1.5787
G1 X0.6515 Y1.586
G1 X0.6581 Y1.5927
G1 X0.6608 Y1.5951
G1 X0.6628 Y1.5969
G1 X0.6642 Y1.5981
G1 X0.665 Y1.5987
G1 X0.673 Y1.603
G1 X0.6767 Y1.6042
G1 X0.6791 Y1.6048
G1 X0.6854
G1 X0.6903 Y1.6032
G1 X0.6947 Y1.6005
G1 X0.6989 Y1.596
G1 X0.7015 Y1.5908
G1 X0.7021 Y1.5859
G1 X0.7014 Y1.5795
G1 X0.6999 Y1.5748
G1 X0.697 Y1.5687
G1 X0.694 Y1.564
G1 X0.6893 Y1.5579
G1 X0.6844 Y1.5523
G1 X0.6801 Y1.548
G1 X0.6753 Y1.5439
G1 X0.6717 Y1.5414
G1 X0.667 Y1.5392
G1 X0.6616 Y1.538
G1 X0.6567 Y1.5377
G1 X0.6526 Y1.5382
G1 Z0.15 F5.
G0 Z0.2
G0 X0.6108 Y1.6108
G0 Z0.15
G1 Z0. F5.
G1 X0.6056 Y1.6071 F10.
G1 X0.6019 Y1.6049
G1 X0.597 Y1.6031
G1 X0.5915 Y1.6024
G1 X0.5866 Y1.6025
G1 X0.5826 Y1.6033
G1 X0.5784 Y1.6053
G1 X0.5749 Y1.608
G1 X0.5717 Y1.6127
G1 X0.5697 Y1.6189
G1 X0.5695 Y1.6244
G1 X0.571 Y1.631
G1 X0.5744 Y1.638
G1 X0.5749 Y1.6386
G1 X0.5759 Y1.6399
G1 X0.5793 Y1.6443
G1 X0.5855 Y1.6511
G1 X0.5925 Y1.6571
G1 X0.5954 Y1.6593
G1 X0.5976 Y1.661
G1 X0.5991 Y1.6621
G1 X0.5999 Y1.6626
G1 X0.6083 Y1.6662
G1 X0.612 Y1.6671
G1 X0.6145 Y1.6675
G1 X0.6208 Y1.667
G1 X0.6255 Y1.665
G1 X0.6296 Y1.6619
G1 X0.6335 Y1.6571
G1 X0.6357 Y1.6517
G1 X0.6359 Y1.6467
G1 X0.6346 Y1.6404
G1 X0.6327 Y1.6358
G1 X0.6293 Y1.63
G1 X0.6259 Y1.6256
G1 X0.6208 Y1.62
G1 X0.6154 Y1.6147
G1 X0.6108 Y1.6108
G1 Z0.15 F5.
G0 Z0.2
G0 X0.5414 Y1.7319
G0 Z0.15
G1 Z0. F5.
G1 X0.5447 Y1.7334 F10.
G1 X0.5497 Y1.7351
G1 X0.558 Y1.7352
G1 X0.5647 Y1.7328
G1 X0.5705 Y1.7283
G1 X0.5729 Y1.725
G1 X0.5747 Y1.7213
G1 X0.5757 Y1.7171
G1 X0.5759 Y1.7129
G1 X0.5752 Y1.7088
G1 X0.5736 Y1.7048
G1 X0.5715 Y1.7011
G1 X0.569 Y1.6984
G1 X0.5663 Y1.6964
G1 X0.5627 Y1.6947
G1 X0.5605 Y1.6938
G1 X0.5595 Y1.6935
G1 X0.5562 Y1.693
G1 X0.5005 Y1.6955
G1 X0.5279 Y1.6623
G1 Z0.15 F5.
G0 Z0.2
G0 X0.3863 Y1.5209
G0 Z0.15
G1 Z0. F5.
G1 X0.4614 Y1.587 F10.
G1 Z0.15 F5.
G0 Z0.2
G0 X0.4289 Y1.4747
G0 Z0.15
G1 Z0. F5.
G1 X0.5008 Y1.5442 F10.
G1 Z0.15 F5.
G0 Z0.2
G0 X0.4736 Y1.4305
G0 Z0.15
G1 Z0. F5.
G1 X0.5765 Y1.5397 F10.
G1 Z0.15 F5.
G0 Z0.2
G0 X0.5203 Y1.3885
G0 Z0.15
G1 Z0. F5.
G1 X0.5854 Y1.4644 F10.
G1 Z0.15 F5.
G0 Z0.2
G0 X0.7564 Y1.548
G0 Z0.15
G1 Z0. F5.
G1 X0.765 Y1.5418 F10.
G1 X0.7222 Y1.4833
G1 Z0.15 F5.
G0 Z0.2
G0 X0.3459 Y1.569
G0 Z0.15
G1 Z0. F5.
G1 X0.424 Y1.6315 F10.
G1 Z0.15 F5.
G0 Z0.2
G0 X0.3078 Y1.619
G0 Z0.15
G1 Z0. F5.
G1 X0.3887 Y1.6778 F10.
G1 Z0.15 F5.
G0 Z0.2
G0 X0.2721 Y1.6707
G0 Z0.15
G1 Z0. F5.
G1 X0.3765 Y1.7394 F10.
G1 Z0.15 F5.
G0 Z0.2
G0 X0.2388 Y1.7239
G0 Z0.15
G1 Z0. F5.
G1 X0.3248 Y1.7749 F10.
G1 Z0.15 F5.
G0 Z0.2
G0 X0.208 Y1.7787
G0 Z0.15
G1 Z0. F5.
G1 X0.2963 Y1.8257 F10.
G1 Z0.15 F5.
G0 Z0.2
G0 X0.1798 Y1.8349
G0 Z0.15
G1 Z0. F5.
G1 X0.2702 Y1.8776 F10.
G1 Z0.15 F5.
G0 Z0.2
G0 X0.1543 Y1.8923
G0 Z0.15
G1 Z0. F5.
G1 X0.2465 Y1.9308 F10.
G1 Z0.15 F5.
G0 Z0.2
G0 X0.1314 Y1.9508
G0 Z0.15
G1 Z0. F5.
G1 X0.2724 Y2.0021 F10.
G1 Z0.15 F5.
G0 Z0.2
G0 X1.0128 Y3.7058
G0 Z0.15
G1 Z0. F5.
G1 X1.0558 Y3.5621 F10.
G1 Z0.15 F5.
G0 Z0.2
G0 X1.0734 Y3.7224
G0 Z0.15
G1 Z0. F5.
G1 X1.0976 Y3.6254 F10.
G1 Z0.15 F5.
G0 Z0.2
G0 X1.1347 Y3.7362
G0 Z0.15
G1 Z0. F5.
G1 X1.1544 Y3.6381 F10.
G1 Z0.15 F5.
G0 Z0.2
G0 X1.1966 Y3.7471
G0 Z0.15
G1 Z0. F5.
G1 X1.2116 Y3.6482 F10.
G1 Z0.15 F5.
G0 Z0.2
G0 X1.2589 Y3.7551
G0 Z0.15
G1 Z0. F5.
G1 X1.2693 Y3.6557 F10.
G1 Z0.15 F5.
G0 Z0.2
G0 X1.3215 Y3.7602
G0 Z0.15
G1 Z0. F5.
G1 X1.3288 Y3.6354 F10.
G1 Z0.15 F5.
G0 Z0.2
G0 X1.3843 Y3.7624
G0 Z0.15
G1 Z0. F5.
G1 X1.3855 Y3.6624 F10.
G1 Z0.15 F5.
G0 Z0.2
G0 X1.4471 Y3.7617
G0 Z0.15
G1 Z0. F5.
G1 X1.4436 Y3.6617 F10.
G1 Z0.15 F5.
G0 Z0.2
G0 X1.5098 Y3.758
G0 Z0.15
G1 Z0. F5.
G1 X1.5017 Y3.6584 F10.
G1 Z0.15 F5.
G0 Z0.2
G0 X1.5723 Y3.7515
G0 Z0.15
G1 Z0. F5.
G1 X1.5596 Y3.6523 F10.
G1 Z0.15 F5.
G0 Z0.2
G0 X1.6344 Y3.742
G0 Z0.15
G1 Z0. F5.
G1 X1.6084 Y3.5943 F10.
G1 Z0.15 F5.
G0 Z0.2
G0 X1.696 Y3.7296
G0 Z0.15
G1 Z0. F5.
G1 X1.6741 Y3.6321 F10.
G1 Z0.15 F5.
G0 Z0.2
G0 X2.2945 Y3.0135
G0 Z0.15
G1 Z0. F5.
G1 X2.3547 Y3.0538 F10.
G1 Z0.15 F5.
G0 Z0.2
G0 X2.3004 Y3.0047
G0 Z0.15
G1 Z0. F5.
G1 X2.2945 Y3.0135 F10.
G1 Z0.15 F5.
G0 Z0.2
G0 X2.5769 Y3.0739
G0 Z0.15
G1 Z0. F5.
G1 X2.4897 Y3.0249 F10.
G1 Z0.15 F5.
G0 Z0.2
G0 X2.6064 Y3.0184
G0 Z0.15
G1 Z0. F5.
G1 X2.4724 Y2.9511 F10.
G1 Z0.15 F5.
G0 Z0.2
G0 X2.6333 Y2.9616
G0 Z0.15
G1 Z0. F5.
G1 X2.5419 Y2.9209 F10.
G1 Z0.15 F5.
G0 Z0.2
G0 X2.0344 Y0.6912
G0 Z0.15
G1 Z0. F5.
G1 Y0.5912 F10.
G1 Z0.15 F5.
G0 Z0.2
M5 M9

G30
M30
%
