%
(1001)
(T2  D=0.125 CR=0. - ZMIN=-0.05 - flat end mill)
G90 G54 G64 G50 G17 G40 G80 G94 G91.1 G49
G20 (Inch)

N10(182D Contour2 5)
T2 G43 H2 M6
S5000 M3 M8
G54
G0 X0.5 Y2.3732
G0 Z0.6
G0 Z0.2
G1 Z0.0394 F10.
G1 Z-0.0375
G1 X0.4997 Z-0.0403
G1 X0.4988 Z-0.0429
G1 X0.4973 Z-0.0453
G1 X0.4953 Z-0.0473
G1 X0.4929 Z-0.0488
G1 X0.4903 Z-0.0497
G1 X0.4875 Z-0.05
G1 X0.475 F20.
G3 X0.4625 Y2.3607 I0. J-0.0125
G3 X0.8136 Y1.6292 I0.9375 J0. F40.
G1 X1.1137 Y2.2355
G2 Y2.4858 I0.2863 J0.1252
G1 X0.8136 Y3.0921
G3 X0.4625 Y2.3607 I0.5864 J-0.7314
G3 X0.475 Y2.3482 I0.0125 J0. F20.
G1 X0.4875
G1 X0.4903 Z-0.0497
G1 X0.4929 Z-0.0488
G1 X0.4953 Z-0.0473
G1 X0.4973 Z-0.0453
G1 X0.4988 Z-0.0429
G1 X0.4997 Z-0.0403
G1 X0.5 Z-0.0375
G0 Z0.2
G0 X1.7223 Y1.5202
G1 Z0.0394 F10.
G1 Z-0.0375
G1 X1.7224 Y1.52 Z-0.0403
G1 X1.7227 Y1.5191 Z-0.0429
G1 X1.7233 Y1.5177 Z-0.0453
G1 X1.724 Y1.5159 Z-0.0473
G1 X1.7249 Y1.5137 Z-0.0488
G1 X1.7259 Y1.5112 Z-0.0497
G1 X1.7269 Y1.5086 Z-0.05
G1 X1.7315 Y1.497 F20.
G3 X1.7478 Y1.4901 I0.0116 J0.0046
G3 X2.3267 Y2.2185 I-0.3478 J0.8706 F40.
G1 X1.6516 Y2.1753
G2 X1.4348 Y2.0501 I-0.2516 J0.1854
G1 X1.0598 Y1.4871
G3 X1.7478 Y1.4901 I0.3402 J0.8736
G3 X1.7547 Y1.5063 I-0.0046 J0.0116 F20.
G1 X1.7501 Y1.5179
G1 X1.7491 Y1.5205 Z-0.0497
G1 X1.7481 Y1.523 Z-0.0488
G1 X1.7472 Y1.5252 Z-0.0473
G1 X1.7465 Y1.527 Z-0.0453
G1 X1.7459 Y1.5284 Z-0.0429
G1 X1.7456 Y1.5292 Z-0.0403
G1 X1.7455 Y1.5295 Z-0.0375
G0 Z0.2
G0 X1.9667 Y3.06
G1 Z0.0394 F10.
G1 Z-0.0375
G1 X1.9669 Y3.0602 Z-0.0403
G1 X1.9675 Y3.0609 Z-0.0429
G1 X1.9684 Y3.0621 Z-0.0453
G1 X1.9696 Y3.0637 Z-0.0473
G1 X1.9711 Y3.0655 Z-0.0488
G1 X1.9727 Y3.0676 Z-0.0497
G1 X1.9744 Y3.0698 Z-0.05
G1 X1.9822 Y3.0796 F20.
G3 X1.9801 Y3.0972 I-0.0098 J0.0077
G3 X1.0598 Y3.2343 I-0.5801 J-0.7365 F40.
G1 X1.4348 Y2.6712
G2 X1.6516 Y2.5461 I-0.0348 J-0.3106
G1 X2.3267 Y2.5028
G3 X1.9801 Y3.0972 I-0.9267 J-0.1421
G3 X1.9625 Y3.0951 I-0.0077 J-0.0098 F20.
G1 X1.9548 Y3.0852
G1 X1.9531 Y3.0831 Z-0.0497
G1 X1.9514 Y3.081 Z-0.0488
G1 X1.95 Y3.0791 Z-0.0473
G1 X1.9487 Y3.0776 Z-0.0453
G1 X1.9478 Y3.0764 Z-0.0429
G1 X1.9473 Y3.0757 Z-0.0403
G1 X1.9471 Y3.0754 Z-0.0375
G0 Z0.6

N20(182D Contour2 4)
S5000 M3 M8
G0 X2.7999 Y2.3388
G0 Z0.6
G0 Z0.2
G1 Z0.0394 F10.
G1 Z-0.0375
G1 X2.7996 Z-0.0403
G1 X2.7986 Z-0.0429
G1 X2.7972 Y2.3389 Z-0.0453
G1 X2.7952 Z-0.0473
G1 X2.7928 Y2.339 Z-0.0488
G1 X2.7902 Z-0.0497
G1 X2.7874 Y2.3391 Z-0.05
G1 X2.7749 Y2.3394 F20.
G3 X2.7621 Y2.3272 I-0.0003 J-0.0125
G2 X0.0379 Y2.3941 I-1.3621 J0.0334 F40.
G2 X1.4 Y3.7232 I1.3621 J-0.0334
G2 X2.2799 Y3.401 I0. J-1.3625
G2 X2.7625 Y2.3607 I-0.8799 J-1.0403
G2 X2.7621 Y2.3272 I-1.3625 J0.
G3 X2.7743 Y2.3144 I0.0125 J-0.0003 F20.
G1 X2.7868 Y2.3141
G1 X2.7896 Z-0.0497
G1 X2.7922 Y2.314 Z-0.0488
G1 X2.7946 Y2.3139 Z-0.0473
G1 X2.7965 Z-0.0453
G1 X2.798 Y2.3138 Z-0.0429
G1 X2.799 Z-0.0403
G1 X2.7993 Z-0.0375
G0 Z0.2
G0 X2.0261 Y0.7397
G1 Z0.0394 F10.
G1 Z-0.0375
G1 Y0.7394 Z-0.0403
G1 X2.026 Y0.7385 Z-0.0429
G1 Y0.737 Z-0.0453
G1 X2.0259 Y0.735 Z-0.0473
G1 X2.0258 Y0.7326 Z-0.0488
G1 X2.0257 Y0.73 Z-0.0497
G1 X2.0256 Y0.7272 Z-0.05
G1 X2.0252 Y0.7147 F20.
G3 X2.0372 Y0.7018 I0.0125 J-0.0005
G2 X2.0629 Y0.6952 I-0.0023 J-0.0625 F40.
G1 X2.1627 Y0.6452
G2 Y0.5334 I-0.028 J-0.0559
G1 X2.0629 Y0.4834
G2 X2.0367 Y0.4769 I-0.028 J0.0559
G1 X0.9536 Y0.4285
G2 X0.4177 Y0.7502 I-0.2679 J0.1608
G2 X0.9536 I0.2679 J-0.1608
G1 X2.0367 Y0.7018
G1 X2.0372
G3 X2.0502 Y0.7138 I0.0005 J0.0125 F20.
G1 X2.0506 Y0.7263
G1 X2.0507 Y0.7291 Z-0.0497
G1 X2.0508 Y0.7317 Z-0.0488
G1 X2.0509 Y0.7341 Z-0.0473
G1 X2.051 Y0.7361 Z-0.0453
G1 Y0.7376 Z-0.0429
G1 X2.0511 Y0.7385 Z-0.0403
G1 Y0.7388 Z-0.0375
G0 Z0.6
M5 M9

M30
%
