%
(1001)
(T2  D=0.125 CR=0. - ZMIN=-0.05 - flat end mill)
G90 G54 G64 G50 G17 G40 G80 G94 G91.1 G49
G20 (Inch)
G30

N10(182D Contour2 5)
T2 G43 H2 M6
S5000 M3 M8
G54
G0 X0.5 Y2.425
G0 Z0.6
G0 Z0.2
G1 Z0.0394 F10.
G1 Z-0.0375
G1 X0.4997 Z-0.0403
G1 X0.4988 Z-0.0429
G1 X0.4973 Z-0.0453
G1 X0.4953 Z-0.0473
G1 X0.4929 Z-0.0488
G1 X0.4903 Z-0.0497
G1 X0.4875 Z-0.05
G1 X0.475 F20.
G3 X0.4625 Y2.4125 I0. J-0.0125
G3 X0.8136 Y1.6811 I0.9375 J0.
G1 X1.1137 Y2.2873
G2 Y2.5377 I0.2863 J0.1252
G1 X0.8136 Y3.1439
G3 X0.4625 Y2.4125 I0.5864 J-0.7314
G3 X0.475 Y2.4 I0.0125 J0.
G1 X0.4875
G1 X0.4903 Z-0.0497
G1 X0.4929 Z-0.0488
G1 X0.4953 Z-0.0473
G1 X0.4973 Z-0.0453
G1 X0.4988 Z-0.0429
G1 X0.4997 Z-0.0403
G1 X0.5 Z-0.0375
G0 Z0.2
G0 X1.7223 Y1.5721
G1 Z0.0394 F10.
G1 Z-0.0375
G1 X1.7224 Y1.5718 Z-0.0403
G1 X1.7227 Y1.5709 Z-0.0429
G1 X1.7233 Y1.5695 Z-0.0453
G1 X1.724 Y1.5677 Z-0.0473
G1 X1.7249 Y1.5655 Z-0.0488
G1 X1.7259 Y1.5631 Z-0.0497
G1 X1.7269 Y1.5605 Z-0.05
G1 X1.7315 Y1.5489 F20.
G3 X1.7478 Y1.5419 I0.0116 J0.0046
G3 X2.3267 Y2.2704 I-0.3478 J0.8706
G1 X1.6516 Y2.2271
G2 X1.4348 Y2.1019 I-0.2516 J0.1854
G1 X1.0598 Y1.5389
G3 X1.7478 Y1.5419 I0.3402 J0.8736
G3 X1.7547 Y1.5581 I-0.0046 J0.0116
G1 X1.7501 Y1.5697
G1 X1.7491 Y1.5723 Z-0.0497
G1 X1.7481 Y1.5748 Z-0.0488
G1 X1.7472 Y1.577 Z-0.0473
G1 X1.7465 Y1.5788 Z-0.0453
G1 X1.7459 Y1.5802 Z-0.0429
G1 X1.7456 Y1.5811 Z-0.0403
G1 X1.7455 Y1.5814 Z-0.0375
G0 Z0.2
G0 X1.9667 Y3.1118
G1 Z0.0394 F10.
G1 Z-0.0375
G1 X1.9669 Y3.112 Z-0.0403
G1 X1.9675 Y3.1128 Z-0.0429
G1 X1.9684 Y3.1139 Z-0.0453
G1 X1.9696 Y3.1155 Z-0.0473
G1 X1.9711 Y3.1174 Z-0.0488
G1 X1.9727 Y3.1194 Z-0.0497
G1 X1.9744 Y3.1216 Z-0.05
G1 X1.9822 Y3.1314 F20.
G3 X1.9801 Y3.149 I-0.0098 J0.0077
G3 X1.0598 Y3.2861 I-0.5801 J-0.7365
G1 X1.4348 Y2.7231
G2 X1.6516 Y2.5979 I-0.0348 J-0.3106
G1 X2.3267 Y2.5546
G3 X1.9801 Y3.149 I-0.9267 J-0.1421
G3 X1.9625 Y3.1469 I-0.0077 J-0.0098
G1 X1.9548 Y3.1371
G1 X1.9531 Y3.1349 Z-0.0497
G1 X1.9514 Y3.1328 Z-0.0488
G1 X1.95 Y3.131 Z-0.0473
G1 X1.9487 Y3.1294 Z-0.0453
G1 X1.9478 Y3.1282 Z-0.0429
G1 X1.9473 Y3.1275 Z-0.0403
G1 X1.9471 Y3.1273 Z-0.0375
G0 Z0.6

N20(182D Contour2 4)
S5000 M3 M8
G0 X1.9671 Y1.1324
G0 Z0.6
G0 Z0.2
G1 Z0.0394 F10.
G1 Z-0.0375
G1 X1.9669 Y1.1327 Z-0.0403
G1 X1.9666 Y1.1336 Z-0.0429
G1 X1.966 Y1.1349 Z-0.0453
G1 X1.9652 Y1.1367 Z-0.0473
G1 X1.9642 Y1.1389 Z-0.0488
G1 X1.9632 Y1.1413 Z-0.0497
G1 X1.9621 Y1.1439 Z-0.05
G1 X1.9571 Y1.1554 F20.
G3 X1.9407 Y1.1619 I-0.0115 J-0.005
G2 X1.4 Y1.05 I-0.5407 J1.2506
G2 X1.3359 Y1.0515 I-0.0001 J1.3625
G2 X0.0375 Y2.4125 I0.0641 J1.361
G2 X2.7625 I1.3625 J0.
G2 X1.9407 Y1.1619 I-1.3625 J0.
G3 X1.9342 Y1.1454 I0.005 J-0.0115
G1 X1.9391 Y1.134
G1 X1.9403 Y1.1314 Z-0.0497
G1 X1.9413 Y1.129 Z-0.0488
G1 X1.9422 Y1.1268 Z-0.0473
G1 X1.943 Y1.125 Z-0.0453
G1 X1.9436 Y1.1236 Z-0.0429
G1 X1.944 Y1.1228 Z-0.0403
G1 X1.9441 Y1.1225 Z-0.0375
G0 Z0.2
G0 X2.2 Y0.9543
G1 Z0.0394 F10.
G1 Z-0.0375
G1 X2.2003 Z-0.0403
G1 X2.2012 Z-0.0429
G1 X2.2027 Z-0.0453
G1 X2.2047 Z-0.0473
G1 X2.2071 Z-0.0488
G1 X2.2097 Z-0.0497
G1 X2.2125 Z-0.05
G1 X2.225 F20.
G3 X2.2375 Y0.9668 I0. J0.0125
G1 Y1.1375
G2 X2.3 Y1.2 I0.0625 J0.
G1 X2.9
G2 X2.9625 Y1.1375 I0. J-0.0625
G1 Y0.2875
G2 X2.9 Y0.225 I-0.0625 J0.
G1 X2.3
G2 X2.2375 Y0.2875 I0. J0.0625
G1 Y0.6412
G1 Y0.9668
G3 X2.225 Y0.9793 I-0.0125 J0.
G1 X2.2125
G1 X2.2097 Z-0.0497
G1 X2.2071 Z-0.0488
G1 X2.2047 Z-0.0473
G1 X2.2027 Z-0.0453
G1 X2.2012 Z-0.0429
G1 X2.2003 Z-0.0403
G1 X2.2 Z-0.0375
G0 Z0.2
G0 X2.0047 Y0.7926
G1 Z0.0394 F10.
G1 Z-0.0375
G1 Y0.7923 Z-0.0403
G1 Y0.7914 Z-0.0429
G1 X2.0046 Y0.7899 Z-0.0453
G1 X2.0045 Y0.7879 Z-0.0473
G1 X2.0044 Y0.7855 Z-0.0488
G1 X2.0043 Y0.7829 Z-0.0497
G1 X2.0042 Y0.7801 Z-0.05
G1 X2.0036 Y0.7676 F20.
G3 X2.0155 Y0.7546 I0.0125 J-0.0006
G1 X2.0367 Y0.7536
G2 X2.0629 Y0.747 I-0.0017 J-0.0625
G1 X2.1627 Y0.697
G2 Y0.5853 I-0.028 J-0.0559
G1 X2.0629 Y0.5353
G2 X2.0367 Y0.5287 I-0.028 J0.0559
G1 X0.9536 Y0.4803
G2 X0.4177 Y0.802 I-0.2679 J0.1608
G2 X0.9536 I0.2679 J-0.1608
G1 X2.0155 Y0.7546
G3 X2.0286 Y0.7665 I0.0006 J0.0125
G1 X2.0292 Y0.779
G1 X2.0293 Y0.7818 Z-0.0497
G1 X2.0294 Y0.7844 Z-0.0488
G1 X2.0295 Y0.7868 Z-0.0473
G1 X2.0296 Y0.7888 Z-0.0453
G1 X2.0297 Y0.7903 Z-0.0429
G1 Y0.7912 Z-0.0403
G1 Y0.7915 Z-0.0375
G0 Z0.6
M5 M9

G30
M30
%
